(G-CODE GENERATED BY FLATCAM v8.994 - www.flatcam.org - Version Date: 2020/11/7)

(Name: TapBeerFlowControl_hardware-B_Cu.gbr_ncc_cnc)
(Type: G-code from Geometry)
(Units: MM)

(Created on Monday, 27 November 2023 at 00:32)

(This preprocessor is the default preprocessor used by FlatCAM.)
(It is made to work with MACH3 compatible motion controllers.)

(TOOL DIAMETER: 0.3 mm)
(Feedrate_XY: 70.0 mm/min)
(Feedrate_Z: 25.0 mm/min)
(Feedrate rapids 1500.0 mm/min)

(Z_Cut: -0.1 mm)
(Z_Move: 1.0 mm)
(Z Start: None mm)
(Z End: 15.0 mm)
(X,Y End: None mm)
(Steps per circle: 64)
(Preprocessor Geometry: default)

(X range:  111.8999 ...  166.1600  mm)
(Y range:  -88.6239 ...  -28.4651  mm)

(Spindle Speed: 1000.0 RPM)
G21
G90
G94

G01 F70.00

M5
G00 Z15.0000
G00 X0.0000 Y0.0000
T1
M6    
(MSG, Change to Tool Dia = 0.3000)
M0
G00 Z15.0000

M03 S1000.0
G01 F70.00
G00 X113.6257 Y-31.3500
G01 F25.00
G01 Z-0.1000
G01 F70.00
G01 X113.6430 Y-31.1303
G01 X113.6944 Y-30.9160
G01 X113.7787 Y-30.7124
G01 X113.7970 Y-30.6827
G01 X113.9481 Y-30.8338
G01 X113.9243 Y-30.8840
G01 X113.9200 Y-30.8942
G01 X113.8828 Y-30.9981
G01 X113.8797 Y-31.0088
G01 X113.8538 Y-31.1123
G01 X113.8518 Y-31.1231
G01 X113.8358 Y-31.2324
G01 X113.8300 Y-31.3500
G01 X113.8358 Y-31.4676
G01 X113.8518 Y-31.5769
G01 X113.8538 Y-31.5877
G01 X113.8797 Y-31.6912
G01 X113.8828 Y-31.7019
G01 X113.9200 Y-31.8058
G01 X113.9243 Y-31.8160
G01 X113.9481 Y-31.8662
G01 X113.7970 Y-32.0173
G01 X113.7787 Y-31.9876
G01 X113.6944 Y-31.7840
G01 X113.6430 Y-31.5697
G01 X113.6257 Y-31.3500
G00 Z1.0000
G00 X114.5138 Y-30.2681
G01 F25.00
G01 Z-0.1000
G01 F70.00
G01 X114.3627 Y-30.1170
G01 X114.3924 Y-30.0987
G01 X114.5960 Y-30.0144
G01 X114.8103 Y-29.9630
G01 X115.0300 Y-29.9457
G01 X115.2497 Y-29.9630
G01 X115.4640 Y-30.0144
G01 X115.6676 Y-30.0987
G01 X115.6973 Y-30.1170
G01 X115.5462 Y-30.2681
G01 X115.4960 Y-30.2443
G01 X115.4858 Y-30.2400
G01 X115.3819 Y-30.2028
G01 X115.3712 Y-30.1997
G01 X115.2677 Y-30.1738
G01 X115.2569 Y-30.1718
G01 X115.1476 Y-30.1558
G01 X115.0300 Y-30.1500
G01 X114.9124 Y-30.1558
G01 X114.8031 Y-30.1718
G01 X114.7923 Y-30.1738
G01 X114.6888 Y-30.1997
G01 X114.6781 Y-30.2028
G01 X114.5742 Y-30.2400
G01 X114.5640 Y-30.2443
G01 X114.5138 Y-30.2681
G00 Z1.0000
G00 X116.1119 Y-30.8338
G01 F25.00
G01 Z-0.1000
G01 F70.00
G01 X116.2630 Y-30.6827
G01 X116.2813 Y-30.7124
G01 X116.3656 Y-30.9160
G01 X116.4170 Y-31.1303
G01 X116.4343 Y-31.3500
G01 X116.4170 Y-31.5697
G01 X116.3656 Y-31.7840
G01 X116.2813 Y-31.9876
G01 X116.2630 Y-32.0173
G01 X116.1119 Y-31.8662
G01 X116.1357 Y-31.8160
G01 X116.1400 Y-31.8058
G01 X116.1772 Y-31.7019
G01 X116.1803 Y-31.6912
G01 X116.2062 Y-31.5877
G01 X116.2082 Y-31.5769
G01 X116.2242 Y-31.4676
G01 X116.2300 Y-31.3500
G01 X116.2242 Y-31.2324
G01 X116.2082 Y-31.1231
G01 X116.2062 Y-31.1123
G01 X116.1803 Y-31.0088
G01 X116.1772 Y-30.9981
G01 X116.1400 Y-30.8942
G01 X116.1357 Y-30.8840
G01 X116.1119 Y-30.8338
G00 Z1.0000
G00 X114.5138 Y-32.4319
G01 F25.00
G01 Z-0.1000
G01 F70.00
G01 X114.5640 Y-32.4557
G01 X114.5742 Y-32.4600
G01 X114.6781 Y-32.4972
G01 X114.6888 Y-32.5003
G01 X114.7923 Y-32.5262
G01 X114.8031 Y-32.5282
G01 X114.9124 Y-32.5442
G01 X115.0300 Y-32.5500
G01 X115.1476 Y-32.5442
G01 X115.2569 Y-32.5282
G01 X115.2677 Y-32.5262
G01 X115.3712 Y-32.5003
G01 X115.3819 Y-32.4972
G01 X115.4858 Y-32.4600
G01 X115.4960 Y-32.4557
G01 X115.5462 Y-32.4319
G01 X115.6973 Y-32.5830
G01 X115.6676 Y-32.6013
G01 X115.4640 Y-32.6856
G01 X115.2497 Y-32.7370
G01 X115.0300 Y-32.7543
G01 X114.8103 Y-32.7370
G01 X114.5960 Y-32.6856
G01 X114.3925 Y-32.6013
G01 X114.3627 Y-32.5830
G01 X114.5138 Y-32.4319
G00 Z1.0000
G00 X118.7783 Y-31.9878
G01 F25.00
G01 Z-0.1000
G01 F70.00
G01 X118.6939 Y-31.7841
G01 X118.6425 Y-31.5698
G01 X118.6252 Y-31.3500
G01 X118.6425 Y-31.1302
G01 X118.6939 Y-30.9159
G01 X118.7783 Y-30.7122
G01 X118.8935 Y-30.5243
G01 X119.0366 Y-30.3566
G01 X119.2043 Y-30.2135
G01 X119.3922 Y-30.0983
G01 X119.5959 Y-30.0139
G01 X119.8102 Y-29.9625
G01 X120.0300 Y-29.9452
G01 X120.2498 Y-29.9625
G01 X120.4641 Y-30.0139
G01 X120.6678 Y-30.0983
G01 X120.8557 Y-30.2135
G01 X121.0234 Y-30.3566
G01 X121.1665 Y-30.5243
G01 X121.2244 Y-30.6187
G01 X121.2303 Y-30.6276
G01 X121.2368 Y-30.6361
G01 X121.2440 Y-30.6441
G01 X121.2490 Y-30.6491
G01 X121.3062 Y-30.7008
G01 X121.3177 Y-30.7098
G01 X121.3300 Y-30.7176
G01 X121.3397 Y-30.7226
G01 X121.3532 Y-30.7283
G01 X121.3601 Y-30.7306
G01 X121.3706 Y-30.7334
G01 X121.4246 Y-30.7457
G01 X121.4393 Y-30.7483
G01 X121.4468 Y-30.7491
G01 X121.4580 Y-30.7495
G01 X126.0176 Y-30.7495
G01 X126.0319 Y-30.7488
G01 X126.0425 Y-30.7474
G01 X126.0565 Y-30.7444
G01 X126.1269 Y-30.7237
G01 X126.1375 Y-30.7202
G01 X126.1478 Y-30.7159
G01 X126.1610 Y-30.7089
G01 X126.1704 Y-30.7029
G01 X126.1822 Y-30.6938
G01 X126.1904 Y-30.6862
G01 X126.1980 Y-30.6780
G01 X126.2462 Y-30.6224
G01 X126.2507 Y-30.6166
G01 X126.2571 Y-30.6074
G01 X126.2644 Y-30.5945
G01 X126.2724 Y-30.5762
G01 X126.3092 Y-30.4778
G01 X126.3696 Y-30.3971
G01 X126.4503 Y-30.3367
G01 X126.5473 Y-30.3005
G01 X126.5802 Y-30.2970
G01 X127.9638 Y-30.2970
G01 X127.9710 Y-30.2966
G01 X127.9816 Y-30.2955
G01 X127.9922 Y-30.2936
G01 X127.9991 Y-30.2919
G01 X128.0731 Y-30.2702
G01 X128.0835 Y-30.2664
G01 X128.0936 Y-30.2619
G01 X128.1064 Y-30.2548
G01 X128.1156 Y-30.2486
G01 X128.1452 Y-30.2249
G01 X128.1540 Y-30.2167
G01 X129.1303 Y-29.2404
G01 X129.1354 Y-29.2352
G01 X129.1495 Y-29.2188
G01 X129.1602 Y-29.2051
G01 X129.1893 Y-29.1807
G01 X129.2001 Y-29.1707
G01 X129.2224 Y-29.1530
G01 X129.2744 Y-29.1093
G01 X129.3403 Y-29.0785
G01 X129.4013 Y-29.0479
G01 X129.4679 Y-29.0341
G01 X129.5386 Y-29.0175
G01 X129.6109 Y-29.0195
G01 X132.6933 Y-29.0195
G01 X132.7040 Y-29.0191
G01 X132.7147 Y-29.0180
G01 X132.7252 Y-29.0161
G01 X132.7322 Y-29.0144
G01 X132.8095 Y-28.9915
G01 X132.8196 Y-28.9876
G01 X132.8293 Y-28.9830
G01 X132.8418 Y-28.9758
G01 X132.8506 Y-28.9696
G01 X132.8617 Y-28.9604
G01 X132.9014 Y-28.9222
G01 X132.9065 Y-28.9169
G01 X132.9135 Y-28.9085
G01 X132.9353 Y-28.8776
G01 X133.0776 Y-28.7353
G01 X133.2426 Y-28.6198
G01 X133.4250 Y-28.5348
G01 X133.6195 Y-28.4827
G01 X133.8200 Y-28.4651
G01 X134.0205 Y-28.4827
G01 X134.2150 Y-28.5348
G01 X134.3974 Y-28.6198
G01 X134.5624 Y-28.7353
G01 X134.7047 Y-28.8776
G01 X134.7264 Y-28.9084
G01 X134.7333 Y-28.9166
G01 X134.7407 Y-28.9244
G01 X134.7514 Y-28.9338
G01 X134.8117 Y-28.9818
G01 X134.8238 Y-28.9896
G01 X134.8333 Y-28.9948
G01 X134.8431 Y-28.9992
G01 X134.8567 Y-29.0040
G01 X134.8707 Y-29.0074
G01 X134.9213 Y-29.0173
G01 X134.9321 Y-29.0188
G01 X134.9430 Y-29.0195
G01 X156.8963 Y-29.0195
G01 X156.9036 Y-29.0193
G01 X156.9252 Y-29.0178
G01 X156.9424 Y-29.0157
G01 X156.9803 Y-29.0189
G01 X156.9922 Y-29.0195
G01 X157.1850 Y-29.0195
G01 X157.2894 Y-29.0317
G01 X157.4213 Y-29.0797
G01 X157.5386 Y-29.1569
G01 X157.6350 Y-29.2590
G01 X157.7051 Y-29.3805
G01 X157.7432 Y-29.5075
G01 X157.7467 Y-29.5180
G01 X157.7511 Y-29.5283
G01 X157.7581 Y-29.5414
G01 X157.7911 Y-29.5966
G01 X157.7996 Y-29.6088
G01 X157.8068 Y-29.6173
G01 X159.2096 Y-31.0203
G01 X159.2148 Y-31.0254
G01 X159.2312 Y-31.0395
G01 X159.2449 Y-31.0502
G01 X159.2693 Y-31.0793
G01 X159.2793 Y-31.0901
G01 X159.2970 Y-31.1124
G01 X159.3409 Y-31.1647
G01 X159.3696 Y-31.2263
G01 X159.4021 Y-31.2913
G01 X159.4168 Y-31.3621
G01 X159.4325 Y-31.4283
G01 X159.4305 Y-31.5009
G01 X159.4307 Y-44.2976
G01 X159.4320 Y-44.3118
G01 X159.4347 Y-44.3259
G01 X159.4563 Y-44.3998
G01 X159.4598 Y-44.4104
G01 X159.4626 Y-44.4173
G01 X159.4657 Y-44.4241
G01 X159.4711 Y-44.4339
G01 X159.4771 Y-44.4433
G01 X159.4815 Y-44.4493
G01 X159.4887 Y-44.4579
G01 X159.4964 Y-44.4659
G01 X159.5548 Y-44.5167
G01 X159.5635 Y-44.5237
G01 X159.5728 Y-44.5301
G01 X159.5825 Y-44.5357
G01 X159.5926 Y-44.5406
G01 X159.6066 Y-44.5460
G01 X159.6211 Y-44.5499
G01 X159.6726 Y-44.5611
G01 X159.6832 Y-44.5630
G01 X159.6938 Y-44.5641
G01 X159.7045 Y-44.5645
G01 X159.8448 Y-44.5645
G01 X159.8777 Y-44.5680
G01 X159.9747 Y-44.6042
G01 X160.0554 Y-44.6646
G01 X160.1158 Y-44.7453
G01 X160.1520 Y-44.8423
G01 X160.1555 Y-44.8752
G01 X160.1555 Y-46.9048
G01 X160.1520 Y-46.9377
G01 X160.1158 Y-47.0347
G01 X160.0554 Y-47.1154
G01 X159.9747 Y-47.1758
G01 X159.8777 Y-47.2120
G01 X159.8448 Y-47.2155
G01 X157.8152 Y-47.2155
G01 X157.7823 Y-47.2120
G01 X157.6853 Y-47.1758
G01 X157.6046 Y-47.1154
G01 X157.5442 Y-47.0347
G01 X157.5080 Y-46.9377
G01 X157.5045 Y-46.9048
G01 X157.5045 Y-44.8752
G01 X157.5080 Y-44.8423
G01 X157.5442 Y-44.7453
G01 X157.6046 Y-44.6646
G01 X157.6853 Y-44.6042
G01 X157.7823 Y-44.5680
G01 X157.8152 Y-44.5645
G01 X157.9591 Y-44.5645
G01 X157.9733 Y-44.5634
G01 X157.9874 Y-44.5611
G01 X157.9978 Y-44.5584
G01 X158.0648 Y-44.5387
G01 X158.0754 Y-44.5352
G01 X158.0857 Y-44.5309
G01 X158.0956 Y-44.5258
G01 X158.1052 Y-44.5200
G01 X158.1143 Y-44.5135
G01 X158.1256 Y-44.5038
G01 X158.1334 Y-44.4958
G01 X158.1817 Y-44.4402
G01 X158.1909 Y-44.4284
G01 X158.1951 Y-44.4222
G01 X158.2007 Y-44.4125
G01 X158.2041 Y-44.4058
G01 X158.2085 Y-44.3954
G01 X158.2121 Y-44.3848
G01 X158.2140 Y-44.3776
G01 X158.2268 Y-44.3189
G01 X158.2284 Y-44.3083
G01 X158.2293 Y-44.2976
G01 X158.2293 Y-31.8451
G01 X158.2288 Y-31.8380
G01 X158.2274 Y-31.8274
G01 X158.2244 Y-31.8134
G01 X158.2037 Y-31.7429
G01 X158.2002 Y-31.7325
G01 X158.1975 Y-31.7256
G01 X158.1910 Y-31.7124
G01 X158.1832 Y-31.6999
G01 X158.1766 Y-31.6911
G01 X158.1600 Y-31.6704
G01 X158.1520 Y-31.6614
G01 X156.7890 Y-30.2983
G01 X156.7810 Y-30.2912
G01 X156.7753 Y-30.2867
G01 X156.7665 Y-30.2806
G01 X156.7605 Y-30.2769
G01 X156.6928 Y-30.2400
G01 X156.6861 Y-30.2368
G01 X156.6759 Y-30.2326
G01 X156.6619 Y-30.2282
G01 X156.6475 Y-30.2252
G01 X156.6098 Y-30.2210
G01 X156.5978 Y-30.2205
G01 X153.8946 Y-30.2205
G01 X153.8875 Y-30.2209
G01 X153.8768 Y-30.2220
G01 X153.8628 Y-30.2247
G01 X153.7853 Y-30.2474
G01 X153.7748 Y-30.2512
G01 X153.7613 Y-30.2574
G01 X153.7516 Y-30.2630
G01 X153.7424 Y-30.2693
G01 X153.7308 Y-30.2787
G01 X153.7202 Y-30.2892
G01 X153.6696 Y-30.3476
G01 X153.6628 Y-30.3565
G01 X153.6567 Y-30.3658
G01 X153.6497 Y-30.3790
G01 X153.6453 Y-30.3893
G01 X153.6407 Y-30.4034
G01 X153.6375 Y-30.4180
G01 X153.6270 Y-30.4908
G01 X153.6258 Y-30.5019
G01 X153.6255 Y-30.5168
G01 X153.6267 Y-30.5316
G01 X153.6294 Y-30.5463
G01 X153.6335 Y-30.5606
G01 X153.6390 Y-30.5745
G01 X153.6695 Y-30.6413
G01 X153.6764 Y-30.6539
G01 X153.6845 Y-30.6658
G01 X153.6913 Y-30.6741
G01 X153.6986 Y-30.6820
G01 X153.7214 Y-30.7037
G01 X153.7308 Y-30.7115
G01 X153.8796 Y-30.8731
G01 X153.9997 Y-31.0570
G01 X154.0880 Y-31.2581
G01 X154.1419 Y-31.4711
G01 X154.1600 Y-31.6900
G01 X154.1419 Y-31.9089
G01 X154.0880 Y-32.1219
G01 X153.9997 Y-32.3230
G01 X153.8796 Y-32.5069
G01 X153.7308 Y-32.6685
G01 X153.5575 Y-32.8035
G01 X153.3643 Y-32.9080
G01 X153.1565 Y-32.9793
G01 X152.9398 Y-33.0155
G01 X152.7202 Y-33.0155
G01 X152.5035 Y-32.9793
G01 X152.2957 Y-32.9080
G01 X152.1025 Y-32.8035
G01 X151.9292 Y-32.6685
G01 X151.7804 Y-32.5069
G01 X151.6603 Y-32.3230
G01 X151.5688 Y-32.1144
G01 X151.5657 Y-32.1080
G01 X151.5606 Y-32.0986
G01 X151.5549 Y-32.0895
G01 X151.5485 Y-32.0809
G01 X151.4963 Y-32.0191
G01 X151.4857 Y-32.0087
G01 X151.4770 Y-32.0016
G01 X151.4710 Y-31.9973
G01 X151.4583 Y-31.9895
G01 X151.4516 Y-31.9861
G01 X151.4414 Y-31.9816
G01 X151.4309 Y-31.9779
G01 X151.3606 Y-31.9562
G01 X151.3463 Y-31.9529
G01 X151.3391 Y-31.9518
G01 X151.3282 Y-31.9508
G01 X151.3178 Y-31.9505
G01 X147.8780 Y-31.9505
G01 X147.8673 Y-31.9509
G01 X147.8567 Y-31.9520
G01 X147.8461 Y-31.9539
G01 X147.8357 Y-31.9566
G01 X147.7687 Y-31.9763
G01 X147.7549 Y-31.9810
G01 X147.7449 Y-31.9855
G01 X147.7322 Y-31.9925
G01 X147.7202 Y-32.0008
G01 X147.7090 Y-32.0102
G01 X147.6625 Y-32.0575
G01 X147.6551 Y-32.0660
G01 X147.6506 Y-32.0720
G01 X147.6444 Y-32.0813
G01 X147.5865 Y-32.1757
G01 X147.4434 Y-32.3434
G01 X147.2757 Y-32.4865
G01 X147.0878 Y-32.6017
G01 X146.8841 Y-32.6861
G01 X146.6698 Y-32.7375
G01 X146.4500 Y-32.7548
G01 X146.2302 Y-32.7375
G01 X146.0159 Y-32.6861
G01 X145.8122 Y-32.6017
G01 X145.6243 Y-32.4865
G01 X145.4566 Y-32.3434
G01 X145.3135 Y-32.1757
G01 X145.1983 Y-31.9878
G01 X145.1139 Y-31.7841
G01 X145.0625 Y-31.5698
G01 X145.0452 Y-31.3500
G01 X145.0625 Y-31.1302
G01 X145.1139 Y-30.9159
G01 X145.1983 Y-30.7122
G01 X145.2458 Y-30.6346
G01 X145.2508 Y-30.6252
G01 X145.2552 Y-30.6154
G01 X145.2588 Y-30.6053
G01 X145.2609 Y-30.5985
G01 X145.2809 Y-30.5238
G01 X145.2823 Y-30.5165
G01 X145.2837 Y-30.5054
G01 X145.2843 Y-30.4942
G01 X145.2841 Y-30.4830
G01 X145.2834 Y-30.4756
G01 X145.2818 Y-30.4646
G01 X145.2784 Y-30.4501
G01 X145.2562 Y-30.3799
G01 X145.2524 Y-30.3694
G01 X145.2479 Y-30.3592
G01 X145.2444 Y-30.3526
G01 X145.2366 Y-30.3399
G01 X145.2275 Y-30.3281
G01 X145.2173 Y-30.3172
G01 X145.2090 Y-30.3098
G01 X145.1524 Y-30.2629
G01 X145.1404 Y-30.2544
G01 X145.1341 Y-30.2506
G01 X145.1244 Y-30.2454
G01 X145.1109 Y-30.2397
G01 X145.1039 Y-30.2374
G01 X145.0933 Y-30.2345
G01 X145.0369 Y-30.2229
G01 X145.0256 Y-30.2213
G01 X145.0142 Y-30.2205
G01 X142.8855 Y-30.2205
G01 X142.8713 Y-30.2216
G01 X142.8607 Y-30.2232
G01 X142.8537 Y-30.2247
G01 X142.7762 Y-30.2474
G01 X142.7657 Y-30.2512
G01 X142.7522 Y-30.2574
G01 X142.7425 Y-30.2630
G01 X142.7303 Y-30.2715
G01 X142.7217 Y-30.2787
G01 X142.7111 Y-30.2892
G01 X142.6605 Y-30.3476
G01 X142.6537 Y-30.3565
G01 X142.6496 Y-30.3627
G01 X142.6440 Y-30.3723
G01 X142.6391 Y-30.3824
G01 X142.6349 Y-30.3928
G01 X142.6316 Y-30.4034
G01 X142.6290 Y-30.4143
G01 X142.6278 Y-30.4216
G01 X142.6170 Y-30.4981
G01 X142.6163 Y-30.5127
G01 X142.6168 Y-30.5237
G01 X142.6175 Y-30.5310
G01 X142.6201 Y-30.5455
G01 X142.6240 Y-30.5596
G01 X142.6422 Y-30.6102
G01 X142.6465 Y-30.6208
G01 X142.6498 Y-30.6277
G01 X142.6554 Y-30.6377
G01 X142.7013 Y-30.7124
G01 X142.7856 Y-30.9160
G01 X142.8370 Y-31.1303
G01 X142.8543 Y-31.3500
G01 X142.8370 Y-31.5697
G01 X142.7856 Y-31.7840
G01 X142.7013 Y-31.9876
G01 X142.6830 Y-32.0173
G01 X142.5319 Y-31.8662
G01 X142.5557 Y-31.8160
G01 X142.5600 Y-31.8058
G01 X142.5972 Y-31.7019
G01 X142.6003 Y-31.6912
G01 X142.6262 Y-31.5877
G01 X142.6282 Y-31.5769
G01 X142.6442 Y-31.4676
G01 X142.6498 Y-31.3574
G01 X142.6500 Y-31.3463
G01 X142.6448 Y-31.2397
G01 X142.6433 Y-31.2251
G01 X142.6269 Y-31.1159
G01 X142.6003 Y-31.0088
G01 X142.5960 Y-30.9947
G01 X142.5587 Y-30.8908
G01 X142.5116 Y-30.7909
G01 X142.5047 Y-30.7779
G01 X142.4478 Y-30.6833
G01 X142.3821 Y-30.5945
G01 X142.3728 Y-30.5832
G01 X142.3036 Y-30.5068
G01 X142.2932 Y-30.4964
G01 X142.2113 Y-30.4224
G01 X142.1167 Y-30.3522
G01 X142.0157 Y-30.2917
G01 X141.9160 Y-30.2443
G01 X141.9024 Y-30.2387
G01 X141.7983 Y-30.2017
G01 X141.6913 Y-30.1747
G01 X141.6769 Y-30.1718
G01 X141.5749 Y-30.1567
G01 X141.5603 Y-30.1552
G01 X141.4574 Y-30.1502
G01 X141.4426 Y-30.1502
G01 X141.3324 Y-30.1558
G01 X141.2231 Y-30.1718
G01 X141.2087 Y-30.1747
G01 X141.1017 Y-30.2017
G01 X140.9976 Y-30.2387
G01 X140.9840 Y-30.2443
G01 X140.8843 Y-30.2917
G01 X140.7895 Y-30.3483
G01 X140.7773 Y-30.3565
G01 X140.6887 Y-30.4224
G01 X140.6068 Y-30.4964
G01 X140.5964 Y-30.5068
G01 X140.5224 Y-30.5887
G01 X140.4565 Y-30.6773
G01 X140.4483 Y-30.6895
G01 X140.3917 Y-30.7843
G01 X140.3443 Y-30.8840
G01 X140.3387 Y-30.8976
G01 X140.3017 Y-31.0017
G01 X140.2747 Y-31.1087
G01 X140.2718 Y-31.1231
G01 X140.2567 Y-31.2251
G01 X140.2555 Y-31.2360
G01 X140.2502 Y-31.3426
G01 X140.2502 Y-31.3574
G01 X140.2558 Y-31.4676
G01 X140.2724 Y-31.5805
G01 X140.2747 Y-31.5913
G01 X140.2997 Y-31.6912
G01 X140.3028 Y-31.7019
G01 X140.3400 Y-31.8058
G01 X140.3443 Y-31.8160
G01 X140.3681 Y-31.8662
G01 X140.2170 Y-32.0173
G01 X140.1987 Y-31.9876
G01 X140.1144 Y-31.7840
G01 X140.0630 Y-31.5697
G01 X140.0457 Y-31.3500
G01 X140.0630 Y-31.1303
G01 X140.1144 Y-30.9160
G01 X140.1987 Y-30.7124
G01 X140.2464 Y-30.6346
G01 X140.2530 Y-30.6219
G01 X140.2571 Y-30.6120
G01 X140.2615 Y-30.5985
G01 X140.2797 Y-30.5310
G01 X140.2822 Y-30.5201
G01 X140.2839 Y-30.5091
G01 X140.2848 Y-30.4979
G01 X140.2848 Y-30.4868
G01 X140.2840 Y-30.4756
G01 X140.2817 Y-30.4609
G01 X140.2790 Y-30.4501
G01 X140.2568 Y-30.3799
G01 X140.2530 Y-30.3694
G01 X140.2468 Y-30.3559
G01 X140.2392 Y-30.3430
G01 X140.2305 Y-30.3310
G01 X140.2205 Y-30.3199
G01 X140.2096 Y-30.3098
G01 X140.1529 Y-30.2629
G01 X140.1410 Y-30.2544
G01 X140.1315 Y-30.2488
G01 X140.1250 Y-30.2454
G01 X140.1149 Y-30.2410
G01 X140.1010 Y-30.2363
G01 X140.0903 Y-30.2337
G01 X140.0375 Y-30.2229
G01 X140.0262 Y-30.2213
G01 X140.0109 Y-30.2205
G01 X134.9467 Y-30.2205
G01 X134.9324 Y-30.2212
G01 X134.9218 Y-30.2226
G01 X134.9148 Y-30.2239
G01 X134.9044 Y-30.2266
G01 X134.8374 Y-30.2463
G01 X134.8271 Y-30.2497
G01 X134.8171 Y-30.2538
G01 X134.8075 Y-30.2587
G01 X134.7982 Y-30.2642
G01 X134.7894 Y-30.2704
G01 X134.7783 Y-30.2796
G01 X134.7386 Y-30.3178
G01 X134.7335 Y-30.3231
G01 X134.7265 Y-30.3315
G01 X134.7047 Y-30.3624
G01 X134.5624 Y-30.5047
G01 X134.3974 Y-30.6202
G01 X134.3810 Y-30.6286
G01 X134.3720 Y-30.6343
G01 X134.3662 Y-30.6385
G01 X134.3579 Y-30.6453
G01 X134.3027 Y-30.6940
G01 X134.2948 Y-30.7019
G01 X134.2852 Y-30.7133
G01 X134.2768 Y-30.7256
G01 X134.2696 Y-30.7386
G01 X134.2651 Y-30.7489
G01 X134.2603 Y-30.7630
G01 X134.2412 Y-30.8302
G01 X134.2385 Y-30.8410
G01 X134.2367 Y-30.8520
G01 X134.2357 Y-30.8631
G01 X134.2355 Y-30.8743
G01 X134.2361 Y-30.8855
G01 X134.2383 Y-30.9002
G01 X134.2418 Y-30.9147
G01 X134.2632 Y-30.9850
G01 X134.2656 Y-30.9920
G01 X134.2700 Y-31.0021
G01 X134.2750 Y-31.0119
G01 X134.2788 Y-31.0182
G01 X134.2829 Y-31.0243
G01 X134.2895 Y-31.0331
G01 X134.2943 Y-31.0387
G01 X134.3020 Y-31.0466
G01 X134.3157 Y-31.0586
G01 X134.1457 Y-31.2286
G01 X134.1028 Y-31.2132
G01 X134.0922 Y-31.2099
G01 X134.0125 Y-31.1899
G01 X134.0017 Y-31.1876
G01 X133.9131 Y-31.1746
G01 X133.8200 Y-31.1700
G01 X133.7269 Y-31.1746
G01 X133.6383 Y-31.1876
G01 X133.6275 Y-31.1899
G01 X133.5478 Y-31.2099
G01 X133.5372 Y-31.2132
G01 X133.4943 Y-31.2286
G01 X133.3240 Y-31.0583
G01 X133.3400 Y-31.0440
G01 X133.3477 Y-31.0359
G01 X133.3525 Y-31.0302
G01 X133.3570 Y-31.0243
G01 X133.3632 Y-31.0150
G01 X133.3687 Y-31.0053
G01 X133.3720 Y-30.9986
G01 X133.3762 Y-30.9882
G01 X133.3786 Y-30.9812
G01 X133.3988 Y-30.9104
G01 X133.4022 Y-30.8959
G01 X133.4041 Y-30.8811
G01 X133.4045 Y-30.8662
G01 X133.4039 Y-30.8551
G01 X133.4017 Y-30.8403
G01 X133.3982 Y-30.8259
G01 X133.3779 Y-30.7590
G01 X133.3744 Y-30.7486
G01 X133.3716 Y-30.7418
G01 X133.3667 Y-30.7319
G01 X133.3612 Y-30.7224
G01 X133.3550 Y-30.7133
G01 X133.3457 Y-30.7019
G01 X133.3353 Y-30.6915
G01 X133.2812 Y-30.6445
G01 X133.2724 Y-30.6374
G01 X133.2598 Y-30.6290
G01 X133.2531 Y-30.6253
G01 X133.2426 Y-30.6202
G01 X133.0776 Y-30.5047
G01 X132.9353 Y-30.3624
G01 X132.9178 Y-30.3373
G01 X132.9113 Y-30.3288
G01 X132.9018 Y-30.3182
G01 X132.8940 Y-30.3108
G01 X132.8340 Y-30.2626
G01 X132.8223 Y-30.2541
G01 X132.8131 Y-30.2486
G01 X132.8002 Y-30.2422
G01 X132.7867 Y-30.2371
G01 X132.7763 Y-30.2341
G01 X132.7187 Y-30.2227
G01 X132.7079 Y-30.2212
G01 X132.6933 Y-30.2205
G01 X129.9622 Y-30.2205
G01 X129.9480 Y-30.2212
G01 X129.9409 Y-30.2220
G01 X129.9303 Y-30.2239
G01 X129.9200 Y-30.2266
G01 X129.8529 Y-30.2463
G01 X129.8425 Y-30.2498
G01 X129.8323 Y-30.2540
G01 X129.8192 Y-30.2608
G01 X129.8069 Y-30.2689
G01 X129.7804 Y-30.2900
G01 X129.7714 Y-30.2980
G01 X129.0483 Y-31.0210
G01 X129.0412 Y-31.0290
G01 X129.0367 Y-31.0347
G01 X129.0306 Y-31.0435
G01 X129.0252 Y-31.0527
G01 X128.9900 Y-31.1172
G01 X128.9839 Y-31.1306
G01 X128.9791 Y-31.1446
G01 X128.9765 Y-31.1553
G01 X128.9746 Y-31.1662
G01 X128.9710 Y-31.2002
G01 X128.9705 Y-31.2122
G01 X128.9705 Y-32.5923
G01 X128.9670 Y-32.6252
G01 X128.9308 Y-32.7222
G01 X128.8704 Y-32.8029
G01 X128.7897 Y-32.8633
G01 X128.7754 Y-32.8687
G01 X128.7657 Y-32.8730
G01 X128.7562 Y-32.8780
G01 X128.7442 Y-32.8857
G01 X128.6795 Y-32.9343
G01 X128.6685 Y-32.9444
G01 X128.6634 Y-32.9498
G01 X128.6563 Y-32.9584
G01 X128.6519 Y-32.9644
G01 X128.6459 Y-32.9738
G01 X128.6423 Y-32.9804
G01 X128.6375 Y-32.9904
G01 X128.6103 Y-33.0628
G01 X128.6068 Y-33.0734
G01 X128.6041 Y-33.0843
G01 X128.6017 Y-33.0990
G01 X128.6009 Y-33.1101
G01 X128.6009 Y-33.1176
G01 X128.6015 Y-33.1287
G01 X128.6023 Y-33.1361
G01 X128.6043 Y-33.1471
G01 X128.6209 Y-33.2225
G01 X128.6253 Y-33.2365
G01 X128.6312 Y-33.2499
G01 X128.6383 Y-33.2627
G01 X128.6559 Y-33.2892
G01 X128.7616 Y-33.4252
G01 X128.8644 Y-33.6150
G01 X128.9073 Y-33.7400
G01 X128.6941 Y-33.7400
G01 X128.6874 Y-33.7215
G01 X128.6831 Y-33.7114
G01 X128.6431 Y-33.6269
G01 X128.6362 Y-33.6139
G01 X128.5842 Y-33.5275
G01 X128.5243 Y-33.4464
G01 X128.5149 Y-33.4350
G01 X128.4471 Y-33.3604
G01 X128.3669 Y-33.2878
G01 X128.2800 Y-33.2233
G01 X128.1872 Y-33.1677
G01 X128.0961 Y-33.1244
G01 X128.0825 Y-33.1188
G01 X127.9875 Y-33.0850
G01 X127.8862 Y-33.0594
G01 X127.8753 Y-33.0574
G01 X127.7829 Y-33.0437
G01 X127.7719 Y-33.0425
G01 X127.6712 Y-33.0375
G01 X127.5725 Y-33.0375
G01 X127.4718 Y-33.0423
G01 X127.4571 Y-33.0437
G01 X127.3574 Y-33.0587
G01 X127.2596 Y-33.0830
G01 X127.2455 Y-33.0873
G01 X127.1506 Y-33.1214
G01 X127.0594 Y-33.1644
G01 X127.0496 Y-33.1695
G01 X126.9600 Y-33.2233
G01 X126.8731 Y-33.2878
G01 X126.7929 Y-33.3604
G01 X126.7226 Y-33.4378
G01 X126.7157 Y-33.4464
G01 X126.6558 Y-33.5275
G01 X126.6038 Y-33.6139
G01 X126.5969 Y-33.6269
G01 X126.5569 Y-33.7114
G01 X126.5526 Y-33.7215
G01 X126.5459 Y-33.7400
G01 X126.3327 Y-33.7400
G01 X126.3756 Y-33.6150
G01 X126.4783 Y-33.4252
G01 X126.5839 Y-33.2895
G01 X126.5918 Y-33.2777
G01 X126.5986 Y-33.2651
G01 X126.6029 Y-33.2553
G01 X126.6285 Y-33.1903
G01 X126.6311 Y-33.1833
G01 X126.6342 Y-33.1726
G01 X126.6372 Y-33.1580
G01 X126.6382 Y-33.1506
G01 X126.6389 Y-33.1395
G01 X126.6386 Y-33.1246
G01 X126.6368 Y-33.1098
G01 X126.6225 Y-33.0376
G01 X126.6200 Y-33.0267
G01 X126.6178 Y-33.0196
G01 X126.6139 Y-33.0091
G01 X126.6075 Y-32.9957
G01 X126.5998 Y-32.9829
G01 X126.5909 Y-32.9710
G01 X126.5834 Y-32.9627
G01 X126.5350 Y-32.9123
G01 X126.5271 Y-32.9047
G01 X126.5186 Y-32.8977
G01 X126.5066 Y-32.8893
G01 X126.4938 Y-32.8821
G01 X126.4687 Y-32.8704
G01 X126.4503 Y-32.8633
G01 X126.3696 Y-32.8029
G01 X126.3092 Y-32.7222
G01 X126.2730 Y-32.6252
G01 X126.2695 Y-32.5923
G01 X126.2695 Y-32.2245
G01 X126.2691 Y-32.2138
G01 X126.2674 Y-32.1996
G01 X126.2653 Y-32.1891
G01 X126.2634 Y-32.1822
G01 X126.2426 Y-32.1116
G01 X126.2388 Y-32.1011
G01 X126.2326 Y-32.0876
G01 X126.2270 Y-32.0779
G01 X126.2207 Y-32.0687
G01 X126.2113 Y-32.0571
G01 X126.2036 Y-32.0491
G01 X126.1424 Y-31.9959
G01 X126.1334 Y-31.9891
G01 X126.1272 Y-31.9849
G01 X126.1175 Y-31.9793
G01 X126.1074 Y-31.9744
G01 X126.1004 Y-31.9715
G01 X126.0898 Y-31.9679
G01 X126.0789 Y-31.9651
G01 X126.0204 Y-31.9526
G01 X126.0098 Y-31.9512
G01 X125.9955 Y-31.9505
G01 X121.4580 Y-31.9505
G01 X121.4473 Y-31.9509
G01 X121.4367 Y-31.9520
G01 X121.4261 Y-31.9539
G01 X121.4157 Y-31.9566
G01 X121.3487 Y-31.9763
G01 X121.3383 Y-31.9797
G01 X121.3282 Y-31.9839
G01 X121.3153 Y-31.9907
G01 X121.3031 Y-31.9986
G01 X121.2945 Y-32.0053
G01 X121.2838 Y-32.0153
G01 X121.2451 Y-32.0548
G01 X121.2351 Y-32.0660
G01 X121.2285 Y-32.0750
G01 X121.2244 Y-32.0813
G01 X121.1665 Y-32.1757
G01 X121.0234 Y-32.3434
G01 X120.8557 Y-32.4865
G01 X120.6678 Y-32.6017
G01 X120.4641 Y-32.6861
G01 X120.2498 Y-32.7375
G01 X120.0300 Y-32.7548
G01 X119.8102 Y-32.7375
G01 X119.5959 Y-32.6861
G01 X119.3922 Y-32.6017
G01 X119.2043 Y-32.4865
G01 X119.0366 Y-32.3434
G01 X118.8935 Y-32.1757
G01 X118.7783 Y-31.9878
G00 Z1.0000
G00 X121.2254 Y-31.9069
G01 F25.00
G01 Z-0.1000
G01 F70.00
G01 X121.2428 Y-31.8701
G01 X121.2892 Y-31.8701
G01 X121.2734 Y-31.8771
G01 X121.2560 Y-31.8863
G01 X121.2394 Y-31.8968
G01 X121.2254 Y-31.9069
G00 Z1.0000
G00 X121.1600 Y-30.9499
G01 F25.00
G01 Z-0.1000
G01 F70.00
G01 X121.1413 Y-30.8976
G01 X121.1372 Y-30.8874
G01 X121.0916 Y-30.7909
G01 X121.0865 Y-30.7811
G01 X121.0278 Y-30.6833
G01 X120.9621 Y-30.5945
G01 X120.9552 Y-30.5859
G01 X120.8785 Y-30.5015
G01 X120.7913 Y-30.4224
G01 X120.6967 Y-30.3522
G01 X120.6021 Y-30.2953
G01 X120.5924 Y-30.2900
G01 X120.4892 Y-30.2413
G01 X120.3783 Y-30.2017
G01 X120.2641 Y-30.1731
G01 X120.1476 Y-30.1558
G01 X120.0300 Y-30.1500
G01 X119.9124 Y-30.1558
G01 X119.7959 Y-30.1731
G01 X119.6888 Y-30.1997
G01 X119.6781 Y-30.2028
G01 X119.5708 Y-30.2413
G01 X119.4643 Y-30.2917
G01 X119.3633 Y-30.3522
G01 X119.2687 Y-30.4224
G01 X119.1815 Y-30.5015
G01 X119.1024 Y-30.5887
G01 X119.0322 Y-30.6833
G01 X118.9717 Y-30.7843
G01 X118.9213 Y-30.8908
G01 X118.8817 Y-31.0017
G01 X118.8531 Y-31.1159
G01 X118.8358 Y-31.2324
G01 X118.8300 Y-31.3500
G01 X118.8358 Y-31.4676
G01 X118.8531 Y-31.5841
G01 X118.8797 Y-31.6912
G01 X118.8828 Y-31.7019
G01 X118.9213 Y-31.8092
G01 X118.9684 Y-31.9091
G01 X118.9753 Y-31.9221
G01 X119.0322 Y-32.0167
G01 X119.1024 Y-32.1113
G01 X119.1764 Y-32.1932
G01 X119.1868 Y-32.2036
G01 X119.2687 Y-32.2776
G01 X119.3573 Y-32.3435
G01 X119.3695 Y-32.3517
G01 X119.4643 Y-32.4083
G01 X119.5708 Y-32.4587
G01 X119.6747 Y-32.4960
G01 X119.6888 Y-32.5003
G01 X119.7959 Y-32.5269
G01 X119.9124 Y-32.5442
G01 X120.0300 Y-32.5500
G01 X120.1403 Y-32.5448
G01 X120.1549 Y-32.5433
G01 X120.2569 Y-32.5282
G01 X120.2713 Y-32.5253
G01 X120.3783 Y-32.4983
G01 X120.4892 Y-32.4587
G01 X120.5957 Y-32.4083
G01 X120.6936 Y-32.3498
G01 X120.7027 Y-32.3435
G01 X120.7913 Y-32.2776
G01 X120.8732 Y-32.2036
G01 X120.8836 Y-32.1932
G01 X120.9528 Y-32.1168
G01 X120.9599 Y-32.1084
G01 X121.0278 Y-32.0167
G01 X121.0865 Y-31.9189
G01 X121.0916 Y-31.9091
G01 X121.1372 Y-31.8126
G01 X121.1413 Y-31.8024
G01 X121.1600 Y-31.7501
G01 X126.4700 Y-31.7501
G01 X126.4700 Y-32.5525
G01 X126.4707 Y-32.5672
G01 X126.4716 Y-32.5745
G01 X126.4736 Y-32.5854
G01 X126.4765 Y-32.5960
G01 X126.4801 Y-32.6065
G01 X126.4844 Y-32.6166
G01 X126.4877 Y-32.6232
G01 X126.4933 Y-32.6327
G01 X126.4974 Y-32.6389
G01 X126.5017 Y-32.6448
G01 X126.5089 Y-32.6532
G01 X126.5166 Y-32.6611
G01 X126.5248 Y-32.6685
G01 X126.5336 Y-32.6751
G01 X126.5429 Y-32.6812
G01 X126.5493 Y-32.6848
G01 X126.5592 Y-32.6896
G01 X126.5729 Y-32.6949
G01 X126.5871 Y-32.6989
G01 X126.6016 Y-32.7014
G01 X126.6126 Y-32.7023
G01 X126.6200 Y-32.7025
G01 X128.6274 Y-32.7023
G01 X128.6420 Y-32.7009
G01 X128.6529 Y-32.6989
G01 X128.6671 Y-32.6949
G01 X128.6808 Y-32.6896
G01 X128.6939 Y-32.6830
G01 X128.7033 Y-32.6772
G01 X128.7152 Y-32.6685
G01 X128.7261 Y-32.6586
G01 X128.7360 Y-32.6477
G01 X128.7426 Y-32.6389
G01 X128.7505 Y-32.6264
G01 X128.7556 Y-32.6166
G01 X128.7612 Y-32.6030
G01 X128.7655 Y-32.5889
G01 X128.7678 Y-32.5781
G01 X128.7696 Y-32.5635
G01 X128.7700 Y-32.5525
G01 X128.7700 Y-31.0159
G01 X129.7657 Y-30.0201
G01 X132.9594 Y-30.0201
G01 X132.9789 Y-30.0613
G01 X132.9839 Y-30.0711
G01 X133.0281 Y-30.1447
G01 X133.0343 Y-30.1538
G01 X133.0811 Y-30.2169
G01 X133.0880 Y-30.2255
G01 X133.1482 Y-30.2918
G01 X133.2118 Y-30.3496
G01 X133.2231 Y-30.3589
G01 X133.2862 Y-30.4057
G01 X133.2953 Y-30.4119
G01 X133.3722 Y-30.4578
G01 X133.4497 Y-30.4947
G01 X133.4633 Y-30.5003
G01 X133.5442 Y-30.5291
G01 X133.6275 Y-30.5501
G01 X133.6419 Y-30.5530
G01 X133.7269 Y-30.5654
G01 X133.8200 Y-30.5700
G01 X133.9131 Y-30.5654
G01 X133.9981 Y-30.5530
G01 X134.0125 Y-30.5501
G01 X134.0958 Y-30.5291
G01 X134.1767 Y-30.5003
G01 X134.1903 Y-30.4947
G01 X134.2678 Y-30.4578
G01 X134.3447 Y-30.4119
G01 X134.3538 Y-30.4057
G01 X134.4169 Y-30.3589
G01 X134.4282 Y-30.3496
G01 X134.4918 Y-30.2918
G01 X134.5520 Y-30.2255
G01 X134.5589 Y-30.2169
G01 X134.6057 Y-30.1538
G01 X134.6119 Y-30.1447
G01 X134.6561 Y-30.0711
G01 X134.6611 Y-30.0613
G01 X134.6806 Y-30.0201
G01 X156.7943 Y-30.0201
G01 X158.4299 Y-31.6557
G01 X158.4299 Y-44.7650
G01 X157.8550 Y-44.7650
G01 X157.8440 Y-44.7654
G01 X157.8330 Y-44.7666
G01 X157.8221 Y-44.7686
G01 X157.8115 Y-44.7715
G01 X157.8010 Y-44.7751
G01 X157.7942 Y-44.7779
G01 X157.7843 Y-44.7827
G01 X157.7748 Y-44.7883
G01 X157.7686 Y-44.7924
G01 X157.7598 Y-44.7990
G01 X157.7516 Y-44.8064
G01 X157.7439 Y-44.8143
G01 X157.7367 Y-44.8227
G01 X157.7303 Y-44.8317
G01 X157.7263 Y-44.8379
G01 X157.7210 Y-44.8476
G01 X157.7164 Y-44.8576
G01 X157.7126 Y-44.8679
G01 X157.7095 Y-44.8786
G01 X157.7072 Y-44.8894
G01 X157.7054 Y-44.9040
G01 X157.7050 Y-44.9150
G01 X157.7050 Y-46.8650
G01 X157.7057 Y-46.8797
G01 X157.7079 Y-46.8943
G01 X157.7104 Y-46.9050
G01 X157.7138 Y-46.9155
G01 X157.7179 Y-46.9258
G01 X157.7245 Y-46.9389
G01 X157.7324 Y-46.9514
G01 X157.7390 Y-46.9602
G01 X157.7489 Y-46.9711
G01 X157.7570 Y-46.9786
G01 X157.7656 Y-46.9855
G01 X157.7779 Y-46.9937
G01 X157.7876 Y-46.9990
G01 X157.8010 Y-47.0049
G01 X157.8150 Y-47.0096
G01 X157.8257 Y-47.0121
G01 X157.8366 Y-47.0139
G01 X157.8513 Y-47.0150
G01 X159.8124 Y-47.0148
G01 X159.8234 Y-47.0139
G01 X159.8343 Y-47.0121
G01 X159.8450 Y-47.0096
G01 X159.8521 Y-47.0074
G01 X159.8624 Y-47.0036
G01 X159.8724 Y-46.9990
G01 X159.8821 Y-46.9937
G01 X159.8914 Y-46.9876
G01 X159.8973 Y-46.9833
G01 X159.9057 Y-46.9761
G01 X159.9136 Y-46.9684
G01 X159.9210 Y-46.9602
G01 X159.9276 Y-46.9514
G01 X159.9337 Y-46.9421
G01 X159.9390 Y-46.9324
G01 X159.9436 Y-46.9224
G01 X159.9485 Y-46.9085
G01 X159.9521 Y-46.8943
G01 X159.9543 Y-46.8797
G01 X159.9550 Y-46.8650
G01 X159.9550 Y-44.9150
G01 X159.9546 Y-44.9040
G01 X159.9534 Y-44.8930
G01 X159.9514 Y-44.8821
G01 X159.9474 Y-44.8679
G01 X159.9436 Y-44.8576
G01 X159.9390 Y-44.8476
G01 X159.9337 Y-44.8379
G01 X159.9276 Y-44.8286
G01 X159.9233 Y-44.8227
G01 X159.9161 Y-44.8143
G01 X159.9084 Y-44.8064
G01 X159.9002 Y-44.7990
G01 X159.8914 Y-44.7924
G01 X159.8821 Y-44.7863
G01 X159.8724 Y-44.7810
G01 X159.8658 Y-44.7779
G01 X159.8555 Y-44.7738
G01 X159.8450 Y-44.7704
G01 X159.8379 Y-44.7686
G01 X159.8270 Y-44.7666
G01 X159.8160 Y-44.7654
G01 X159.8050 Y-44.7650
G01 X159.2301 Y-44.7650
G01 X159.2301 Y-31.4900
G01 X159.2282 Y-31.4508
G01 X159.2237 Y-31.4192
G01 X159.2208 Y-31.4048
G01 X159.2149 Y-31.3809
G01 X159.2118 Y-31.3703
G01 X159.1997 Y-31.3369
G01 X159.1846 Y-31.3047
G01 X159.1792 Y-31.2950
G01 X159.1666 Y-31.2739
G01 X159.1585 Y-31.2617
G01 X159.1393 Y-31.2362
G01 X159.1155 Y-31.2097
G01 X157.5492 Y-29.6433
G01 X157.5501 Y-29.6237
G01 X157.5501 Y-29.6163
G01 X157.5487 Y-29.5881
G01 X157.5478 Y-29.5771
G01 X157.5424 Y-29.5419
G01 X157.5339 Y-29.5074
G01 X157.5306 Y-29.4969
G01 X157.5223 Y-29.4737
G01 X157.5167 Y-29.4601
G01 X157.5029 Y-29.4314
G01 X157.4847 Y-29.4008
G01 X157.4785 Y-29.3917
G01 X157.4638 Y-29.3720
G01 X157.4545 Y-29.3606
G01 X157.4329 Y-29.3371
G01 X157.4038 Y-29.3107
G01 X157.3783 Y-29.2915
G01 X157.3661 Y-29.2834
G01 X157.3386 Y-29.2671
G01 X157.3031 Y-29.2503
G01 X157.2662 Y-29.2371
G01 X157.2281 Y-29.2276
G01 X157.1892 Y-29.2218
G01 X157.1500 Y-29.2199
G01 X134.6806 Y-29.2199
G01 X134.6611 Y-29.1787
G01 X134.6561 Y-29.1689
G01 X134.6119 Y-29.0953
G01 X134.6057 Y-29.0862
G01 X134.5589 Y-29.0231
G01 X134.5520 Y-29.0145
G01 X134.4918 Y-28.9482
G01 X134.4282 Y-28.8904
G01 X134.4169 Y-28.8811
G01 X134.3538 Y-28.8343
G01 X134.3447 Y-28.8281
G01 X134.2678 Y-28.7822
G01 X134.1903 Y-28.7453
G01 X134.1767 Y-28.7397
G01 X134.0958 Y-28.7109
G01 X134.0053 Y-28.6883
G01 X133.9204 Y-28.6755
G01 X133.9058 Y-28.6740
G01 X133.8274 Y-28.6702
G01 X133.8126 Y-28.6702
G01 X133.7269 Y-28.6746
G01 X133.6419 Y-28.6870
G01 X133.6275 Y-28.6899
G01 X133.5442 Y-28.7109
G01 X133.4633 Y-28.7397
G01 X133.4497 Y-28.7453
G01 X133.3722 Y-28.7822
G01 X133.2953 Y-28.8281
G01 X133.2862 Y-28.8343
G01 X133.2231 Y-28.8811
G01 X133.2118 Y-28.8904
G01 X133.1482 Y-28.9482
G01 X133.0880 Y-29.0145
G01 X133.0811 Y-29.0231
G01 X133.0343 Y-29.0862
G01 X133.0281 Y-29.0953
G01 X132.9839 Y-29.1689
G01 X132.9789 Y-29.1787
G01 X132.9594 Y-29.2199
G01 X129.6000 Y-29.2199
G01 X129.5608 Y-29.2218
G01 X129.5292 Y-29.2263
G01 X129.5148 Y-29.2292
G01 X129.4838 Y-29.2371
G01 X129.4469 Y-29.2503
G01 X129.4180 Y-29.2638
G01 X129.4050 Y-29.2708
G01 X129.3777 Y-29.2873
G01 X129.3520 Y-29.3062
G01 X129.3433 Y-29.3131
G01 X129.3197 Y-29.3345
G01 X128.1566 Y-30.4975
G01 X126.6200 Y-30.4975
G01 X126.6090 Y-30.4979
G01 X126.5980 Y-30.4991
G01 X126.5871 Y-30.5011
G01 X126.5800 Y-30.5029
G01 X126.5695 Y-30.5063
G01 X126.5592 Y-30.5104
G01 X126.5526 Y-30.5135
G01 X126.5429 Y-30.5188
G01 X126.5367 Y-30.5228
G01 X126.5277 Y-30.5292
G01 X126.5220 Y-30.5339
G01 X126.5139 Y-30.5414
G01 X126.5089 Y-30.5468
G01 X126.5017 Y-30.5552
G01 X126.4953 Y-30.5642
G01 X126.4895 Y-30.5736
G01 X126.4860 Y-30.5801
G01 X126.4814 Y-30.5901
G01 X126.4776 Y-30.6004
G01 X126.4745 Y-30.6111
G01 X126.4716 Y-30.6255
G01 X126.4707 Y-30.6328
G01 X126.4700 Y-30.6438
G01 X126.4700 Y-30.9499
G01 X121.1600 Y-30.9499
G01 X121.2225 Y-30.7870
G01 X121.2369 Y-30.7991
G01 X121.2528 Y-30.8108
G01 X121.2695 Y-30.8212
G01 X121.2858 Y-30.8299
G01 X121.2428 Y-30.8299
G01 X121.2225 Y-30.7870
G00 Z1.0000
G00 X126.1865 Y-30.8299
G01 F25.00
G01 Z-0.1000
G01 F70.00
G01 X126.2057 Y-30.8211
G01 X126.2150 Y-30.8163
G01 X126.2265 Y-30.8095
G01 X126.2456 Y-30.7966
G01 X126.2562 Y-30.7883
G01 X126.2641 Y-30.7815
G01 X126.2760 Y-30.7703
G01 X126.2877 Y-30.7577
G01 X126.3354 Y-30.7027
G01 X126.3420 Y-30.6947
G01 X126.3500 Y-30.6841
G01 X126.3500 Y-30.8299
G01 X126.1865 Y-30.8299
G00 Z1.0000
G00 X126.3500 Y-32.0560
G01 F25.00
G01 Z-0.1000
G01 F70.00
G01 X126.3453 Y-32.0451
G01 X126.3395 Y-32.0331
G01 X126.3330 Y-32.0213
G01 X126.3259 Y-32.0099
G01 X126.3183 Y-31.9989
G01 X126.3102 Y-31.9882
G01 X126.3015 Y-31.9780
G01 X126.2924 Y-31.9682
G01 X126.2766 Y-31.9534
G01 X126.2146 Y-31.9000
G01 X126.2038 Y-31.8919
G01 X126.1926 Y-31.8843
G01 X126.1811 Y-31.8774
G01 X126.1676 Y-31.8701
G01 X126.3500 Y-31.8701
G01 X126.3500 Y-32.0560
G00 Z1.0000
G00 X126.8451 Y-32.9425
G01 F25.00
G01 Z-0.1000
G01 F70.00
G01 X126.9671 Y-32.9425
G01 X126.9567 Y-32.9474
G01 X126.9548 Y-32.9484
G01 X126.9468 Y-32.9523
G01 X126.9300 Y-32.9614
G01 X126.8604 Y-33.0030
G01 X126.8566 Y-32.9844
G01 X126.8534 Y-32.9707
G01 X126.8494 Y-32.9563
G01 X126.8451 Y-32.9425
G01 X128.2729 Y-32.9425
G01 X128.3990 Y-32.9425
G01 X128.3844 Y-32.9817
G01 X128.3777 Y-33.0018
G01 X128.3074 Y-32.9599
G01 X128.2932 Y-32.9523
G01 X128.2729 Y-32.9425
G01 X128.6285 Y-32.8224
G01 X128.6018 Y-32.8429
G01 X128.5917 Y-32.8518
G01 X128.5821 Y-32.8611
G01 X128.5730 Y-32.8709
G01 X128.5644 Y-32.8812
G01 X128.5541 Y-32.8949
G01 X128.5467 Y-32.9061
G01 X128.5352 Y-32.9261
G01 X128.5294 Y-32.9382
G01 X128.5253 Y-32.9478
G01 X128.4979 Y-33.0209
G01 X128.4920 Y-33.0385
G01 X128.4864 Y-33.0609
G01 X128.4845 Y-33.0712
G01 X128.4826 Y-33.0845
G01 X128.4810 Y-33.1075
G01 X128.4809 Y-33.1209
G01 X128.4813 Y-33.1313
G01 X128.4828 Y-33.1477
G01 X128.4854 Y-33.1646
G01 X128.5040 Y-33.2498
G01 X128.4531 Y-33.2037
G01 X128.4419 Y-33.1941
G01 X128.3563 Y-33.1303
G01 X128.3479 Y-33.1244
G01 X128.3367 Y-33.1172
G01 X128.2540 Y-33.0676
G01 X128.2425 Y-33.0612
G01 X128.2333 Y-33.0565
G01 X128.1367 Y-33.0111
G01 X128.1230 Y-33.0058
G01 X128.0350 Y-32.9743
G01 X128.0238 Y-32.9706
G01 X128.0110 Y-32.9670
G01 X127.9189 Y-32.9439
G01 X127.9139 Y-32.9427
G01 X127.9110 Y-32.9420
G01 X127.9074 Y-32.9413
G01 X127.8929 Y-32.9387
G01 X127.7924 Y-32.9239
G01 X127.7741 Y-32.9224
G01 X127.6756 Y-32.9176
G01 X127.5725 Y-32.9175
G01 X127.5593 Y-32.9178
G01 X127.4541 Y-32.9233
G01 X127.4395 Y-32.9250
G01 X127.3354 Y-32.9407
G01 X127.3290 Y-32.9420
G01 X127.3261 Y-32.9427
G01 X127.3211 Y-32.9439
G01 X127.2190 Y-32.9697
G01 X127.2050 Y-32.9743
G01 X127.1095 Y-33.0086
G01 X127.0926 Y-33.0159
G01 X126.9975 Y-33.0612
G01 X126.9847 Y-33.0684
G01 X126.8976 Y-33.1207
G01 X126.8825 Y-33.1312
G01 X126.7981 Y-33.1941
G01 X126.7869 Y-33.2037
G01 X126.7329 Y-33.2526
G01 X126.7452 Y-33.2203
G01 X126.7491 Y-33.2075
G01 X126.7524 Y-33.1945
G01 X126.7550 Y-33.1814
G01 X126.7574 Y-33.1644
G01 X126.7585 Y-33.1510
G01 X126.7590 Y-33.1376
G01 X126.7582 Y-33.1146
G01 X126.7568 Y-33.1012
G01 X126.7553 Y-33.0909
G01 X126.7403 Y-33.0143
G01 X126.7360 Y-32.9962
G01 X126.7290 Y-32.9742
G01 X126.7253 Y-32.9644
G01 X126.7199 Y-32.9521
G01 X126.7092 Y-32.9317
G01 X126.7022 Y-32.9202
G01 X126.6964 Y-32.9116
G01 X126.6866 Y-32.8985
G01 X126.6755 Y-32.8854
G01 X126.6148 Y-32.8224
G01 X128.6285 Y-32.8224
G00 Z1.0000
G00 X128.2764 Y-35.6210
G01 F25.00
G01 Z-0.1000
G01 F70.00
G01 X128.2509 Y-35.6058
G01 X128.2366 Y-35.5981
G01 X128.1401 Y-35.5526
G01 X128.1230 Y-35.5458
G01 X128.0350 Y-35.5143
G01 X128.0146 Y-35.5079
G01 X127.9074 Y-35.4813
G01 X127.8929 Y-35.4787
G01 X127.8005 Y-35.4650
G01 X127.7888 Y-35.4635
G01 X127.7756 Y-35.4625
G01 X127.6807 Y-35.4578
G01 X127.6675 Y-35.4575
G01 X127.5644 Y-35.4576
G01 X127.4578 Y-35.4629
G01 X127.4395 Y-35.4650
G01 X127.3471 Y-35.4787
G01 X127.3261 Y-35.4827
G01 X127.2190 Y-35.5097
G01 X127.2050 Y-35.5143
G01 X127.1122 Y-35.5476
G01 X127.0939 Y-35.5553
G01 X127.0034 Y-35.5981
G01 X126.9891 Y-35.6058
G01 X126.9638 Y-35.6209
G01 X126.9714 Y-35.6101
G01 X126.9786 Y-35.5988
G01 X126.9895 Y-35.5784
G01 X126.9951 Y-35.5662
G01 X127.0001 Y-35.5538
G01 X127.0044 Y-35.5411
G01 X127.0073 Y-35.5311
G01 X127.0111 Y-35.5151
G01 X127.0143 Y-35.4968
G01 X127.0243 Y-35.4224
G01 X127.0257 Y-35.4060
G01 X127.0262 Y-35.3926
G01 X127.0255 Y-35.3725
G01 X127.0234 Y-35.3525
G01 X127.0217 Y-35.3423
G01 X127.0189 Y-35.3291
G01 X127.0136 Y-35.3097
G01 X127.0092 Y-35.2971
G01 X127.0031 Y-35.2819
G01 X126.9714 Y-35.2138
G01 X126.9641 Y-35.1993
G01 X126.9891 Y-35.2142
G01 X127.0034 Y-35.2219
G01 X127.0999 Y-35.2674
G01 X127.1170 Y-35.2742
G01 X127.2050 Y-35.3057
G01 X127.2254 Y-35.3121
G01 X127.3326 Y-35.3387
G01 X127.3471 Y-35.3413
G01 X127.4395 Y-35.3550
G01 X127.4512 Y-35.3565
G01 X127.4644 Y-35.3575
G01 X127.5593 Y-35.3622
G01 X127.5725 Y-35.3625
G01 X127.6756 Y-35.3624
G01 X127.7822 Y-35.3571
G01 X127.8005 Y-35.3550
G01 X127.8929 Y-35.3413
G01 X127.9139 Y-35.3373
G01 X128.0096 Y-35.3134
G01 X128.0238 Y-35.3094
G01 X128.1278 Y-35.2724
G01 X128.1461 Y-35.2647
G01 X128.2366 Y-35.2219
G01 X128.2509 Y-35.2142
G01 X128.2754 Y-35.1996
G01 X128.2686 Y-35.2093
G01 X128.2614 Y-35.2207
G01 X128.2504 Y-35.2410
G01 X128.2461 Y-35.2504
G01 X128.2410 Y-35.2628
G01 X128.2365 Y-35.2755
G01 X128.2327 Y-35.2883
G01 X128.2295 Y-35.3014
G01 X128.2265 Y-35.3175
G01 X128.2163 Y-35.3919
G01 X128.2144 Y-35.4104
G01 X128.2138 Y-35.4305
G01 X128.2148 Y-35.4506
G01 X128.2172 Y-35.4705
G01 X128.2218 Y-35.4932
G01 X128.2273 Y-35.5125
G01 X128.2318 Y-35.5251
G01 X128.2385 Y-35.5409
G01 X128.2692 Y-35.6070
G01 X128.2764 Y-35.6210
G00 Z1.0000
G00 X128.8361 Y-37.1606
G01 F25.00
G01 Z-0.1000
G01 F70.00
G01 X128.8042 Y-37.1286
G01 X128.8218 Y-37.0794
G01 X128.8259 Y-37.1138
G01 X128.8280 Y-37.1272
G01 X128.8315 Y-37.1441
G01 X128.8361 Y-37.1606
G00 Z1.0000
G00 X128.0178 Y-37.8512
G01 F25.00
G01 Z-0.1000
G01 F70.00
G01 X128.0335 Y-37.8547
G01 X128.0463 Y-37.8583
G01 X128.0589 Y-37.8625
G01 X128.0720 Y-37.8676
G01 X128.0461 Y-37.8417
G01 X128.0301 Y-37.8474
G01 X128.0178 Y-37.8512
G01 X127.1703 Y-37.8652
G01 X127.1852 Y-37.8605
G01 X127.1980 Y-37.8572
G01 X127.2109 Y-37.8544
G01 X127.2257 Y-37.8522
G01 X127.2127 Y-37.8483
G01 X127.1939 Y-37.8417
G01 X127.1703 Y-37.8652
G00 Z1.0000
G00 X126.4216 Y-37.0888
G01 F25.00
G01 Z-0.1000
G01 F70.00
G01 X126.4358 Y-37.1286
G01 X126.4022 Y-37.1622
G01 X126.4088 Y-37.1449
G01 X126.4147 Y-37.1255
G01 X126.4191 Y-37.1057
G01 X126.4216 Y-37.0888
G00 Z1.0000
G00 X123.9725 Y-41.3082
G01 F25.00
G01 Z-0.1000
G01 F70.00
G01 X123.9481 Y-41.2861
G01 X123.9379 Y-41.2777
G01 X123.8842 Y-41.2377
G01 X123.8665 Y-41.2256
G01 X123.8312 Y-41.2044
G01 X123.9778 Y-41.0577
G01 X123.9736 Y-41.0684
G01 X123.9692 Y-41.0811
G01 X123.9655 Y-41.0939
G01 X123.9624 Y-41.1070
G01 X123.9587 Y-41.1298
G01 X123.9574 Y-41.1431
G01 X123.9567 Y-41.1565
G01 X123.9568 Y-41.1699
G01 X123.9572 Y-41.1803
G01 X123.9630 Y-41.2595
G01 X123.9643 Y-41.2697
G01 X123.9664 Y-41.2827
G01 X123.9692 Y-41.2956
G01 X123.9725 Y-41.3082
G00 Z1.0000
G00 X121.8034 Y-42.3234
G01 F25.00
G01 Z-0.1000
G01 F70.00
G01 X121.8203 Y-42.3589
G01 X121.8306 Y-42.3773
G01 X121.7822 Y-42.4256
G01 X121.7872 Y-42.4130
G01 X121.7914 Y-42.4005
G01 X121.7949 Y-42.3879
G01 X121.7979 Y-42.3751
G01 X121.8002 Y-42.3622
G01 X121.8019 Y-42.3492
G01 X121.8030 Y-42.3361
G01 X121.8034 Y-42.3234
G00 Z1.0000
G00 X122.5238 Y-43.7465
G01 F25.00
G01 Z-0.1000
G01 F70.00
G01 X122.5900 Y-43.7434
G01 X123.3900 Y-43.7434
G01 X123.4562 Y-43.7465
G01 X123.4672 Y-43.7474
G01 X123.5363 Y-43.7578
G01 X123.6006 Y-43.7737
G01 X123.6147 Y-43.7780
G01 X123.6770 Y-43.8005
G01 X123.7435 Y-43.8320
G01 X123.8005 Y-43.8659
G01 X123.8127 Y-43.8740
G01 X123.8600 Y-43.9091
G01 X123.8686 Y-43.9160
G01 X123.9203 Y-43.9631
G01 X123.9698 Y-44.0176
G01 X124.0136 Y-44.0767
G01 X124.0514 Y-44.1399
G01 X124.0829 Y-44.2064
G01 X124.1077 Y-44.2757
G01 X124.1256 Y-44.3471
G01 X124.1364 Y-44.4199
G01 X124.1400 Y-44.4934
G01 X124.1364 Y-44.5669
G01 X124.1256 Y-44.6397
G01 X124.1077 Y-44.7111
G01 X124.0829 Y-44.7804
G01 X124.0514 Y-44.8469
G01 X124.0136 Y-44.9101
G01 X123.9743 Y-44.9634
G01 X123.9674 Y-44.9720
G01 X123.9203 Y-45.0237
G01 X123.8714 Y-45.0683
G01 X123.8600 Y-45.0777
G01 X123.8067 Y-45.1170
G01 X123.7500 Y-45.1512
G01 X123.7370 Y-45.1582
G01 X123.6837 Y-45.1833
G01 X123.6701 Y-45.1890
G01 X123.6077 Y-45.2111
G01 X123.5363 Y-45.2290
G01 X123.4635 Y-45.2398
G01 X123.3937 Y-45.2434
G01 X122.5863 Y-45.2434
G01 X122.5165 Y-45.2398
G01 X122.4473 Y-45.2297
G01 X122.4365 Y-45.2274
G01 X122.3794 Y-45.2131
G01 X122.3653 Y-45.2088
G01 X122.3030 Y-45.1863
G01 X122.2365 Y-45.1548
G01 X122.1795 Y-45.1209
G01 X122.1673 Y-45.1128
G01 X122.1142 Y-45.0732
G01 X122.0597 Y-45.0237
G01 X122.0102 Y-44.9692
G01 X121.9706 Y-44.9161
G01 X121.9625 Y-44.9039
G01 X121.9286 Y-44.8469
G01 X121.9001 Y-44.7871
G01 X121.8944 Y-44.7735
G01 X121.8723 Y-44.7111
G01 X121.8560 Y-44.6469
G01 X121.8532 Y-44.6325
G01 X121.8436 Y-44.5669
G01 X121.8402 Y-44.5008
G01 X121.8402 Y-44.4860
G01 X121.8436 Y-44.4199
G01 X121.8532 Y-44.3543
G01 X121.8552 Y-44.3435
G01 X121.8723 Y-44.2757
G01 X121.8944 Y-44.2133
G01 X121.9001 Y-44.1997
G01 X121.9252 Y-44.1464
G01 X121.9322 Y-44.1334
G01 X121.9664 Y-44.0767
G01 X122.0102 Y-44.0176
G01 X122.0597 Y-43.9631
G01 X122.1086 Y-43.9185
G01 X122.1200 Y-43.9091
G01 X122.1673 Y-43.8740
G01 X122.1795 Y-43.8659
G01 X122.2365 Y-43.8320
G01 X122.3030 Y-43.8005
G01 X122.3723 Y-43.7757
G01 X122.4365 Y-43.7594
G01 X122.4509 Y-43.7566
G01 X122.5092 Y-43.7479
G01 X122.5238 Y-43.7465
G01 X122.3026 Y-43.5460
G01 X122.3211 Y-43.5409
G01 X122.3904 Y-43.5238
G01 X122.4128 Y-43.5196
G01 X122.4604 Y-43.5125
G01 X122.4485 Y-43.4911
G01 X122.4382 Y-43.4696
G01 X122.4290 Y-43.4468
G01 X122.4222 Y-43.4265
G01 X122.3026 Y-43.5460
G01 X121.5523 Y-44.2964
G01 X121.5686 Y-44.3027
G01 X121.5815 Y-44.3084
G01 X121.6149 Y-44.3251
G01 X121.6178 Y-44.3068
G01 X121.6217 Y-44.2880
G01 X121.6377 Y-44.2238
G01 X121.6404 Y-44.2138
G01 X121.6418 Y-44.2088
G01 X121.6422 Y-44.2074
G01 X121.6426 Y-44.2060
G01 X121.5523 Y-44.2964
G01 X121.2663 Y-44.4126
G01 X121.2770 Y-44.4094
G01 X121.2898 Y-44.4062
G01 X121.3121 Y-44.4021
G01 X121.3932 Y-44.3941
G01 X121.4148 Y-44.3929
G01 X121.4282 Y-44.3930
G01 X121.4416 Y-44.3938
G01 X121.4520 Y-44.3949
G01 X121.4652 Y-44.3969
G01 X121.4878 Y-44.4018
G01 X121.5007 Y-44.4056
G01 X121.5106 Y-44.4089
G01 X121.5230 Y-44.4138
G01 X121.5380 Y-44.4205
G01 X121.6093 Y-44.4573
G01 X121.6292 Y-44.4692
G01 X121.6378 Y-44.4751
G01 X121.6485 Y-44.4831
G01 X121.6610 Y-44.4937
G01 X121.6708 Y-44.5028
G01 X121.6826 Y-44.5153
G01 X121.6913 Y-44.5255
G01 X121.6994 Y-44.5361
G01 X121.7070 Y-44.5472
G01 X121.7239 Y-44.5755
G01 X121.7203 Y-44.5066
G01 X121.7200 Y-44.4919
G01 X121.7233 Y-44.4199
G01 X121.7243 Y-44.4067
G01 X121.7258 Y-44.3950
G01 X121.7345 Y-44.3367
G01 X121.7370 Y-44.3222
G01 X121.7539 Y-44.2536
G01 X121.7599 Y-44.2331
G01 X121.7820 Y-44.1714
G01 X121.7857 Y-44.1618
G01 X121.7910 Y-44.1497
G01 X121.8220 Y-44.0846
G01 X121.8293 Y-44.0718
G01 X121.8658 Y-44.0113
G01 X121.8743 Y-43.9992
G01 X121.9093 Y-43.9519
G01 X121.9184 Y-43.9403
G01 X121.9667 Y-43.8867
G01 X121.9806 Y-43.8726
G01 X122.0319 Y-43.8261
G01 X122.0485 Y-43.8127
G01 X122.1054 Y-43.7708
G01 X122.1179 Y-43.7629
G01 X122.1684 Y-43.7327
G01 X122.1786 Y-43.7268
G01 X122.1904 Y-43.7208
G01 X122.2557 Y-43.6902
G01 X122.2694 Y-43.6849
G01 X122.3325 Y-43.6624
G01 X122.3502 Y-43.6573
G01 X122.4073 Y-43.6430
G01 X122.4088 Y-43.6427
G01 X122.4124 Y-43.6418
G01 X122.4188 Y-43.6404
G01 X122.4333 Y-43.6379
G01 X122.4916 Y-43.6292
G01 X122.5062 Y-43.6275
G01 X122.5848 Y-43.6235
G01 X122.7486 Y-43.6234
G01 X122.7315 Y-43.6167
G01 X122.7193 Y-43.6112
G01 X122.7074 Y-43.6050
G01 X122.6932 Y-43.5968
G01 X122.6821 Y-43.5893
G01 X122.6683 Y-43.5791
G01 X122.6559 Y-43.5685
G01 X122.6435 Y-43.5566
G01 X122.6324 Y-43.5445
G01 X122.6239 Y-43.5341
G01 X122.5741 Y-43.4674
G01 X122.5667 Y-43.4562
G01 X122.5598 Y-43.4447
G01 X122.5535 Y-43.4329
G01 X122.5463 Y-43.4173
G01 X122.5404 Y-43.4020
G01 X122.5352 Y-43.3857
G01 X122.5313 Y-43.3698
G01 X122.5281 Y-43.3530
G01 X122.5257 Y-43.3315
G01 X122.5208 Y-43.2618
G01 X122.5201 Y-43.2469
G01 X122.5202 Y-43.2335
G01 X122.5213 Y-43.2164
G01 X122.5230 Y-43.2031
G01 X122.5253 Y-43.1899
G01 X122.5282 Y-43.1768
G01 X122.5318 Y-43.1639
G01 X122.5360 Y-43.1512
G01 X122.5413 Y-43.1377
G01 X121.2663 Y-44.4126
G00 Z1.0000
G00 X122.5238 Y-46.2865
G01 F25.00
G01 Z-0.1000
G01 F70.00
G01 X122.5092 Y-46.2879
G01 X122.4509 Y-46.2966
G01 X122.4365 Y-46.2994
G01 X122.3723 Y-46.3157
G01 X122.3030 Y-46.3405
G01 X122.2365 Y-46.3720
G01 X122.1795 Y-46.4059
G01 X122.1673 Y-46.4140
G01 X122.1142 Y-46.4536
G01 X122.0650 Y-46.4980
G01 X122.0546 Y-46.5084
G01 X122.0102 Y-46.5576
G01 X121.9664 Y-46.6167
G01 X121.9322 Y-46.6734
G01 X121.9252 Y-46.6864
G01 X121.8971 Y-46.7464
G01 X121.8723 Y-46.8157
G01 X121.8544 Y-46.8871
G01 X121.8445 Y-46.9526
G01 X121.8431 Y-46.9672
G01 X121.8400 Y-47.0334
G01 X121.8431 Y-47.0996
G01 X121.8445 Y-47.1142
G01 X121.8544 Y-47.1797
G01 X121.8723 Y-47.2511
G01 X121.8971 Y-47.3204
G01 X121.9252 Y-47.3804
G01 X121.9322 Y-47.3934
G01 X121.9664 Y-47.4501
G01 X122.0057 Y-47.5034
G01 X122.0151 Y-47.5148
G01 X122.0597 Y-47.5637
G01 X122.1114 Y-47.6108
G01 X122.1200 Y-47.6177
G01 X122.1673 Y-47.6528
G01 X122.1795 Y-47.6609
G01 X122.2365 Y-47.6948
G01 X122.3030 Y-47.7263
G01 X122.3653 Y-47.7488
G01 X122.3794 Y-47.7531
G01 X122.4437 Y-47.7690
G01 X122.5128 Y-47.7794
G01 X122.5238 Y-47.7803
G01 X122.5900 Y-47.7834
G01 X123.3900 Y-47.7834
G01 X123.4562 Y-47.7803
G01 X123.4708 Y-47.7789
G01 X123.5363 Y-47.7690
G01 X123.6077 Y-47.7511
G01 X123.6770 Y-47.7263
G01 X123.7435 Y-47.6948
G01 X123.8067 Y-47.6570
G01 X123.8658 Y-47.6132
G01 X123.9203 Y-47.5637
G01 X123.9674 Y-47.5120
G01 X123.9743 Y-47.5034
G01 X124.0136 Y-47.4501
G01 X124.0514 Y-47.3869
G01 X124.0829 Y-47.3204
G01 X124.1077 Y-47.2511
G01 X124.1256 Y-47.1797
G01 X124.1364 Y-47.1069
G01 X124.1400 Y-47.0334
G01 X124.1364 Y-46.9599
G01 X124.1256 Y-46.8871
G01 X124.1077 Y-46.8157
G01 X124.0829 Y-46.7464
G01 X124.0514 Y-46.6799
G01 X124.0136 Y-46.6167
G01 X123.9698 Y-46.5576
G01 X123.9203 Y-46.5031
G01 X123.8686 Y-46.4560
G01 X123.8600 Y-46.4491
G01 X123.8127 Y-46.4140
G01 X123.8005 Y-46.4059
G01 X123.7435 Y-46.3720
G01 X123.6770 Y-46.3405
G01 X123.6147 Y-46.3180
G01 X123.6006 Y-46.3137
G01 X123.5363 Y-46.2978
G01 X123.4672 Y-46.2874
G01 X123.4562 Y-46.2865
G01 X123.3900 Y-46.2834
G01 X122.5900 Y-46.2834
G01 X122.5238 Y-46.2865
G00 Z1.0000
G00 X121.6363 Y-47.0788
G01 F25.00
G01 Z-0.1000
G01 F70.00
G01 X121.6449 Y-46.8975
G01 X121.6877 Y-46.7211
G01 X121.7631 Y-46.5560
G01 X121.8684 Y-46.4081
G01 X121.9998 Y-46.2829
G01 X122.1525 Y-46.1847
G01 X122.3210 Y-46.1173
G01 X122.4992 Y-46.0829
G01 X123.4353 Y-46.0829
G01 X123.5707 Y-46.0958
G01 X123.7449 Y-46.1470
G01 X123.9062 Y-46.2302
G01 X124.0489 Y-46.3424
G01 X124.1678 Y-46.4795
G01 X124.2585 Y-46.6368
G01 X124.3179 Y-46.8083
G01 X124.3437 Y-46.9880
G01 X124.3351 Y-47.1693
G01 X124.2923 Y-47.3457
G01 X124.2169 Y-47.5108
G01 X124.1116 Y-47.6587
G01 X123.9802 Y-47.7839
G01 X123.8275 Y-47.8821
G01 X123.6590 Y-47.9495
G01 X123.4808 Y-47.9839
G01 X122.5447 Y-47.9839
G01 X122.4093 Y-47.9710
G01 X122.2351 Y-47.9198
G01 X122.0738 Y-47.8366
G01 X121.9311 Y-47.7244
G01 X121.8122 Y-47.5872
G01 X121.7215 Y-47.4301
G01 X121.6621 Y-47.2585
G01 X121.6363 Y-47.0788
G00 Z1.0000
G00 X122.5238 Y-48.8265
G01 F25.00
G01 Z-0.1000
G01 F70.00
G01 X122.5092 Y-48.8279
G01 X122.4509 Y-48.8366
G01 X122.4365 Y-48.8394
G01 X122.3723 Y-48.8557
G01 X122.3030 Y-48.8805
G01 X122.2365 Y-48.9120
G01 X122.1795 Y-48.9459
G01 X122.1673 Y-48.9540
G01 X122.1142 Y-48.9936
G01 X122.0650 Y-49.0380
G01 X122.0546 Y-49.0484
G01 X122.0102 Y-49.0976
G01 X121.9664 Y-49.1567
G01 X121.9322 Y-49.2134
G01 X121.9252 Y-49.2264
G01 X121.8971 Y-49.2864
G01 X121.8723 Y-49.3557
G01 X121.8544 Y-49.4271
G01 X121.8445 Y-49.4926
G01 X121.8431 Y-49.5072
G01 X121.8400 Y-49.5734
G01 X121.8431 Y-49.6396
G01 X121.8445 Y-49.6542
G01 X121.8544 Y-49.7197
G01 X121.8723 Y-49.7911
G01 X121.8971 Y-49.8604
G01 X121.9252 Y-49.9204
G01 X121.9322 Y-49.9334
G01 X121.9664 Y-49.9901
G01 X122.0057 Y-50.0434
G01 X122.0151 Y-50.0548
G01 X122.0597 Y-50.1037
G01 X122.1114 Y-50.1508
G01 X122.1200 Y-50.1577
G01 X122.1673 Y-50.1928
G01 X122.1795 Y-50.2009
G01 X122.2365 Y-50.2348
G01 X122.3030 Y-50.2663
G01 X122.3653 Y-50.2888
G01 X122.3794 Y-50.2931
G01 X122.4437 Y-50.3090
G01 X122.5128 Y-50.3194
G01 X122.5238 Y-50.3203
G01 X122.5900 Y-50.3234
G01 X123.3900 Y-50.3234
G01 X123.4562 Y-50.3203
G01 X123.4708 Y-50.3189
G01 X123.5363 Y-50.3090
G01 X123.6077 Y-50.2911
G01 X123.6770 Y-50.2663
G01 X123.7435 Y-50.2348
G01 X123.8067 Y-50.1970
G01 X123.8658 Y-50.1532
G01 X123.9203 Y-50.1037
G01 X123.9674 Y-50.0520
G01 X123.9743 Y-50.0434
G01 X124.0136 Y-49.9901
G01 X124.0514 Y-49.9269
G01 X124.0829 Y-49.8604
G01 X124.1077 Y-49.7911
G01 X124.1256 Y-49.7197
G01 X124.1364 Y-49.6469
G01 X124.1400 Y-49.5734
G01 X124.1364 Y-49.4999
G01 X124.1256 Y-49.4271
G01 X124.1077 Y-49.3557
G01 X124.0829 Y-49.2864
G01 X124.0514 Y-49.2199
G01 X124.0136 Y-49.1567
G01 X123.9698 Y-49.0976
G01 X123.9203 Y-49.0431
G01 X123.8686 Y-48.9960
G01 X123.8600 Y-48.9891
G01 X123.8127 Y-48.9540
G01 X123.8005 Y-48.9459
G01 X123.7435 Y-48.9120
G01 X123.6770 Y-48.8805
G01 X123.6147 Y-48.8580
G01 X123.6006 Y-48.8537
G01 X123.5363 Y-48.8378
G01 X123.4672 Y-48.8274
G01 X123.4562 Y-48.8265
G01 X123.3900 Y-48.8234
G01 X122.5900 Y-48.8234
G01 X122.5238 Y-48.8265
G00 Z1.0000
G00 X121.6363 Y-49.6188
G01 F25.00
G01 Z-0.1000
G01 F70.00
G01 X121.6449 Y-49.4375
G01 X121.6877 Y-49.2611
G01 X121.7631 Y-49.0960
G01 X121.8684 Y-48.9481
G01 X121.9998 Y-48.8229
G01 X122.1525 Y-48.7247
G01 X122.3210 Y-48.6573
G01 X122.4992 Y-48.6229
G01 X123.4353 Y-48.6229
G01 X123.5707 Y-48.6358
G01 X123.7449 Y-48.6870
G01 X123.9062 Y-48.7702
G01 X124.0489 Y-48.8824
G01 X124.1678 Y-49.0196
G01 X124.2585 Y-49.1767
G01 X124.3179 Y-49.3483
G01 X124.3437 Y-49.5280
G01 X124.3351 Y-49.7093
G01 X124.2923 Y-49.8857
G01 X124.2169 Y-50.0508
G01 X124.1116 Y-50.1987
G01 X123.9802 Y-50.3239
G01 X123.8275 Y-50.4221
G01 X123.6590 Y-50.4895
G01 X123.4808 Y-50.5239
G01 X122.5447 Y-50.5239
G01 X122.4093 Y-50.5110
G01 X122.2351 Y-50.4598
G01 X122.0738 Y-50.3766
G01 X121.9311 Y-50.2644
G01 X121.8122 Y-50.1272
G01 X121.7215 Y-49.9701
G01 X121.6621 Y-49.7985
G01 X121.6363 Y-49.6188
G00 Z1.0000
G00 X119.8301 Y-49.8726
G01 F25.00
G01 Z-0.1000
G01 F70.00
G01 X119.8194 Y-49.8888
G01 X119.8101 Y-49.9053
G01 X119.8101 Y-49.8846
G01 X119.8301 Y-49.8726
G00 Z1.0000
G00 X118.7699 Y-49.9078
G01 F25.00
G01 Z-0.1000
G01 F70.00
G01 X118.7619 Y-49.8900
G01 X118.7539 Y-49.8750
G01 X118.7699 Y-49.8846
G01 X118.7699 Y-49.9078
G00 Z1.0000
G00 X121.6363 Y-52.1588
G01 F25.00
G01 Z-0.1000
G01 F70.00
G01 X121.6449 Y-51.9775
G01 X121.6877 Y-51.8011
G01 X121.7631 Y-51.6360
G01 X121.8684 Y-51.4881
G01 X121.9998 Y-51.3629
G01 X122.1525 Y-51.2647
G01 X122.3210 Y-51.1973
G01 X122.4992 Y-51.1629
G01 X123.4353 Y-51.1629
G01 X123.5707 Y-51.1758
G01 X123.7449 Y-51.2270
G01 X123.9062 Y-51.3102
G01 X124.0489 Y-51.4224
G01 X124.1678 Y-51.5595
G01 X124.2585 Y-51.7167
G01 X124.3179 Y-51.8883
G01 X124.3437 Y-52.0680
G01 X124.3351 Y-52.2493
G01 X124.2923 Y-52.4257
G01 X124.2169 Y-52.5908
G01 X124.1116 Y-52.7387
G01 X123.9802 Y-52.8639
G01 X123.8275 Y-52.9621
G01 X123.6590 Y-53.0295
G01 X123.4808 Y-53.0639
G01 X122.5447 Y-53.0639
G01 X122.4093 Y-53.0510
G01 X122.2351 Y-52.9998
G01 X122.0738 Y-52.9166
G01 X121.9311 Y-52.8044
G01 X121.8122 Y-52.6672
G01 X121.7215 Y-52.5101
G01 X121.6621 Y-52.3385
G01 X121.6363 Y-52.1588
G00 Z1.0000
G00 X122.5238 Y-51.3665
G01 F25.00
G01 Z-0.1000
G01 F70.00
G01 X122.5092 Y-51.3679
G01 X122.4509 Y-51.3766
G01 X122.4365 Y-51.3794
G01 X122.3723 Y-51.3957
G01 X122.3030 Y-51.4205
G01 X122.2365 Y-51.4520
G01 X122.1795 Y-51.4859
G01 X122.1673 Y-51.4940
G01 X122.1142 Y-51.5336
G01 X122.0650 Y-51.5780
G01 X122.0546 Y-51.5884
G01 X122.0102 Y-51.6376
G01 X121.9664 Y-51.6967
G01 X121.9322 Y-51.7534
G01 X121.9252 Y-51.7664
G01 X121.8971 Y-51.8264
G01 X121.8723 Y-51.8957
G01 X121.8544 Y-51.9671
G01 X121.8445 Y-52.0326
G01 X121.8431 Y-52.0472
G01 X121.8400 Y-52.1134
G01 X121.8436 Y-52.1869
G01 X121.8532 Y-52.2525
G01 X121.8560 Y-52.2669
G01 X121.8723 Y-52.3311
G01 X121.8971 Y-52.4004
G01 X121.9252 Y-52.4604
G01 X121.9322 Y-52.4734
G01 X121.9664 Y-52.5301
G01 X122.0057 Y-52.5834
G01 X122.0151 Y-52.5948
G01 X122.0597 Y-52.6437
G01 X122.1114 Y-52.6908
G01 X122.1200 Y-52.6977
G01 X122.1673 Y-52.7328
G01 X122.1795 Y-52.7409
G01 X122.2365 Y-52.7748
G01 X122.3030 Y-52.8063
G01 X122.3653 Y-52.8288
G01 X122.3794 Y-52.8331
G01 X122.4437 Y-52.8490
G01 X122.5128 Y-52.8594
G01 X122.5238 Y-52.8603
G01 X122.5900 Y-52.8634
G01 X123.3900 Y-52.8634
G01 X123.4562 Y-52.8603
G01 X123.4708 Y-52.8589
G01 X123.5363 Y-52.8490
G01 X123.6077 Y-52.8311
G01 X123.6770 Y-52.8063
G01 X123.7435 Y-52.7748
G01 X123.8067 Y-52.7370
G01 X123.8658 Y-52.6932
G01 X123.9203 Y-52.6437
G01 X123.9674 Y-52.5920
G01 X123.9743 Y-52.5834
G01 X124.0136 Y-52.5301
G01 X124.0514 Y-52.4669
G01 X124.0829 Y-52.4004
G01 X124.1077 Y-52.3311
G01 X124.1256 Y-52.2597
G01 X124.1364 Y-52.1869
G01 X124.1400 Y-52.1134
G01 X124.1364 Y-52.0399
G01 X124.1256 Y-51.9671
G01 X124.1077 Y-51.8957
G01 X124.0829 Y-51.8264
G01 X124.0514 Y-51.7599
G01 X124.0136 Y-51.6967
G01 X123.9698 Y-51.6376
G01 X123.9203 Y-51.5831
G01 X123.8686 Y-51.5360
G01 X123.8600 Y-51.5291
G01 X123.8127 Y-51.4940
G01 X123.8005 Y-51.4859
G01 X123.7435 Y-51.4520
G01 X123.6770 Y-51.4205
G01 X123.6147 Y-51.3980
G01 X123.6006 Y-51.3937
G01 X123.5363 Y-51.3778
G01 X123.4672 Y-51.3674
G01 X123.4562 Y-51.3665
G01 X123.3900 Y-51.3634
G01 X122.5900 Y-51.3634
G01 X122.5238 Y-51.3665
G00 Z1.0000
G00 X123.3900 Y-53.9034
G01 F25.00
G01 Z-0.1000
G01 F70.00
G01 X123.3900 Y-53.7034
G01 X123.4353 Y-53.7034
G01 X123.5706 Y-53.7163
G01 X123.7447 Y-53.7674
G01 X123.9059 Y-53.8506
G01 X124.0486 Y-53.9627
G01 X124.1674 Y-54.0998
G01 X124.2560 Y-54.2534
G01 X124.0238 Y-54.2534
G01 X124.0115 Y-54.2337
G01 X123.9721 Y-54.1805
G01 X123.9649 Y-54.1720
G01 X123.9254 Y-54.1284
G01 X123.9177 Y-54.1205
G01 X123.8714 Y-54.0785
G01 X123.8600 Y-54.0691
G01 X123.8067 Y-54.0298
G01 X123.7468 Y-53.9937
G01 X123.7370 Y-53.9886
G01 X123.6770 Y-53.9605
G01 X123.6147 Y-53.9380
G01 X123.6006 Y-53.9337
G01 X123.5363 Y-53.9178
G01 X123.4708 Y-53.9079
G01 X123.4562 Y-53.9065
G01 X123.3900 Y-53.9034
G00 Z1.0000
G00 X123.3900 Y-55.4034
G01 F25.00
G01 Z-0.1000
G01 F70.00
G01 X123.4562 Y-55.4003
G01 X123.4708 Y-55.3989
G01 X123.5363 Y-55.3890
G01 X123.6006 Y-55.3731
G01 X123.6147 Y-55.3688
G01 X123.6770 Y-55.3463
G01 X123.7370 Y-55.3182
G01 X123.7468 Y-55.3131
G01 X123.8005 Y-55.2809
G01 X123.8127 Y-55.2728
G01 X123.8658 Y-55.2332
G01 X123.9177 Y-55.1863
G01 X123.9254 Y-55.1784
G01 X123.9649 Y-55.1348
G01 X123.9721 Y-55.1263
G01 X124.0115 Y-55.0731
G01 X124.0238 Y-55.0534
G01 X124.2517 Y-55.0534
G01 X124.2165 Y-55.1306
G01 X124.1112 Y-55.2783
G01 X123.9799 Y-55.4035
G01 X123.8273 Y-55.5016
G01 X123.6589 Y-55.5691
G01 X123.4807 Y-55.6034
G01 X123.3900 Y-55.6034
G01 X123.3900 Y-55.4034
G00 Z1.0000
G00 X122.5238 Y-56.4465
G01 F25.00
G01 Z-0.1000
G01 F70.00
G01 X122.5092 Y-56.4479
G01 X122.4509 Y-56.4566
G01 X122.4365 Y-56.4594
G01 X122.3723 Y-56.4757
G01 X122.3030 Y-56.5005
G01 X122.2365 Y-56.5320
G01 X122.1795 Y-56.5659
G01 X122.1673 Y-56.5740
G01 X122.1142 Y-56.6136
G01 X122.0650 Y-56.6580
G01 X122.0546 Y-56.6684
G01 X122.0102 Y-56.7176
G01 X121.9664 Y-56.7767
G01 X121.9322 Y-56.8334
G01 X121.9252 Y-56.8464
G01 X121.8971 Y-56.9064
G01 X121.8723 Y-56.9757
G01 X121.8544 Y-57.0471
G01 X121.8445 Y-57.1126
G01 X121.8431 Y-57.1272
G01 X121.8400 Y-57.1934
G01 X121.8436 Y-57.2669
G01 X121.8532 Y-57.3325
G01 X121.8560 Y-57.3469
G01 X121.8723 Y-57.4111
G01 X121.8971 Y-57.4804
G01 X121.9252 Y-57.5404
G01 X121.9322 Y-57.5534
G01 X121.9664 Y-57.6101
G01 X122.0057 Y-57.6634
G01 X122.0151 Y-57.6748
G01 X122.0597 Y-57.7237
G01 X122.1114 Y-57.7708
G01 X122.1200 Y-57.7777
G01 X122.1673 Y-57.8128
G01 X122.1795 Y-57.8209
G01 X122.2365 Y-57.8548
G01 X122.3030 Y-57.8863
G01 X122.3653 Y-57.9088
G01 X122.3794 Y-57.9131
G01 X122.4437 Y-57.9290
G01 X122.5128 Y-57.9394
G01 X122.5238 Y-57.9403
G01 X122.5900 Y-57.9434
G01 X123.3900 Y-57.9434
G01 X123.4562 Y-57.9403
G01 X123.4708 Y-57.9389
G01 X123.5363 Y-57.9290
G01 X123.6077 Y-57.9111
G01 X123.6770 Y-57.8863
G01 X123.7435 Y-57.8548
G01 X123.8067 Y-57.8170
G01 X123.8658 Y-57.7732
G01 X123.9203 Y-57.7237
G01 X123.9674 Y-57.6720
G01 X123.9743 Y-57.6634
G01 X124.0136 Y-57.6101
G01 X124.0514 Y-57.5469
G01 X124.0829 Y-57.4804
G01 X124.1077 Y-57.4111
G01 X124.1256 Y-57.3397
G01 X124.1364 Y-57.2669
G01 X124.1400 Y-57.1934
G01 X124.1364 Y-57.1199
G01 X124.1256 Y-57.0471
G01 X124.1077 Y-56.9757
G01 X124.0829 Y-56.9064
G01 X124.0514 Y-56.8399
G01 X124.0136 Y-56.7767
G01 X123.9698 Y-56.7176
G01 X123.9203 Y-56.6631
G01 X123.8686 Y-56.6160
G01 X123.8600 Y-56.6091
G01 X123.8127 Y-56.5740
G01 X123.8005 Y-56.5659
G01 X123.7435 Y-56.5320
G01 X123.6770 Y-56.5005
G01 X123.6147 Y-56.4780
G01 X123.6006 Y-56.4737
G01 X123.5363 Y-56.4578
G01 X123.4672 Y-56.4474
G01 X123.4562 Y-56.4465
G01 X123.3900 Y-56.4434
G01 X122.5900 Y-56.4434
G01 X122.5238 Y-56.4465
G00 Z1.0000
G00 X121.6363 Y-57.2388
G01 F25.00
G01 Z-0.1000
G01 F70.00
G01 X121.6449 Y-57.0575
G01 X121.6877 Y-56.8811
G01 X121.7631 Y-56.7160
G01 X121.8684 Y-56.5681
G01 X121.9998 Y-56.4429
G01 X122.1525 Y-56.3447
G01 X122.3210 Y-56.2773
G01 X122.4992 Y-56.2429
G01 X123.4353 Y-56.2429
G01 X123.5707 Y-56.2558
G01 X123.7449 Y-56.3070
G01 X123.9062 Y-56.3902
G01 X124.0489 Y-56.5024
G01 X124.1678 Y-56.6395
G01 X124.2585 Y-56.7967
G01 X124.3179 Y-56.9683
G01 X124.3437 Y-57.1480
G01 X124.3351 Y-57.3293
G01 X124.2923 Y-57.5057
G01 X124.2169 Y-57.6708
G01 X124.1116 Y-57.8187
G01 X123.9802 Y-57.9439
G01 X123.8275 Y-58.0421
G01 X123.6590 Y-58.1095
G01 X123.4808 Y-58.1439
G01 X122.5447 Y-58.1439
G01 X122.4093 Y-58.1310
G01 X122.2351 Y-58.0798
G01 X122.0738 Y-57.9966
G01 X121.9311 Y-57.8844
G01 X121.8122 Y-57.7472
G01 X121.7215 Y-57.5901
G01 X121.6621 Y-57.4185
G01 X121.6363 Y-57.2388
G00 Z1.0000
G00 X119.6900 Y-57.4306
G01 F25.00
G01 Z-0.1000
G01 F70.00
G01 X119.7313 Y-57.4111
G01 X119.7411 Y-57.4061
G01 X119.8116 Y-57.3638
G01 X119.8208 Y-57.3578
G01 X119.8927 Y-57.3044
G01 X119.9618 Y-57.2418
G01 X120.0244 Y-57.1727
G01 X120.0778 Y-57.1008
G01 X120.0838 Y-57.0916
G01 X120.1261 Y-57.0211
G01 X120.1311 Y-57.0113
G01 X120.1506 Y-56.9700
G01 X120.3724 Y-56.9700
G01 X120.2897 Y-57.1472
G01 X120.1743 Y-57.3120
G01 X120.0320 Y-57.4543
G01 X119.8672 Y-57.5697
G01 X119.6900 Y-57.6524
G01 X119.6900 Y-57.4306
G00 Z1.0000
G00 X118.2076 Y-56.9700
G01 F25.00
G01 Z-0.1000
G01 F70.00
G01 X118.4294 Y-56.9700
G01 X118.4489 Y-57.0113
G01 X118.4539 Y-57.0211
G01 X118.4962 Y-57.0916
G01 X118.5022 Y-57.1008
G01 X118.5556 Y-57.1727
G01 X118.6182 Y-57.2418
G01 X118.6873 Y-57.3044
G01 X118.7592 Y-57.3578
G01 X118.7684 Y-57.3638
G01 X118.8389 Y-57.4061
G01 X118.8487 Y-57.4111
G01 X118.8900 Y-57.4306
G01 X118.8900 Y-57.6524
G01 X118.7128 Y-57.5697
G01 X118.5480 Y-57.4543
G01 X118.4057 Y-57.3120
G01 X118.2903 Y-57.1472
G01 X118.2076 Y-56.9700
G00 Z1.0000
G00 X118.2076 Y-56.1700
G01 F25.00
G01 Z-0.1000
G01 F70.00
G01 X118.2903 Y-55.9928
G01 X118.4057 Y-55.8280
G01 X118.5480 Y-55.6857
G01 X118.7128 Y-55.5703
G01 X118.8900 Y-55.4876
G01 X118.8900 Y-55.7094
G01 X118.8487 Y-55.7289
G01 X118.8389 Y-55.7339
G01 X118.7684 Y-55.7762
G01 X118.7592 Y-55.7822
G01 X118.6873 Y-55.8356
G01 X118.6182 Y-55.8982
G01 X118.5556 Y-55.9673
G01 X118.5022 Y-56.0392
G01 X118.4962 Y-56.0484
G01 X118.4539 Y-56.1189
G01 X118.4489 Y-56.1287
G01 X118.4294 Y-56.1700
G01 X118.2076 Y-56.1700
G00 Z1.0000
G00 X119.6900 Y-55.7094
G01 F25.00
G01 Z-0.1000
G01 F70.00
G01 X119.6900 Y-55.4876
G01 X119.8672 Y-55.5703
G01 X120.0320 Y-55.6857
G01 X120.1743 Y-55.8280
G01 X120.2897 Y-55.9928
G01 X120.3724 Y-56.1700
G01 X120.1506 Y-56.1700
G01 X120.1311 Y-56.1287
G01 X120.1261 Y-56.1189
G01 X120.0838 Y-56.0484
G01 X120.0778 Y-56.0392
G01 X120.0244 Y-55.9673
G01 X119.9618 Y-55.8982
G01 X119.8927 Y-55.8356
G01 X119.8208 Y-55.7822
G01 X119.8116 Y-55.7762
G01 X119.7411 Y-55.7339
G01 X119.7313 Y-55.7289
G01 X119.6900 Y-55.7094
G00 Z1.0000
G00 X121.7240 Y-55.0534
G01 F25.00
G01 Z-0.1000
G01 F70.00
G01 X121.9562 Y-55.0534
G01 X121.9685 Y-55.0731
G01 X122.0079 Y-55.1263
G01 X122.0151 Y-55.1348
G01 X122.0546 Y-55.1784
G01 X122.0623 Y-55.1863
G01 X122.1086 Y-55.2283
G01 X122.1200 Y-55.2377
G01 X122.1733 Y-55.2770
G01 X122.2332 Y-55.3131
G01 X122.2430 Y-55.3182
G01 X122.3030 Y-55.3463
G01 X122.3653 Y-55.3688
G01 X122.3794 Y-55.3731
G01 X122.4437 Y-55.3890
G01 X122.5092 Y-55.3989
G01 X122.5238 Y-55.4003
G01 X122.5900 Y-55.4034
G01 X122.5900 Y-55.6034
G01 X122.5447 Y-55.6034
G01 X122.4094 Y-55.5905
G01 X122.2353 Y-55.5394
G01 X122.0740 Y-55.4562
G01 X121.9314 Y-55.3441
G01 X121.8126 Y-55.2070
G01 X121.7240 Y-55.0534
G00 Z1.0000
G00 X121.7283 Y-54.2534
G01 F25.00
G01 Z-0.1000
G01 F70.00
G01 X121.7635 Y-54.1762
G01 X121.8688 Y-54.0285
G01 X122.0001 Y-53.9033
G01 X122.1527 Y-53.8052
G01 X122.3211 Y-53.7377
G01 X122.4993 Y-53.7034
G01 X122.5900 Y-53.7034
G01 X122.5900 Y-53.9034
G01 X122.5238 Y-53.9065
G01 X122.5092 Y-53.9079
G01 X122.4437 Y-53.9178
G01 X122.3794 Y-53.9337
G01 X122.3653 Y-53.9380
G01 X122.3030 Y-53.9605
G01 X122.2430 Y-53.9886
G01 X122.2332 Y-53.9937
G01 X122.1795 Y-54.0259
G01 X122.1673 Y-54.0340
G01 X122.1142 Y-54.0736
G01 X122.0623 Y-54.1205
G01 X122.0546 Y-54.1284
G01 X122.0151 Y-54.1720
G01 X122.0079 Y-54.1805
G01 X121.9685 Y-54.2337
G01 X121.9562 Y-54.2534
G01 X121.7283 Y-54.2534
G00 Z1.0000
G00 X122.5238 Y-58.9865
G01 F25.00
G01 Z-0.1000
G01 F70.00
G01 X122.5092 Y-58.9879
G01 X122.4509 Y-58.9966
G01 X122.4365 Y-58.9994
G01 X122.3723 Y-59.0157
G01 X122.3030 Y-59.0405
G01 X122.2365 Y-59.0720
G01 X122.1795 Y-59.1059
G01 X122.1673 Y-59.1140
G01 X122.1142 Y-59.1536
G01 X122.0650 Y-59.1980
G01 X122.0546 Y-59.2084
G01 X122.0102 Y-59.2576
G01 X121.9664 Y-59.3167
G01 X121.9322 Y-59.3734
G01 X121.9252 Y-59.3864
G01 X121.8971 Y-59.4464
G01 X121.8723 Y-59.5157
G01 X121.8544 Y-59.5871
G01 X121.8445 Y-59.6526
G01 X121.8431 Y-59.6672
G01 X121.8400 Y-59.7334
G01 X121.8436 Y-59.8069
G01 X121.8532 Y-59.8725
G01 X121.8560 Y-59.8869
G01 X121.8723 Y-59.9511
G01 X121.8971 Y-60.0204
G01 X121.9252 Y-60.0804
G01 X121.9322 Y-60.0934
G01 X121.9664 Y-60.1501
G01 X122.0057 Y-60.2034
G01 X122.0151 Y-60.2148
G01 X122.0597 Y-60.2637
G01 X122.1114 Y-60.3108
G01 X122.1200 Y-60.3177
G01 X122.1673 Y-60.3528
G01 X122.1795 Y-60.3609
G01 X122.2365 Y-60.3948
G01 X122.3030 Y-60.4263
G01 X122.3653 Y-60.4488
G01 X122.3794 Y-60.4531
G01 X122.4437 Y-60.4690
G01 X122.5128 Y-60.4794
G01 X122.5238 Y-60.4803
G01 X122.5900 Y-60.4834
G01 X123.3900 Y-60.4834
G01 X123.4562 Y-60.4803
G01 X123.4708 Y-60.4789
G01 X123.5363 Y-60.4690
G01 X123.6077 Y-60.4511
G01 X123.6770 Y-60.4263
G01 X123.7435 Y-60.3948
G01 X123.8067 Y-60.3570
G01 X123.8658 Y-60.3132
G01 X123.9203 Y-60.2637
G01 X123.9674 Y-60.2120
G01 X123.9743 Y-60.2034
G01 X124.0136 Y-60.1501
G01 X124.0514 Y-60.0869
G01 X124.0829 Y-60.0204
G01 X124.1077 Y-59.9511
G01 X124.1256 Y-59.8797
G01 X124.1364 Y-59.8069
G01 X124.1400 Y-59.7334
G01 X124.1364 Y-59.6599
G01 X124.1256 Y-59.5871
G01 X124.1077 Y-59.5157
G01 X124.0829 Y-59.4464
G01 X124.0514 Y-59.3799
G01 X124.0136 Y-59.3167
G01 X123.9698 Y-59.2576
G01 X123.9203 Y-59.2031
G01 X123.8686 Y-59.1560
G01 X123.8600 Y-59.1491
G01 X123.8127 Y-59.1140
G01 X123.8005 Y-59.1059
G01 X123.7435 Y-59.0720
G01 X123.6770 Y-59.0405
G01 X123.6147 Y-59.0180
G01 X123.6006 Y-59.0137
G01 X123.5363 Y-58.9978
G01 X123.4672 Y-58.9874
G01 X123.4562 Y-58.9865
G01 X123.3900 Y-58.9834
G01 X122.5900 Y-58.9834
G01 X122.5238 Y-58.9865
G00 Z1.0000
G00 X121.6363 Y-59.7788
G01 F25.00
G01 Z-0.1000
G01 F70.00
G01 X121.6449 Y-59.5975
G01 X121.6877 Y-59.4211
G01 X121.7631 Y-59.2560
G01 X121.8684 Y-59.1081
G01 X121.9998 Y-58.9829
G01 X122.1525 Y-58.8847
G01 X122.3210 Y-58.8173
G01 X122.4992 Y-58.7829
G01 X123.4353 Y-58.7829
G01 X123.5707 Y-58.7958
G01 X123.7449 Y-58.8470
G01 X123.9062 Y-58.9302
G01 X124.0489 Y-59.0424
G01 X124.1678 Y-59.1795
G01 X124.2585 Y-59.3368
G01 X124.3179 Y-59.5083
G01 X124.3437 Y-59.6880
G01 X124.3351 Y-59.8693
G01 X124.2923 Y-60.0457
G01 X124.2169 Y-60.2108
G01 X124.1116 Y-60.3587
G01 X123.9802 Y-60.4839
G01 X123.8275 Y-60.5821
G01 X123.6590 Y-60.6495
G01 X123.4808 Y-60.6839
G01 X122.5447 Y-60.6839
G01 X122.4093 Y-60.6710
G01 X122.2351 Y-60.6198
G01 X122.0738 Y-60.5366
G01 X121.9311 Y-60.4244
G01 X121.8122 Y-60.2872
G01 X121.7215 Y-60.1301
G01 X121.6621 Y-59.9585
G01 X121.6363 Y-59.7788
G00 Z1.0000
G00 X122.5238 Y-64.0665
G01 F25.00
G01 Z-0.1000
G01 F70.00
G01 X122.5092 Y-64.0679
G01 X122.4509 Y-64.0766
G01 X122.4365 Y-64.0794
G01 X122.3723 Y-64.0957
G01 X122.3030 Y-64.1205
G01 X122.2365 Y-64.1520
G01 X122.1795 Y-64.1859
G01 X122.1673 Y-64.1940
G01 X122.1142 Y-64.2336
G01 X122.0650 Y-64.2780
G01 X122.0546 Y-64.2884
G01 X122.0102 Y-64.3376
G01 X121.9664 Y-64.3967
G01 X121.9322 Y-64.4534
G01 X121.9252 Y-64.4664
G01 X121.8971 Y-64.5264
G01 X121.8723 Y-64.5957
G01 X121.8544 Y-64.6671
G01 X121.8445 Y-64.7326
G01 X121.8431 Y-64.7472
G01 X121.8400 Y-64.8134
G01 X121.8436 Y-64.8869
G01 X121.8532 Y-64.9525
G01 X121.8560 Y-64.9669
G01 X121.8723 Y-65.0311
G01 X121.8971 Y-65.1004
G01 X121.9252 Y-65.1604
G01 X121.9322 Y-65.1734
G01 X121.9664 Y-65.2301
G01 X122.0057 Y-65.2834
G01 X122.0151 Y-65.2948
G01 X122.0597 Y-65.3437
G01 X122.1114 Y-65.3908
G01 X122.1200 Y-65.3977
G01 X122.1673 Y-65.4328
G01 X122.1795 Y-65.4409
G01 X122.2365 Y-65.4748
G01 X122.3030 Y-65.5063
G01 X122.3653 Y-65.5288
G01 X122.3794 Y-65.5331
G01 X122.4437 Y-65.5490
G01 X122.5128 Y-65.5594
G01 X122.5238 Y-65.5603
G01 X122.5900 Y-65.5634
G01 X123.3900 Y-65.5634
G01 X123.4562 Y-65.5603
G01 X123.4708 Y-65.5589
G01 X123.5363 Y-65.5490
G01 X123.6077 Y-65.5311
G01 X123.6770 Y-65.5063
G01 X123.7435 Y-65.4748
G01 X123.8067 Y-65.4370
G01 X123.8658 Y-65.3932
G01 X123.9203 Y-65.3437
G01 X123.9674 Y-65.2920
G01 X123.9743 Y-65.2834
G01 X124.0136 Y-65.2301
G01 X124.0514 Y-65.1669
G01 X124.0829 Y-65.1004
G01 X124.1077 Y-65.0311
G01 X124.1256 Y-64.9597
G01 X124.1364 Y-64.8869
G01 X124.1400 Y-64.8134
G01 X124.1364 Y-64.7399
G01 X124.1256 Y-64.6671
G01 X124.1077 Y-64.5957
G01 X124.0829 Y-64.5264
G01 X124.0514 Y-64.4599
G01 X124.0136 Y-64.3967
G01 X123.9698 Y-64.3376
G01 X123.9203 Y-64.2831
G01 X123.8686 Y-64.2360
G01 X123.8600 Y-64.2291
G01 X123.8127 Y-64.1940
G01 X123.8005 Y-64.1859
G01 X123.7435 Y-64.1520
G01 X123.6770 Y-64.1205
G01 X123.6147 Y-64.0980
G01 X123.6006 Y-64.0937
G01 X123.5363 Y-64.0778
G01 X123.4672 Y-64.0674
G01 X123.4562 Y-64.0665
G01 X123.3900 Y-64.0634
G01 X122.5900 Y-64.0634
G01 X122.5238 Y-64.0665
G00 Z1.0000
G00 X121.6363 Y-64.8588
G01 F25.00
G01 Z-0.1000
G01 F70.00
G01 X121.6449 Y-64.6775
G01 X121.6877 Y-64.5011
G01 X121.7631 Y-64.3360
G01 X121.8684 Y-64.1881
G01 X121.9998 Y-64.0629
G01 X122.1525 Y-63.9647
G01 X122.3210 Y-63.8973
G01 X122.4992 Y-63.8629
G01 X123.4353 Y-63.8629
G01 X123.5707 Y-63.8758
G01 X123.7449 Y-63.9270
G01 X123.9062 Y-64.0102
G01 X124.0489 Y-64.1224
G01 X124.1678 Y-64.2595
G01 X124.2585 Y-64.4167
G01 X124.3179 Y-64.5883
G01 X124.3437 Y-64.7680
G01 X124.3351 Y-64.9493
G01 X124.2923 Y-65.1257
G01 X124.2169 Y-65.2908
G01 X124.1116 Y-65.4387
G01 X123.9802 Y-65.5639
G01 X123.8275 Y-65.6621
G01 X123.6590 Y-65.7295
G01 X123.4808 Y-65.7639
G01 X122.5447 Y-65.7639
G01 X122.4093 Y-65.7510
G01 X122.2351 Y-65.6998
G01 X122.0738 Y-65.6166
G01 X121.9311 Y-65.5044
G01 X121.8122 Y-65.3672
G01 X121.7215 Y-65.2101
G01 X121.6621 Y-65.0385
G01 X121.6363 Y-64.8588
G00 Z1.0000
G00 X116.7050 Y-67.3974
G01 F25.00
G01 Z-0.1000
G01 F70.00
G01 X116.7594 Y-67.3567
G01 X116.7695 Y-67.3481
G01 X116.8025 Y-67.3181
G01 X116.8974 Y-67.4130
G01 X116.8776 Y-67.4055
G01 X116.8583 Y-67.3999
G01 X116.8386 Y-67.3957
G01 X116.8254 Y-67.3938
G01 X116.8150 Y-67.3927
G01 X116.7986 Y-67.3919
G01 X116.7815 Y-67.3920
G01 X116.7050 Y-67.3974
G00 Z1.0000
G00 X114.7900 Y-66.9783
G01 F25.00
G01 Z-0.1000
G01 F70.00
G01 X114.8162 Y-66.9715
G01 X114.8418 Y-66.9668
G01 X114.8640 Y-66.9641
G01 X114.9030 Y-66.9612
G01 X114.8978 Y-66.9474
G01 X114.8694 Y-66.8681
G01 X114.8630 Y-66.8485
G01 X114.8585 Y-66.8322
G01 X114.8380 Y-66.7506
G01 X114.8335 Y-66.7305
G01 X114.8307 Y-66.7138
G01 X114.8183 Y-66.6305
G01 X114.8158 Y-66.6101
G01 X114.8146 Y-66.5932
G01 X114.8105 Y-66.5091
G01 X114.8100 Y-66.4900
G01 X114.8101 Y-66.1834
G01 X114.8146 Y-66.0868
G01 X114.8169 Y-66.0604
G01 X114.8306 Y-65.9669
G01 X114.8335 Y-65.9495
G01 X114.8378 Y-65.9301
G01 X114.8583 Y-65.8485
G01 X114.8630 Y-65.8315
G01 X114.8684 Y-65.8147
G01 X114.9024 Y-65.7203
G01 X114.8205 Y-65.7070
G01 X114.8052 Y-65.7039
G01 X114.7900 Y-65.7002
G01 X114.7900 Y-66.9783
G01 X114.6586 Y-67.1981
G01 X114.6674 Y-67.1901
G01 X114.6780 Y-67.1814
G01 X114.7382 Y-67.1363
G01 X114.7535 Y-67.1257
G01 X114.7675 Y-67.1172
G01 X114.7767 Y-67.1122
G01 X114.7888 Y-67.1064
G01 X114.8102 Y-67.0978
G01 X114.8201 Y-67.0945
G01 X114.8330 Y-67.0909
G01 X114.8461 Y-67.0879
G01 X114.8593 Y-67.0855
G01 X114.8808 Y-67.0831
G01 X114.9624 Y-67.0776
G01 X114.9758 Y-67.0775
G01 X114.9892 Y-67.0782
G01 X115.0121 Y-67.0808
G01 X115.0253 Y-67.0832
G01 X115.0419 Y-67.0873
G01 X115.0548 Y-67.0912
G01 X115.0674 Y-67.0957
G01 X115.0798 Y-67.1009
G01 X115.0919 Y-67.1067
G01 X115.1292 Y-67.1269
G01 X115.1196 Y-67.1135
G01 X115.1117 Y-67.1010
G01 X115.0680 Y-67.0282
G01 X115.0616 Y-67.0167
G01 X115.0569 Y-67.0075
G01 X115.0206 Y-66.9307
G01 X115.0147 Y-66.9172
G01 X114.9824 Y-66.8277
G01 X114.9787 Y-66.8165
G01 X114.9747 Y-66.8023
G01 X114.9541 Y-66.7200
G01 X114.9512 Y-66.7071
G01 X114.9493 Y-66.6954
G01 X114.9370 Y-66.6129
G01 X114.9353 Y-66.5983
G01 X114.9303 Y-66.5032
G01 X114.9300 Y-66.4900
G01 X114.9300 Y-66.1900
G01 X114.9303 Y-66.1782
G01 X114.9344 Y-66.0934
G01 X114.9355 Y-66.0788
G01 X114.9493 Y-65.9846
G01 X114.9518 Y-65.9701
G01 X114.9747 Y-65.8777
G01 X114.9787 Y-65.8635
G01 X115.0105 Y-65.7738
G01 X115.0158 Y-65.7600
G01 X115.0563 Y-65.6739
G01 X115.0630 Y-65.6607
G01 X115.1124 Y-65.5777
G01 X115.1196 Y-65.5665
G01 X115.1274 Y-65.5555
G01 X115.0650 Y-65.5827
G01 X115.0462 Y-65.5899
G01 X115.0334 Y-65.5939
G01 X115.0204 Y-65.5973
G01 X115.0073 Y-65.6000
G01 X114.9903 Y-65.6026
G01 X114.9770 Y-65.6038
G01 X114.9636 Y-65.6044
G01 X114.9502 Y-65.6043
G01 X114.9338 Y-65.6033
G01 X114.9168 Y-65.6012
G01 X114.8464 Y-65.5897
G01 X114.8347 Y-65.5875
G01 X114.8216 Y-65.5845
G01 X114.8087 Y-65.5808
G01 X114.7960 Y-65.5764
G01 X114.7836 Y-65.5715
G01 X114.7714 Y-65.5659
G01 X114.7511 Y-65.5549
G01 X114.7342 Y-65.5439
G01 X114.7182 Y-65.5317
G01 X114.6576 Y-65.4775
G01 X114.6615 Y-65.4965
G01 X114.6673 Y-65.5376
G01 X114.6685 Y-65.5522
G01 X114.6700 Y-65.5900
G01 X114.6700 Y-67.0915
G01 X114.6685 Y-67.1278
G01 X114.6673 Y-67.1424
G01 X114.6620 Y-67.1798
G01 X114.6586 Y-67.1981
G00 Z1.0000
G00 X113.9500 Y-67.4900
G01 F25.00
G01 Z-0.1000
G01 F70.00
G01 X114.1500 Y-67.4900
G01 X114.1819 Y-67.4886
G01 X114.1929 Y-67.4877
G01 X114.2280 Y-67.4823
G01 X114.2661 Y-67.4728
G01 X114.3031 Y-67.4596
G01 X114.3320 Y-67.4461
G01 X114.3450 Y-67.4391
G01 X114.3722 Y-67.4226
G01 X114.4038 Y-67.3992
G01 X114.4328 Y-67.3728
G01 X114.4592 Y-67.3438
G01 X114.4826 Y-67.3122
G01 X114.5028 Y-67.2786
G01 X114.5196 Y-67.2431
G01 X114.5328 Y-67.2061
G01 X114.5423 Y-67.1680
G01 X114.5472 Y-67.1365
G01 X114.5486 Y-67.1219
G01 X114.5500 Y-67.0900
G01 X114.5500 Y-65.5900
G01 X114.5481 Y-65.5508
G01 X114.5436 Y-65.5192
G01 X114.5407 Y-65.5048
G01 X114.5328 Y-65.4739
G01 X114.5222 Y-65.4438
G01 X114.5166 Y-65.4302
G01 X114.5028 Y-65.4014
G01 X114.4826 Y-65.3678
G01 X114.4637 Y-65.3420
G01 X114.4544 Y-65.3307
G01 X114.4328 Y-65.3072
G01 X114.4093 Y-65.2856
G01 X114.3980 Y-65.2763
G01 X114.3722 Y-65.2574
G01 X114.3386 Y-65.2372
G01 X114.3031 Y-65.2204
G01 X114.2661 Y-65.2072
G01 X114.2352 Y-65.1993
G01 X114.2208 Y-65.1964
G01 X114.1892 Y-65.1919
G01 X114.1537 Y-65.1900
G01 X113.9500 Y-65.1900
G01 X113.9500 Y-64.9900
G01 X114.1923 Y-64.9900
G01 X114.2711 Y-64.9980
G01 X114.4053 Y-65.0425
G01 X114.5247 Y-65.1161
G01 X114.6239 Y-65.2153
G01 X114.7101 Y-65.3552
G01 X114.7182 Y-65.3670
G01 X114.7250 Y-65.3753
G01 X114.7349 Y-65.3856
G01 X114.7951 Y-65.4396
G01 X114.8071 Y-65.4484
G01 X114.8199 Y-65.4560
G01 X114.8335 Y-65.4622
G01 X114.8475 Y-65.4671
G01 X114.8620 Y-65.4706
G01 X114.9346 Y-65.4825
G01 X114.9457 Y-65.4839
G01 X114.9532 Y-65.4843
G01 X114.9680 Y-65.4841
G01 X114.9829 Y-65.4825
G01 X114.9938 Y-65.4803
G01 X115.0081 Y-65.4761
G01 X115.0185 Y-65.4720
G01 X115.0861 Y-65.4426
G01 X115.0929 Y-65.4392
G01 X115.1028 Y-65.4335
G01 X115.1122 Y-65.4270
G01 X115.1182 Y-65.4223
G01 X115.1347 Y-65.4075
G01 X115.2754 Y-65.2669
G01 X115.4475 Y-65.1464
G01 X115.6378 Y-65.0576
G01 X115.8407 Y-65.0032
G01 X116.0500 Y-64.9849
G01 X116.2593 Y-65.0032
G01 X116.4622 Y-65.0576
G01 X116.6525 Y-65.1464
G01 X116.8246 Y-65.2669
G01 X116.9731 Y-65.4154
G01 X117.0936 Y-65.5875
G01 X117.1824 Y-65.7778
G01 X117.2368 Y-65.9807
G01 X117.2463 Y-66.0897
G01 X117.2479 Y-66.1002
G01 X117.2502 Y-66.1107
G01 X117.2522 Y-66.1176
G01 X117.2557 Y-66.1277
G01 X117.2826 Y-66.1962
G01 X117.2891 Y-66.2097
G01 X117.2968 Y-66.2225
G01 X117.3059 Y-66.2344
G01 X117.3252 Y-66.2560
G01 X117.7471 Y-66.6776
G01 X117.7581 Y-66.6867
G01 X117.7699 Y-66.6947
G01 X117.8374 Y-66.7317
G01 X117.8473 Y-66.7366
G01 X117.8575 Y-66.7408
G01 X117.8644 Y-66.7432
G01 X117.8751 Y-66.7461
G01 X117.8823 Y-66.7476
G01 X117.8932 Y-66.7492
G01 X117.9236 Y-66.7524
G01 X117.9356 Y-66.7529
G01 X121.7327 Y-66.7529
G01 X121.7434 Y-66.7525
G01 X121.7576 Y-66.7508
G01 X121.7681 Y-66.7487
G01 X121.7750 Y-66.7468
G01 X121.8454 Y-66.7261
G01 X121.8588 Y-66.7211
G01 X121.8716 Y-66.7149
G01 X121.8808 Y-66.7094
G01 X121.8896 Y-66.7033
G01 X121.9165 Y-66.6820
G01 X121.9998 Y-66.6029
G01 X122.1525 Y-66.5047
G01 X122.3210 Y-66.4373
G01 X122.4992 Y-66.4029
G01 X123.4353 Y-66.4029
G01 X123.5707 Y-66.4158
G01 X123.7449 Y-66.4670
G01 X123.9062 Y-66.5502
G01 X124.0489 Y-66.6624
G01 X124.1678 Y-66.7996
G01 X124.2585 Y-66.9568
G01 X124.3179 Y-67.1283
G01 X124.3437 Y-67.3080
G01 X124.3351 Y-67.4893
G01 X124.2923 Y-67.6657
G01 X124.2169 Y-67.8308
G01 X124.1116 Y-67.9787
G01 X123.9802 Y-68.1039
G01 X123.8275 Y-68.2021
G01 X123.6590 Y-68.2695
G01 X123.4808 Y-68.3039
G01 X122.5447 Y-68.3039
G01 X122.4093 Y-68.2910
G01 X122.2351 Y-68.2398
G01 X122.0738 Y-68.1566
G01 X121.9306 Y-68.0440
G01 X121.9221 Y-68.0357
G01 X121.9111 Y-68.0266
G01 X121.9023 Y-68.0205
G01 X121.8371 Y-67.9788
G01 X121.8270 Y-67.9735
G01 X121.8166 Y-67.9691
G01 X121.8059 Y-67.9654
G01 X121.7986 Y-67.9634
G01 X121.7838 Y-67.9604
G01 X121.7453 Y-67.9550
G01 X121.7347 Y-67.9541
G01 X117.6371 Y-67.9539
G01 X117.6298 Y-67.9541
G01 X117.6082 Y-67.9556
G01 X117.5910 Y-67.9577
G01 X117.5531 Y-67.9545
G01 X117.5385 Y-67.9539
G01 X117.5102 Y-67.9507
G01 X117.4425 Y-67.9447
G01 X117.3742 Y-67.9200
G01 X117.3093 Y-67.8985
G01 X117.2525 Y-67.8611
G01 X117.1910 Y-67.8231
G01 X117.1411 Y-67.7703
G01 X116.9600 Y-67.5892
G01 X116.9521 Y-67.5819
G01 X116.9409 Y-67.5731
G01 X116.9320 Y-67.5672
G01 X116.9258 Y-67.5636
G01 X116.8612 Y-67.5284
G01 X116.8511 Y-67.5237
G01 X116.8371 Y-67.5185
G01 X116.8263 Y-67.5156
G01 X116.8153 Y-67.5135
G01 X116.8042 Y-67.5122
G01 X116.7893 Y-67.5118
G01 X116.7084 Y-67.5175
G01 X116.6973 Y-67.5190
G01 X116.6826 Y-67.5223
G01 X116.6684 Y-67.5270
G01 X116.6531 Y-67.5334
G01 X116.4622 Y-67.6224
G01 X116.2593 Y-67.6768
G01 X116.0500 Y-67.6951
G01 X115.8407 Y-67.6768
G01 X115.6378 Y-67.6224
G01 X115.4475 Y-67.5336
G01 X115.2754 Y-67.4131
G01 X115.1371 Y-67.2749
G01 X115.1293 Y-67.2676
G01 X115.1180 Y-67.2587
G01 X115.1091 Y-67.2528
G01 X115.1029 Y-67.2493
G01 X115.0416 Y-67.2158
G01 X115.0316 Y-67.2108
G01 X115.0213 Y-67.2066
G01 X115.0070 Y-67.2022
G01 X114.9961 Y-67.1998
G01 X114.9813 Y-67.1979
G01 X114.9702 Y-67.1974
G01 X114.9590 Y-67.1978
G01 X114.8893 Y-67.2028
G01 X114.8745 Y-67.2046
G01 X114.8672 Y-67.2061
G01 X114.8564 Y-67.2089
G01 X114.8424 Y-67.2139
G01 X114.8290 Y-67.2203
G01 X114.8162 Y-67.2280
G01 X114.7512 Y-67.2765
G01 X114.7425 Y-67.2840
G01 X114.7318 Y-67.2949
G01 X114.7223 Y-67.3068
G01 X114.7120 Y-67.3219
G01 X114.6239 Y-67.4647
G01 X114.5247 Y-67.5639
G01 X114.4053 Y-67.6375
G01 X114.2711 Y-67.6820
G01 X114.1923 Y-67.6900
G01 X113.9500 Y-67.6900
G01 X113.9500 Y-67.4900
G00 Z1.0000
G00 X112.3500 Y-66.7400
G01 F25.00
G01 Z-0.1000
G01 F70.00
G01 X112.5500 Y-66.7400
G01 X112.5500 Y-67.0937
G01 X112.5519 Y-67.1292
G01 X112.5564 Y-67.1608
G01 X112.5593 Y-67.1752
G01 X112.5672 Y-67.2061
G01 X112.5778 Y-67.2362
G01 X112.5834 Y-67.2498
G01 X112.5972 Y-67.2786
G01 X112.6154 Y-67.3091
G01 X112.6217 Y-67.3182
G01 X112.6363 Y-67.3380
G01 X112.6432 Y-67.3466
G01 X112.6672 Y-67.3728
G01 X112.6907 Y-67.3944
G01 X112.7020 Y-67.4037
G01 X112.7278 Y-67.4226
G01 X112.7614 Y-67.4428
G01 X112.7902 Y-67.4566
G01 X112.8038 Y-67.4622
G01 X112.8269 Y-67.4705
G01 X112.8374 Y-67.4738
G01 X112.8648 Y-67.4807
G01 X112.8756 Y-67.4830
G01 X112.9071 Y-67.4877
G01 X112.9181 Y-67.4886
G01 X112.9500 Y-67.4900
G01 X113.1500 Y-67.4900
G01 X113.1500 Y-67.6900
G01 X112.9077 Y-67.6900
G01 X112.8289 Y-67.6820
G01 X112.6947 Y-67.6375
G01 X112.5753 Y-67.5639
G01 X112.4761 Y-67.4647
G01 X112.4025 Y-67.3453
G01 X112.3580 Y-67.2111
G01 X112.3500 Y-67.1323
G01 X112.3500 Y-66.7400
G00 Z1.0000
G00 X113.1500 Y-65.1900
G01 F25.00
G01 Z-0.1000
G01 F70.00
G01 X112.9463 Y-65.1900
G01 X112.9181 Y-65.1914
G01 X112.9071 Y-65.1923
G01 X112.8756 Y-65.1970
G01 X112.8648 Y-65.1993
G01 X112.8339 Y-65.2072
G01 X112.8038 Y-65.2178
G01 X112.7902 Y-65.2234
G01 X112.7614 Y-65.2372
G01 X112.7340 Y-65.2535
G01 X112.7218 Y-65.2617
G01 X112.6962 Y-65.2808
G01 X112.6698 Y-65.3046
G01 X112.6621 Y-65.3125
G01 X112.6456 Y-65.3307
G01 X112.6363 Y-65.3420
G01 X112.6174 Y-65.3678
G01 X112.5972 Y-65.4014
G01 X112.5804 Y-65.4369
G01 X112.5695 Y-65.4669
G01 X112.5653 Y-65.4810
G01 X112.5577 Y-65.5120
G01 X112.5519 Y-65.5508
G01 X112.5500 Y-65.5863
G01 X112.5500 Y-65.9400
G01 X112.3500 Y-65.9400
G01 X112.3500 Y-65.5477
G01 X112.3580 Y-65.4689
G01 X112.4025 Y-65.3347
G01 X112.4761 Y-65.2153
G01 X112.5753 Y-65.1161
G01 X112.6947 Y-65.0425
G01 X112.8289 Y-64.9980
G01 X112.9077 Y-64.9900
G01 X113.1500 Y-64.9900
G01 X113.1500 Y-65.1900
G00 Z1.0000
G00 X115.9593 Y-65.1943
G01 F25.00
G01 Z-0.1000
G01 F70.00
G01 X115.9447 Y-65.1957
G01 X115.8549 Y-65.2092
G01 X115.7668 Y-65.2311
G01 X115.7527 Y-65.2354
G01 X115.6742 Y-65.2635
G01 X115.6606 Y-65.2691
G01 X115.5786 Y-65.3081
G01 X115.4944 Y-65.3585
G01 X115.4156 Y-65.4170
G01 X115.3429 Y-65.4829
G01 X115.2770 Y-65.5556
G01 X115.2228 Y-65.6284
G01 X115.2146 Y-65.6406
G01 X115.1717 Y-65.7122
G01 X115.1648 Y-65.7252
G01 X115.1261 Y-65.8073
G01 X115.0931 Y-65.8997
G01 X115.0692 Y-65.9949
G01 X115.0548 Y-66.0920
G01 X115.0500 Y-66.1900
G01 X115.0500 Y-66.4900
G01 X115.0543 Y-66.5807
G01 X115.0552 Y-66.5917
G01 X115.0692 Y-66.6851
G01 X115.0931 Y-66.7803
G01 X115.1261 Y-66.8727
G01 X115.1681 Y-66.9614
G01 X115.2185 Y-67.0456
G01 X115.2770 Y-67.1244
G01 X115.3429 Y-67.1971
G01 X115.4156 Y-67.2630
G01 X115.4944 Y-67.3215
G01 X115.5786 Y-67.3719
G01 X115.6673 Y-67.4139
G01 X115.7597 Y-67.4469
G01 X115.8549 Y-67.4708
G01 X115.9447 Y-67.4843
G01 X115.9593 Y-67.4857
G01 X116.0500 Y-67.4900
G01 X116.1407 Y-67.4857
G01 X116.1553 Y-67.4843
G01 X116.2451 Y-67.4708
G01 X116.3367 Y-67.4480
G01 X116.3473 Y-67.4446
G01 X116.4258 Y-67.4165
G01 X116.4394 Y-67.4109
G01 X116.5214 Y-67.3719
G01 X116.6025 Y-67.3235
G01 X116.6116 Y-67.3172
G01 X116.6786 Y-67.2675
G01 X116.6872 Y-67.2606
G01 X116.7571 Y-67.1971
G01 X116.8020 Y-67.1479
G01 X117.2905 Y-67.6363
G01 X117.3167 Y-67.6603
G01 X117.3254 Y-67.6672
G01 X117.3451 Y-67.6819
G01 X117.3542 Y-67.6881
G01 X117.3848 Y-67.7063
G01 X117.4135 Y-67.7201
G01 X117.4271 Y-67.7257
G01 X117.4572 Y-67.7363
G01 X117.4882 Y-67.7442
G01 X117.4990 Y-67.7465
G01 X117.5342 Y-67.7516
G01 X117.5734 Y-67.7535
G01 X121.9563 Y-67.7535
G01 X121.9685 Y-67.7731
G01 X122.0079 Y-67.8263
G01 X122.0151 Y-67.8348
G01 X122.0546 Y-67.8784
G01 X122.0623 Y-67.8863
G01 X122.1086 Y-67.9283
G01 X122.1200 Y-67.9377
G01 X122.1733 Y-67.9770
G01 X122.2332 Y-68.0131
G01 X122.2430 Y-68.0182
G01 X122.3030 Y-68.0463
G01 X122.3653 Y-68.0688
G01 X122.3794 Y-68.0731
G01 X122.4437 Y-68.0890
G01 X122.5092 Y-68.0989
G01 X122.5238 Y-68.1003
G01 X122.5863 Y-68.1034
G01 X123.3937 Y-68.1034
G01 X123.4635 Y-68.0998
G01 X123.5291 Y-68.0902
G01 X123.5435 Y-68.0874
G01 X123.6006 Y-68.0731
G01 X123.6147 Y-68.0688
G01 X123.6701 Y-68.0490
G01 X123.6837 Y-68.0433
G01 X123.7435 Y-68.0148
G01 X123.8005 Y-67.9809
G01 X123.8127 Y-67.9728
G01 X123.8658 Y-67.9332
G01 X123.9203 Y-67.8837
G01 X123.9649 Y-67.8348
G01 X123.9743 Y-67.8234
G01 X124.0136 Y-67.7701
G01 X124.0478 Y-67.7134
G01 X124.0548 Y-67.7004
G01 X124.0829 Y-67.6404
G01 X124.1077 Y-67.5711
G01 X124.1256 Y-67.4997
G01 X124.1364 Y-67.4269
G01 X124.1400 Y-67.3534
G01 X124.1369 Y-67.2872
G01 X124.1355 Y-67.2726
G01 X124.1256 Y-67.2071
G01 X124.1097 Y-67.1428
G01 X124.1054 Y-67.1287
G01 X124.0856 Y-67.0733
G01 X124.0799 Y-67.0597
G01 X124.0514 Y-66.9999
G01 X124.0136 Y-66.9367
G01 X123.9698 Y-66.8776
G01 X123.9254 Y-66.8284
G01 X123.9150 Y-66.8180
G01 X123.8714 Y-66.7785
G01 X123.8600 Y-66.7691
G01 X123.8067 Y-66.7298
G01 X123.7500 Y-66.6956
G01 X123.7370 Y-66.6886
G01 X123.6770 Y-66.6605
G01 X123.6077 Y-66.6357
G01 X123.5363 Y-66.6178
G01 X123.4635 Y-66.6070
G01 X123.3900 Y-66.6034
G01 X122.5900 Y-66.6034
G01 X122.5165 Y-66.6070
G01 X122.4509 Y-66.6166
G01 X122.4401 Y-66.6186
G01 X122.3723 Y-66.6357
G01 X122.3030 Y-66.6605
G01 X122.2365 Y-66.6920
G01 X122.1795 Y-66.7259
G01 X122.1703 Y-66.7319
G01 X122.1142 Y-66.7736
G01 X122.0650 Y-66.8180
G01 X122.0571 Y-66.8257
G01 X122.0151 Y-66.8720
G01 X122.0079 Y-66.8805
G01 X121.9685 Y-66.9337
G01 X121.9563 Y-66.9533
G01 X117.7391 Y-66.9533
G01 X117.0500 Y-66.2641
G01 X117.0500 Y-66.1863
G01 X117.0455 Y-66.0957
G01 X117.0443 Y-66.0847
G01 X117.0315 Y-65.9985
G01 X117.0292 Y-65.9877
G01 X117.0069 Y-65.8997
G01 X116.9752 Y-65.8107
G01 X116.9709 Y-65.8006
G01 X116.9319 Y-65.7186
G01 X116.8815 Y-65.6344
G01 X116.8230 Y-65.5556
G01 X116.7571 Y-65.4829
G01 X116.6844 Y-65.4170
G01 X116.6056 Y-65.3585
G01 X116.5214 Y-65.3081
G01 X116.4394 Y-65.2691
G01 X116.4258 Y-65.2635
G01 X116.3473 Y-65.2354
G01 X116.3332 Y-65.2311
G01 X116.2451 Y-65.2092
G01 X116.1553 Y-65.1957
G01 X116.1407 Y-65.1943
G01 X116.0500 Y-65.1900
G01 X115.9593 Y-65.1943
G00 Z1.0000
G00 X115.9593 Y-70.8843
G01 F25.00
G01 Z-0.1000
G01 F70.00
G01 X115.9447 Y-70.8857
G01 X115.8549 Y-70.8992
G01 X115.7597 Y-70.9231
G01 X115.6673 Y-70.9561
G01 X115.5852 Y-70.9948
G01 X115.5722 Y-71.0017
G01 X115.5006 Y-71.0446
G01 X115.4884 Y-71.0528
G01 X115.4156 Y-71.1070
G01 X115.3482 Y-71.1678
G01 X115.3378 Y-71.1782
G01 X115.2770 Y-71.2456
G01 X115.2185 Y-71.3244
G01 X115.1681 Y-71.4086
G01 X115.1261 Y-71.4973
G01 X115.0931 Y-71.5897
G01 X115.0708 Y-71.6777
G01 X115.0685 Y-71.6885
G01 X115.0548 Y-71.7820
G01 X115.0500 Y-71.8763
G01 X115.0500 Y-72.1800
G01 X115.0545 Y-72.2743
G01 X115.0557 Y-72.2853
G01 X115.0692 Y-72.3751
G01 X115.0931 Y-72.4703
G01 X115.1261 Y-72.5627
G01 X115.1681 Y-72.6514
G01 X115.2185 Y-72.7356
G01 X115.2770 Y-72.8144
G01 X115.3429 Y-72.8871
G01 X115.4156 Y-72.9530
G01 X115.4944 Y-73.0115
G01 X115.5786 Y-73.0619
G01 X115.6673 Y-73.1039
G01 X115.7597 Y-73.1369
G01 X115.8549 Y-73.1608
G01 X115.9520 Y-73.1752
G01 X116.0500 Y-73.1800
G01 X116.1443 Y-73.1755
G01 X116.1553 Y-73.1743
G01 X116.2451 Y-73.1608
G01 X116.3403 Y-73.1369
G01 X116.4327 Y-73.1039
G01 X116.5148 Y-73.0652
G01 X116.5278 Y-73.0583
G01 X116.5994 Y-73.0154
G01 X116.6116 Y-73.0072
G01 X116.6844 Y-72.9530
G01 X116.7518 Y-72.8922
G01 X116.7597 Y-72.8845
G01 X116.8230 Y-72.8144
G01 X116.8815 Y-72.7356
G01 X116.9319 Y-72.6514
G01 X116.9709 Y-72.5694
G01 X116.9752 Y-72.5593
G01 X117.0069 Y-72.4703
G01 X117.0292 Y-72.3823
G01 X117.0315 Y-72.3715
G01 X117.0443 Y-72.2853
G01 X117.0455 Y-72.2743
G01 X117.0500 Y-72.1837
G01 X117.0500 Y-72.1159
G01 X118.8723 Y-70.2935
G01 X121.9563 Y-70.2935
G01 X121.9685 Y-70.3131
G01 X122.0079 Y-70.3663
G01 X122.0151 Y-70.3748
G01 X122.0571 Y-70.4211
G01 X122.0650 Y-70.4288
G01 X122.1142 Y-70.4732
G01 X122.1703 Y-70.5149
G01 X122.1795 Y-70.5209
G01 X122.2365 Y-70.5548
G01 X122.3030 Y-70.5863
G01 X122.3723 Y-70.6111
G01 X122.4401 Y-70.6282
G01 X122.4509 Y-70.6302
G01 X122.5165 Y-70.6398
G01 X122.5900 Y-70.6434
G01 X123.3900 Y-70.6434
G01 X123.4635 Y-70.6398
G01 X123.5363 Y-70.6290
G01 X123.6077 Y-70.6111
G01 X123.6770 Y-70.5863
G01 X123.7435 Y-70.5548
G01 X123.8067 Y-70.5170
G01 X123.8658 Y-70.4732
G01 X123.9203 Y-70.4237
G01 X123.9698 Y-70.3692
G01 X124.0136 Y-70.3101
G01 X124.0514 Y-70.2469
G01 X124.0829 Y-70.1804
G01 X124.1077 Y-70.1111
G01 X124.1256 Y-70.0397
G01 X124.1364 Y-69.9669
G01 X124.1400 Y-69.8934
G01 X124.1369 Y-69.8272
G01 X124.1360 Y-69.8162
G01 X124.1256 Y-69.7471
G01 X124.1077 Y-69.6757
G01 X124.0829 Y-69.6064
G01 X124.0548 Y-69.5464
G01 X124.0478 Y-69.5334
G01 X124.0175 Y-69.4829
G01 X124.0094 Y-69.4707
G01 X123.9698 Y-69.4176
G01 X123.9203 Y-69.3631
G01 X123.8658 Y-69.3136
G01 X123.8067 Y-69.2698
G01 X123.7435 Y-69.2320
G01 X123.6837 Y-69.2035
G01 X123.6701 Y-69.1978
G01 X123.6077 Y-69.1757
G01 X123.5435 Y-69.1594
G01 X123.5291 Y-69.1566
G01 X123.4708 Y-69.1479
G01 X123.4562 Y-69.1465
G01 X123.3900 Y-69.1434
G01 X122.5900 Y-69.1434
G01 X122.5165 Y-69.1470
G01 X122.4509 Y-69.1566
G01 X122.4401 Y-69.1586
G01 X122.3723 Y-69.1757
G01 X122.3030 Y-69.2005
G01 X122.2365 Y-69.2320
G01 X122.1795 Y-69.2659
G01 X122.1703 Y-69.2719
G01 X122.1142 Y-69.3136
G01 X122.0650 Y-69.3580
G01 X122.0571 Y-69.3657
G01 X122.0151 Y-69.4120
G01 X122.0079 Y-69.4205
G01 X121.9685 Y-69.4737
G01 X121.9563 Y-69.4933
G01 X118.7066 Y-69.4933
G01 X118.6747 Y-69.4947
G01 X118.6637 Y-69.4956
G01 X118.6285 Y-69.5010
G01 X118.5904 Y-69.5105
G01 X118.5535 Y-69.5237
G01 X118.5246 Y-69.5372
G01 X118.5116 Y-69.5442
G01 X118.4905 Y-69.5568
G01 X118.4813 Y-69.5628
G01 X118.4528 Y-69.5841
G01 X118.4263 Y-69.6079
G01 X116.8067 Y-71.2274
G01 X116.7571 Y-71.1729
G01 X116.6900 Y-71.1118
G01 X116.6786 Y-71.1025
G01 X116.6116 Y-71.0528
G01 X116.5994 Y-71.0446
G01 X116.5214 Y-70.9981
G01 X116.4327 Y-70.9561
G01 X116.3403 Y-70.9231
G01 X116.2523 Y-70.9008
G01 X116.2378 Y-70.8980
G01 X116.1480 Y-70.8848
G01 X116.0574 Y-70.8802
G01 X116.0426 Y-70.8802
G01 X115.9593 Y-70.8843
G00 Z1.0000
G00 X116.9088 Y-70.9556
G01 F25.00
G01 Z-0.1000
G01 F70.00
G01 X116.8078 Y-71.0566
G01 X116.7695 Y-71.0219
G01 X116.7594 Y-71.0133
G01 X116.7062 Y-70.9735
G01 X116.7506 Y-70.9803
G01 X116.7677 Y-70.9822
G01 X116.7907 Y-70.9831
G01 X116.8012 Y-70.9829
G01 X116.8145 Y-70.9820
G01 X116.8374 Y-70.9789
G01 X116.8506 Y-70.9762
G01 X116.8635 Y-70.9728
G01 X116.8763 Y-70.9688
G01 X116.8862 Y-70.9653
G01 X116.9088 Y-70.9556
G00 Z1.0000
G00 X114.7900 Y-72.6683
G01 F25.00
G01 Z-0.1000
G01 F70.00
G01 X114.8162 Y-72.6615
G01 X114.8418 Y-72.6568
G01 X114.8640 Y-72.6541
G01 X114.9030 Y-72.6512
G01 X114.8978 Y-72.6374
G01 X114.8694 Y-72.5581
G01 X114.8630 Y-72.5385
G01 X114.8585 Y-72.5222
G01 X114.8380 Y-72.4406
G01 X114.8335 Y-72.4205
G01 X114.8307 Y-72.4038
G01 X114.8183 Y-72.3205
G01 X114.8158 Y-72.3001
G01 X114.8146 Y-72.2832
G01 X114.8105 Y-72.1991
G01 X114.8100 Y-72.1800
G01 X114.8101 Y-71.8734
G01 X114.8146 Y-71.7768
G01 X114.8169 Y-71.7504
G01 X114.8306 Y-71.6569
G01 X114.8335 Y-71.6395
G01 X114.8378 Y-71.6201
G01 X114.8583 Y-71.5385
G01 X114.8630 Y-71.5215
G01 X114.8684 Y-71.5047
G01 X114.9024 Y-71.4103
G01 X114.8205 Y-71.3970
G01 X114.8052 Y-71.3939
G01 X114.7900 Y-71.3902
G01 X114.7900 Y-72.6683
G01 X114.6586 Y-72.8881
G01 X114.6674 Y-72.8801
G01 X114.6780 Y-72.8714
G01 X114.7382 Y-72.8263
G01 X114.7535 Y-72.8157
G01 X114.7675 Y-72.8072
G01 X114.7767 Y-72.8022
G01 X114.7888 Y-72.7964
G01 X114.8011 Y-72.7912
G01 X114.8137 Y-72.7866
G01 X114.8359 Y-72.7802
G01 X114.8461 Y-72.7779
G01 X114.8593 Y-72.7755
G01 X114.8808 Y-72.7731
G01 X114.9624 Y-72.7676
G01 X114.9758 Y-72.7675
G01 X114.9892 Y-72.7682
G01 X115.0121 Y-72.7708
G01 X115.0253 Y-72.7732
G01 X115.0419 Y-72.7773
G01 X115.0548 Y-72.7812
G01 X115.0674 Y-72.7857
G01 X115.0798 Y-72.7909
G01 X115.0919 Y-72.7967
G01 X115.1292 Y-72.8169
G01 X115.1196 Y-72.8035
G01 X115.1117 Y-72.7910
G01 X115.0680 Y-72.7182
G01 X115.0616 Y-72.7067
G01 X115.0569 Y-72.6975
G01 X115.0206 Y-72.6207
G01 X115.0147 Y-72.6072
G01 X114.9824 Y-72.5177
G01 X114.9787 Y-72.5065
G01 X114.9747 Y-72.4923
G01 X114.9541 Y-72.4100
G01 X114.9512 Y-72.3971
G01 X114.9493 Y-72.3854
G01 X114.9370 Y-72.3029
G01 X114.9353 Y-72.2883
G01 X114.9303 Y-72.1932
G01 X114.9300 Y-72.1800
G01 X114.9300 Y-71.8800
G01 X114.9303 Y-71.8682
G01 X114.9344 Y-71.7834
G01 X114.9355 Y-71.7688
G01 X114.9493 Y-71.6746
G01 X114.9518 Y-71.6601
G01 X114.9747 Y-71.5677
G01 X114.9787 Y-71.5535
G01 X115.0105 Y-71.4638
G01 X115.0158 Y-71.4500
G01 X115.0563 Y-71.3639
G01 X115.0630 Y-71.3507
G01 X115.1124 Y-71.2677
G01 X115.1196 Y-71.2565
G01 X115.1274 Y-71.2455
G01 X115.0650 Y-71.2727
G01 X115.0462 Y-71.2799
G01 X115.0334 Y-71.2839
G01 X115.0168 Y-71.2881
G01 X115.0036 Y-71.2907
G01 X114.9903 Y-71.2926
G01 X114.9770 Y-71.2938
G01 X114.9636 Y-71.2944
G01 X114.9502 Y-71.2943
G01 X114.9338 Y-71.2933
G01 X114.9168 Y-71.2912
G01 X114.8464 Y-71.2797
G01 X114.8347 Y-71.2775
G01 X114.8216 Y-71.2745
G01 X114.8087 Y-71.2708
G01 X114.7960 Y-71.2664
G01 X114.7836 Y-71.2615
G01 X114.7714 Y-71.2559
G01 X114.7511 Y-71.2449
G01 X114.7342 Y-71.2339
G01 X114.7182 Y-71.2217
G01 X114.6576 Y-71.1675
G01 X114.6615 Y-71.1865
G01 X114.6673 Y-71.2276
G01 X114.6685 Y-71.2422
G01 X114.6700 Y-71.2800
G01 X114.6700 Y-72.7815
G01 X114.6685 Y-72.8178
G01 X114.6673 Y-72.8324
G01 X114.6620 Y-72.8698
G01 X114.6586 Y-72.8881
G00 Z1.0000
G00 X113.9500 Y-73.1800
G01 F25.00
G01 Z-0.1000
G01 F70.00
G01 X114.1500 Y-73.1800
G01 X114.1819 Y-73.1786
G01 X114.1929 Y-73.1777
G01 X114.2280 Y-73.1723
G01 X114.2661 Y-73.1628
G01 X114.3031 Y-73.1496
G01 X114.3320 Y-73.1361
G01 X114.3450 Y-73.1291
G01 X114.3722 Y-73.1126
G01 X114.4038 Y-73.0892
G01 X114.4328 Y-73.0628
G01 X114.4592 Y-73.0338
G01 X114.4826 Y-73.0022
G01 X114.5028 Y-72.9686
G01 X114.5196 Y-72.9331
G01 X114.5328 Y-72.8961
G01 X114.5423 Y-72.8580
G01 X114.5472 Y-72.8265
G01 X114.5486 Y-72.8119
G01 X114.5500 Y-72.7800
G01 X114.5500 Y-71.2800
G01 X114.5481 Y-71.2408
G01 X114.5436 Y-71.2092
G01 X114.5407 Y-71.1948
G01 X114.5328 Y-71.1639
G01 X114.5222 Y-71.1338
G01 X114.5166 Y-71.1202
G01 X114.5028 Y-71.0914
G01 X114.4826 Y-71.0578
G01 X114.4637 Y-71.0320
G01 X114.4544 Y-71.0207
G01 X114.4328 Y-70.9972
G01 X114.4093 Y-70.9756
G01 X114.3980 Y-70.9663
G01 X114.3722 Y-70.9474
G01 X114.3386 Y-70.9272
G01 X114.3031 Y-70.9104
G01 X114.2661 Y-70.8972
G01 X114.2352 Y-70.8893
G01 X114.2208 Y-70.8864
G01 X114.1892 Y-70.8819
G01 X114.1537 Y-70.8800
G01 X113.9500 Y-70.8800
G01 X113.9500 Y-70.6800
G01 X114.1923 Y-70.6800
G01 X114.2711 Y-70.6880
G01 X114.4053 Y-70.7325
G01 X114.5247 Y-70.8061
G01 X114.6239 Y-70.9053
G01 X114.7101 Y-71.0452
G01 X114.7182 Y-71.0570
G01 X114.7250 Y-71.0653
G01 X114.7349 Y-71.0756
G01 X114.7951 Y-71.1296
G01 X114.8071 Y-71.1384
G01 X114.8199 Y-71.1460
G01 X114.8335 Y-71.1522
G01 X114.8475 Y-71.1571
G01 X114.8547 Y-71.1591
G01 X114.8657 Y-71.1613
G01 X114.9346 Y-71.1725
G01 X114.9494 Y-71.1741
G01 X114.9643 Y-71.1743
G01 X114.9792 Y-71.1730
G01 X114.9938 Y-71.1703
G01 X115.0081 Y-71.1661
G01 X115.0185 Y-71.1620
G01 X115.0861 Y-71.1326
G01 X115.0962 Y-71.1274
G01 X115.1060 Y-71.1214
G01 X115.1182 Y-71.1123
G01 X115.1347 Y-71.0975
G01 X115.2754 Y-70.9569
G01 X115.4475 Y-70.8364
G01 X115.6378 Y-70.7476
G01 X115.8407 Y-70.6932
G01 X116.0500 Y-70.6749
G01 X116.2593 Y-70.6932
G01 X116.4622 Y-70.7476
G01 X116.6572 Y-70.8386
G01 X116.6705 Y-70.8440
G01 X116.6807 Y-70.8472
G01 X116.6911 Y-70.8497
G01 X116.6981 Y-70.8509
G01 X116.7672 Y-70.8614
G01 X116.7820 Y-70.8629
G01 X116.7932 Y-70.8631
G01 X116.8080 Y-70.8620
G01 X116.8227 Y-70.8594
G01 X116.8335 Y-70.8566
G01 X116.8441 Y-70.8529
G01 X116.8509 Y-70.8500
G01 X116.9147 Y-70.8215
G01 X116.9248 Y-70.8165
G01 X116.9345 Y-70.8108
G01 X116.9438 Y-70.8044
G01 X116.9525 Y-70.7973
G01 X116.9647 Y-70.7861
G01 X118.2369 Y-69.5138
G01 X118.2419 Y-69.5086
G01 X118.2561 Y-69.4922
G01 X118.2668 Y-69.4785
G01 X118.2959 Y-69.4541
G01 X118.3067 Y-69.4441
G01 X118.3290 Y-69.4264
G01 X118.3813 Y-69.3825
G01 X118.4429 Y-69.3538
G01 X118.5079 Y-69.3213
G01 X118.5745 Y-69.3075
G01 X118.6449 Y-69.2909
G01 X118.7175 Y-69.2929
G01 X121.7327 Y-69.2929
G01 X121.7434 Y-69.2925
G01 X121.7505 Y-69.2918
G01 X121.7611 Y-69.2902
G01 X121.7750 Y-69.2868
G01 X121.8454 Y-69.2661
G01 X121.8588 Y-69.2611
G01 X121.8716 Y-69.2549
G01 X121.8808 Y-69.2494
G01 X121.8896 Y-69.2433
G01 X121.9165 Y-69.2220
G01 X121.9998 Y-69.1429
G01 X122.1525 Y-69.0447
G01 X122.3210 Y-68.9773
G01 X122.4992 Y-68.9429
G01 X123.4353 Y-68.9429
G01 X123.5707 Y-68.9558
G01 X123.7449 Y-69.0070
G01 X123.9062 Y-69.0902
G01 X124.0489 Y-69.2024
G01 X124.1678 Y-69.3395
G01 X124.2585 Y-69.4967
G01 X124.3179 Y-69.6683
G01 X124.3437 Y-69.8480
G01 X124.3351 Y-70.0293
G01 X124.2923 Y-70.2057
G01 X124.2169 Y-70.3708
G01 X124.1116 Y-70.5187
G01 X123.9802 Y-70.6439
G01 X123.8275 Y-70.7421
G01 X123.6590 Y-70.8095
G01 X123.4808 Y-70.8439
G01 X122.5447 Y-70.8439
G01 X122.4093 Y-70.8310
G01 X122.2351 Y-70.7798
G01 X122.0738 Y-70.6966
G01 X121.9306 Y-70.5840
G01 X121.9221 Y-70.5757
G01 X121.9111 Y-70.5666
G01 X121.9023 Y-70.5605
G01 X121.8371 Y-70.5188
G01 X121.8304 Y-70.5152
G01 X121.8201 Y-70.5105
G01 X121.8095 Y-70.5065
G01 X121.7986 Y-70.5034
G01 X121.7838 Y-70.5004
G01 X121.7489 Y-70.4954
G01 X121.7382 Y-70.4943
G01 X121.7275 Y-70.4939
G01 X119.0688 Y-70.4939
G01 X119.0617 Y-70.4941
G01 X119.0510 Y-70.4950
G01 X119.0404 Y-70.4966
G01 X119.0335 Y-70.4981
G01 X118.9560 Y-70.5207
G01 X118.9456 Y-70.5245
G01 X118.9389 Y-70.5274
G01 X118.9258 Y-70.5342
G01 X118.9135 Y-70.5423
G01 X118.8870 Y-70.5634
G01 X118.8780 Y-70.5714
G01 X117.3242 Y-72.1250
G01 X117.3170 Y-72.1328
G01 X117.3081 Y-72.1440
G01 X117.3041 Y-72.1500
G01 X117.2987 Y-72.1592
G01 X117.2634 Y-72.2238
G01 X117.2587 Y-72.2340
G01 X117.2547 Y-72.2444
G01 X117.2515 Y-72.2552
G01 X117.2498 Y-72.2625
G01 X117.2457 Y-72.2885
G01 X117.2368 Y-72.3893
G01 X117.1824 Y-72.5922
G01 X117.0936 Y-72.7825
G01 X116.9731 Y-72.9546
G01 X116.8246 Y-73.1031
G01 X116.6525 Y-73.2236
G01 X116.4622 Y-73.3124
G01 X116.2593 Y-73.3668
G01 X116.0500 Y-73.3851
G01 X115.8407 Y-73.3668
G01 X115.6378 Y-73.3124
G01 X115.4475 Y-73.2236
G01 X115.2754 Y-73.1031
G01 X115.1371 Y-72.9649
G01 X115.1293 Y-72.9576
G01 X115.1180 Y-72.9487
G01 X115.1091 Y-72.9428
G01 X115.1029 Y-72.9393
G01 X115.0416 Y-72.9058
G01 X115.0282 Y-72.8993
G01 X115.0177 Y-72.8953
G01 X115.0034 Y-72.8913
G01 X114.9888 Y-72.8887
G01 X114.9739 Y-72.8875
G01 X114.9590 Y-72.8878
G01 X114.8893 Y-72.8928
G01 X114.8782 Y-72.8940
G01 X114.8709 Y-72.8953
G01 X114.8564 Y-72.8989
G01 X114.8424 Y-72.9039
G01 X114.8290 Y-72.9103
G01 X114.8162 Y-72.9180
G01 X114.7512 Y-72.9665
G01 X114.7425 Y-72.9740
G01 X114.7318 Y-72.9849
G01 X114.7223 Y-72.9968
G01 X114.7120 Y-73.0119
G01 X114.6239 Y-73.1547
G01 X114.5247 Y-73.2539
G01 X114.4053 Y-73.3275
G01 X114.2711 Y-73.3720
G01 X114.1923 Y-73.3800
G01 X113.9500 Y-73.3800
G01 X113.9500 Y-73.1800
G00 Z1.0000
G00 X112.3500 Y-72.4300
G01 F25.00
G01 Z-0.1000
G01 F70.00
G01 X112.5500 Y-72.4300
G01 X112.5500 Y-72.7837
G01 X112.5519 Y-72.8192
G01 X112.5564 Y-72.8508
G01 X112.5593 Y-72.8652
G01 X112.5672 Y-72.8961
G01 X112.5778 Y-72.9262
G01 X112.5834 Y-72.9398
G01 X112.5972 Y-72.9686
G01 X112.6154 Y-72.9991
G01 X112.6217 Y-73.0082
G01 X112.6363 Y-73.0280
G01 X112.6432 Y-73.0366
G01 X112.6672 Y-73.0628
G01 X112.6907 Y-73.0844
G01 X112.7020 Y-73.0937
G01 X112.7278 Y-73.1126
G01 X112.7614 Y-73.1328
G01 X112.7902 Y-73.1466
G01 X112.8038 Y-73.1522
G01 X112.8269 Y-73.1605
G01 X112.8374 Y-73.1638
G01 X112.8648 Y-73.1707
G01 X112.8756 Y-73.1730
G01 X112.9071 Y-73.1777
G01 X112.9181 Y-73.1786
G01 X112.9500 Y-73.1800
G01 X113.1500 Y-73.1800
G01 X113.1500 Y-73.3800
G01 X112.9077 Y-73.3800
G01 X112.8289 Y-73.3720
G01 X112.6947 Y-73.3275
G01 X112.5753 Y-73.2539
G01 X112.4761 Y-73.1547
G01 X112.4025 Y-73.0353
G01 X112.3580 Y-72.9011
G01 X112.3500 Y-72.8223
G01 X112.3500 Y-72.4300
G00 Z1.0000
G00 X113.1500 Y-70.8800
G01 F25.00
G01 Z-0.1000
G01 F70.00
G01 X112.9463 Y-70.8800
G01 X112.9181 Y-70.8814
G01 X112.9071 Y-70.8823
G01 X112.8756 Y-70.8870
G01 X112.8648 Y-70.8893
G01 X112.8339 Y-70.8972
G01 X112.8038 Y-70.9078
G01 X112.7902 Y-70.9134
G01 X112.7614 Y-70.9272
G01 X112.7340 Y-70.9435
G01 X112.7218 Y-70.9517
G01 X112.6962 Y-70.9708
G01 X112.6698 Y-70.9946
G01 X112.6621 Y-71.0025
G01 X112.6456 Y-71.0207
G01 X112.6363 Y-71.0320
G01 X112.6174 Y-71.0578
G01 X112.5972 Y-71.0914
G01 X112.5804 Y-71.1269
G01 X112.5695 Y-71.1569
G01 X112.5653 Y-71.1710
G01 X112.5577 Y-71.2020
G01 X112.5519 Y-71.2408
G01 X112.5500 Y-71.2763
G01 X112.5500 Y-71.6300
G01 X112.3500 Y-71.6300
G01 X112.3500 Y-71.2377
G01 X112.3580 Y-71.1589
G01 X112.4025 Y-71.0247
G01 X112.4761 Y-70.9053
G01 X112.5753 Y-70.8061
G01 X112.6947 Y-70.7325
G01 X112.8289 Y-70.6880
G01 X112.9077 Y-70.6800
G01 X113.1500 Y-70.6800
G01 X113.1500 Y-70.8800
G00 Z1.0000
G00 X113.1500 Y-76.3600
G01 F25.00
G01 Z-0.1000
G01 F70.00
G01 X112.9463 Y-76.3600
G01 X112.9181 Y-76.3614
G01 X112.9071 Y-76.3623
G01 X112.8756 Y-76.3670
G01 X112.8648 Y-76.3693
G01 X112.8339 Y-76.3772
G01 X112.8038 Y-76.3878
G01 X112.7902 Y-76.3934
G01 X112.7614 Y-76.4072
G01 X112.7340 Y-76.4235
G01 X112.7218 Y-76.4317
G01 X112.6962 Y-76.4508
G01 X112.6698 Y-76.4746
G01 X112.6621 Y-76.4825
G01 X112.6456 Y-76.5007
G01 X112.6363 Y-76.5120
G01 X112.6174 Y-76.5378
G01 X112.5972 Y-76.5714
G01 X112.5804 Y-76.6069
G01 X112.5695 Y-76.6369
G01 X112.5653 Y-76.6510
G01 X112.5577 Y-76.6820
G01 X112.5519 Y-76.7208
G01 X112.5500 Y-76.7563
G01 X112.5500 Y-77.1100
G01 X112.3500 Y-77.1100
G01 X112.3500 Y-76.7177
G01 X112.3580 Y-76.6389
G01 X112.4025 Y-76.5047
G01 X112.4761 Y-76.3853
G01 X112.5753 Y-76.2861
G01 X112.6947 Y-76.2125
G01 X112.8289 Y-76.1680
G01 X112.9077 Y-76.1600
G01 X113.1500 Y-76.1600
G01 X113.1500 Y-76.3600
G00 Z1.0000
G00 X112.3500 Y-77.9100
G01 F25.00
G01 Z-0.1000
G01 F70.00
G01 X112.5500 Y-77.9100
G01 X112.5500 Y-78.2637
G01 X112.5519 Y-78.2992
G01 X112.5564 Y-78.3308
G01 X112.5593 Y-78.3452
G01 X112.5672 Y-78.3761
G01 X112.5778 Y-78.4062
G01 X112.5834 Y-78.4198
G01 X112.5972 Y-78.4486
G01 X112.6154 Y-78.4791
G01 X112.6217 Y-78.4882
G01 X112.6363 Y-78.5080
G01 X112.6432 Y-78.5166
G01 X112.6672 Y-78.5428
G01 X112.6907 Y-78.5644
G01 X112.7020 Y-78.5737
G01 X112.7278 Y-78.5926
G01 X112.7614 Y-78.6128
G01 X112.7902 Y-78.6266
G01 X112.8038 Y-78.6322
G01 X112.8269 Y-78.6405
G01 X112.8374 Y-78.6438
G01 X112.8648 Y-78.6507
G01 X112.8756 Y-78.6530
G01 X112.9071 Y-78.6577
G01 X112.9181 Y-78.6586
G01 X112.9500 Y-78.6600
G01 X113.1500 Y-78.6600
G01 X113.1500 Y-78.8600
G01 X112.9077 Y-78.8600
G01 X112.8289 Y-78.8520
G01 X112.6947 Y-78.8075
G01 X112.5753 Y-78.7339
G01 X112.4761 Y-78.6347
G01 X112.4025 Y-78.5153
G01 X112.3580 Y-78.3811
G01 X112.3500 Y-78.3023
G01 X112.3500 Y-77.9100
G00 Z1.0000
G00 X113.9500 Y-78.6600
G01 F25.00
G01 Z-0.1000
G01 F70.00
G01 X114.1500 Y-78.6600
G01 X114.1819 Y-78.6586
G01 X114.1929 Y-78.6577
G01 X114.2280 Y-78.6523
G01 X114.2661 Y-78.6428
G01 X114.3031 Y-78.6296
G01 X114.3320 Y-78.6161
G01 X114.3450 Y-78.6091
G01 X114.3722 Y-78.5926
G01 X114.4038 Y-78.5692
G01 X114.4328 Y-78.5428
G01 X114.4592 Y-78.5138
