(G-CODE GENERATED BY FLATCAM v8.994 - www.flatcam.org - Version Date: 2020/11/7)

(Name: TapBeerFlowControl_hardware-B_Cu.gbr_ncc_cnc)
(Type: G-code from Geometry)
(Units: MM)

(Created on Monday, 27 November 2023 at 14:22)

(This preprocessor is the default preprocessor used by FlatCAM.)
(It is made to work with MACH3 compatible motion controllers.)

(TOOL DIAMETER: 0.3 mm)
(Feedrate_XY: 70.0 mm/min)
(Feedrate_Z: 25.0 mm/min)
(Feedrate rapids 1500.0 mm/min)

(Z_Cut: -0.1 mm)
(Z_Move: 1.0 mm)
(Z Start: None mm)
(Z End: 15.0 mm)
(X,Y End: None mm)
(Steps per circle: 64)
(Preprocessor Geometry: default)

(X range:    2.8770 ...   58.9400  mm)
(Y range:  -33.1695 ...   28.1243  mm)

(Spindle Speed: 1000.0 RPM)
G21
G90
G94

G01 F70.00

M5
G00 Z15.0000
G00 X0.0000 Y0.0000
T2
M6    
(MSG, Change to Tool Dia = 0.3000)
M0
G00 Z15.0000

M03 S1000.0
G01 F70.00
G00 X3.0426 Y-2.0478
G01 F25.00
G01 Z-0.1000
G01 F70.00
G01 X3.1314 Y-1.8575
G01 X3.2519 Y-1.6854
G01 X3.4004 Y-1.5369
G01 X3.5466 Y-1.4344
G01 X3.5552 Y-1.4280
G01 X3.5606 Y-1.4234
G01 X3.5683 Y-1.4159
G01 X3.5755 Y-1.4080
G01 X3.6259 Y-1.3447
G01 X3.6340 Y-1.3322
G01 X3.6408 Y-1.3190
G01 X3.6463 Y-1.3051
G01 X3.6504 Y-1.2908
G01 X3.6525 Y-1.2798
G01 X3.6534 Y-1.2724
G01 X3.6610 Y-1.1992
G01 X3.6614 Y-1.1843
G01 X3.6607 Y-1.1732
G01 X3.6598 Y-1.1658
G01 X3.6570 Y-1.1512
G01 X3.6550 Y-1.1440
G01 X3.6513 Y-1.1334
G01 X3.6453 Y-1.1198
G01 X3.6121 Y-1.0542
G01 X3.6046 Y-1.0417
G01 X3.5959 Y-1.0300
G01 X3.5887 Y-1.0218
G01 X3.5808 Y-1.0142
G01 X3.5588 Y-0.9951
G01 X3.5498 Y-0.9878
G01 X3.4004 Y-0.8831
G01 X3.2519 Y-0.7346
G01 X3.1314 Y-0.5625
G01 X3.0426 Y-0.3722
G01 X2.9882 Y-0.1693
G01 X2.9699 Y0.0400
G01 X2.9882 Y0.2493
G01 X3.0426 Y0.4522
G01 X3.1314 Y0.6425
G01 X3.2519 Y0.8146
G01 X3.4004 Y0.9631
G01 X3.5725 Y1.0836
G01 X3.7628 Y1.1724
G01 X3.9657 Y1.2268
G01 X4.1226 Y1.2405
G01 X4.4774 Y1.2405
G01 X4.5100 Y1.2376
G01 X4.5207 Y1.2371
G01 X4.5350 Y1.2375
G01 X4.5456 Y1.2388
G01 X4.6247 Y1.2545
G01 X4.6352 Y1.2573
G01 X4.6489 Y1.2622
G01 X4.6621 Y1.2684
G01 X4.6745 Y1.2759
G01 X4.7105 Y1.3021
G01 X4.7193 Y1.3092
G01 X4.7276 Y1.3169
G01 X9.7692 Y6.3585
G01 X9.7765 Y6.3663
G01 X9.7811 Y6.3718
G01 X9.7854 Y6.3775
G01 X9.7913 Y6.3865
G01 X9.8283 Y6.4540
G01 X9.8347 Y6.4672
G01 X9.8387 Y6.4775
G01 X9.8418 Y6.4881
G01 X9.8442 Y6.4989
G01 X9.8458 Y6.5098
G01 X9.8486 Y6.5362
G01 X9.8495 Y6.5522
G01 X9.8495 Y11.9663
G01 X9.8493 Y11.9736
G01 X9.8478 Y11.9952
G01 X9.8457 Y12.0124
G01 X9.8489 Y12.0503
G01 X9.8495 Y12.0649
G01 X9.8527 Y12.0932
G01 X9.8587 Y12.1612
G01 X9.8820 Y12.2251
G01 X9.9048 Y12.2937
G01 X9.9446 Y12.3545
G01 X9.9803 Y12.4124
G01 X10.0331 Y12.4623
G01 X10.3420 Y12.7713
G01 X10.3469 Y12.7764
G01 X10.3539 Y12.7846
G01 X10.3602 Y12.7932
G01 X10.3659 Y12.8023
G01 X10.4011 Y12.8668
G01 X10.4061 Y12.8768
G01 X10.4103 Y12.8871
G01 X10.4127 Y12.8942
G01 X10.4156 Y12.9049
G01 X10.4171 Y12.9122
G01 X10.4190 Y12.9270
G01 X10.4194 Y12.9345
G01 X10.4193 Y12.9456
G01 X10.4138 Y13.0228
G01 X10.4128 Y13.0302
G01 X10.4108 Y13.0413
G01 X10.4079 Y13.0521
G01 X10.4042 Y13.0628
G01 X10.3998 Y13.0731
G01 X10.3945 Y13.0830
G01 X10.3602 Y13.1368
G01 X10.3539 Y13.1454
G01 X10.3445 Y13.1562
G01 X8.8804 Y14.6203
G01 X8.8752 Y14.6254
G01 X8.8588 Y14.6395
G01 X8.8451 Y14.6502
G01 X8.8207 Y14.6793
G01 X8.8107 Y14.6901
G01 X8.7930 Y14.7124
G01 X8.7491 Y14.7647
G01 X8.7204 Y14.8263
G01 X8.6879 Y14.8913
G01 X8.6741 Y14.9579
G01 X8.6575 Y15.0286
G01 X8.6595 Y15.1009
G01 X8.6595 Y16.1848
G01 X8.6591 Y16.1955
G01 X8.6584 Y16.2026
G01 X8.6568 Y16.2132
G01 X8.6544 Y16.2236
G01 X8.6337 Y16.2941
G01 X8.6290 Y16.3076
G01 X8.6247 Y16.3175
G01 X8.6214 Y16.3239
G01 X8.6159 Y16.3331
G01 X8.6075 Y16.3448
G01 X8.6006 Y16.3530
G01 X8.5674 Y16.3890
G01 X8.5621 Y16.3940
G01 X8.5538 Y16.4010
G01 X8.3745 Y16.5406
G01 X8.2282 Y16.6994
G01 X8.2129 Y16.7222
G01 X8.2085 Y16.7278
G01 X8.2013 Y16.7357
G01 X8.1909 Y16.7455
G01 X8.1377 Y16.7908
G01 X8.1290 Y16.7978
G01 X8.1165 Y16.8060
G01 X8.1033 Y16.8129
G01 X8.0895 Y16.8185
G01 X8.0824 Y16.8207
G01 X8.0716 Y16.8235
G01 X8.0606 Y16.8254
G01 X7.9877 Y16.8353
G01 X7.9728 Y16.8362
G01 X7.9579 Y16.8356
G01 X7.9468 Y16.8342
G01 X7.9323 Y16.8310
G01 X7.9216 Y16.8277
G01 X7.9112 Y16.8237
G01 X7.8378 Y16.7893
G01 X7.8250 Y16.7818
G01 X7.8131 Y16.7730
G01 X7.8047 Y16.7656
G01 X7.7969 Y16.7577
G01 X7.7703 Y16.7270
G01 X7.7622 Y16.7162
G01 X7.7514 Y16.6997
G01 X7.6052 Y16.5409
G01 X7.4348 Y16.4084
G01 X7.2450 Y16.3056
G01 X7.1200 Y16.2627
G01 X7.1200 Y16.4759
G01 X7.1385 Y16.4826
G01 X7.1486 Y16.4869
G01 X7.2331 Y16.5269
G01 X7.2461 Y16.5338
G01 X7.3325 Y16.5858
G01 X7.4136 Y16.6457
G01 X7.4250 Y16.6551
G01 X7.4996 Y16.7229
G01 X7.5722 Y16.8031
G01 X7.6367 Y16.8900
G01 X7.6923 Y16.9828
G01 X7.7356 Y17.0739
G01 X7.7412 Y17.0875
G01 X7.7750 Y17.1825
G01 X7.8006 Y17.2838
G01 X7.8026 Y17.2947
G01 X7.8163 Y17.3871
G01 X7.8175 Y17.3981
G01 X7.8225 Y17.4988
G01 X7.8225 Y17.5975
G01 X7.8177 Y17.6982
G01 X7.8163 Y17.7129
G01 X7.8013 Y17.8126
G01 X7.7770 Y17.9104
G01 X7.7727 Y17.9245
G01 X7.7386 Y18.0194
G01 X7.6956 Y18.1106
G01 X7.6905 Y18.1204
G01 X7.6367 Y18.2100
G01 X7.5722 Y18.2969
G01 X7.4996 Y18.3771
G01 X7.4222 Y18.4474
G01 X7.4136 Y18.4543
G01 X7.3325 Y18.5142
G01 X7.2461 Y18.5662
G01 X7.2331 Y18.5731
G01 X7.1486 Y18.6131
G01 X7.1385 Y18.6174
G01 X7.1200 Y18.6241
G01 X7.1200 Y18.8373
G01 X7.2450 Y18.7944
G01 X7.4348 Y18.6916
G01 X7.6052 Y18.5591
G01 X7.7514 Y18.4003
G01 X7.7623 Y18.3836
G01 X7.7687 Y18.3750
G01 X7.7781 Y18.3643
G01 X7.7885 Y18.3545
G01 X7.8445 Y18.3068
G01 X7.8504 Y18.3022
G01 X7.8597 Y18.2960
G01 X7.8661 Y18.2922
G01 X7.8761 Y18.2871
G01 X7.8899 Y18.2815
G01 X7.9042 Y18.2774
G01 X7.9188 Y18.2746
G01 X7.9880 Y18.2652
G01 X7.9992 Y18.2641
G01 X8.0103 Y18.2638
G01 X8.0178 Y18.2641
G01 X8.0289 Y18.2653
G01 X8.0362 Y18.2665
G01 X8.0507 Y18.2700
G01 X8.0578 Y18.2722
G01 X8.0682 Y18.2763
G01 X8.1349 Y18.3074
G01 X8.1416 Y18.3107
G01 X8.1512 Y18.3162
G01 X8.1605 Y18.3225
G01 X8.1692 Y18.3294
G01 X8.1747 Y18.3344
G01 X8.1825 Y18.3423
G01 X8.2112 Y18.3756
G01 X8.2172 Y18.3838
G01 X8.2282 Y18.4006
G01 X8.3745 Y18.5594
G01 X8.5444 Y18.6917
G01 X8.7340 Y18.7944
G01 X8.9390 Y18.8650
G01 X9.1520 Y18.9005
G01 X9.3680 Y18.9005
G01 X9.5810 Y18.8650
G01 X9.7852 Y18.7948
G01 X9.9751 Y18.6921
G01 X10.1455 Y18.5594
G01 X10.2918 Y18.4006
G01 X10.4099 Y18.2198
G01 X10.4966 Y18.0220
G01 X10.5496 Y17.8127
G01 X10.5630 Y17.6514
G01 X10.5630 Y17.4486
G01 X10.5496 Y17.2873
G01 X10.4966 Y17.0780
G01 X10.4099 Y16.8802
G01 X10.2918 Y16.6994
G01 X10.1455 Y16.5406
G01 X9.9662 Y16.4010
G01 X9.9580 Y16.3941
G01 X9.9503 Y16.3867
G01 X9.9432 Y16.3787
G01 X9.9387 Y16.3731
G01 X9.8937 Y16.3106
G01 X9.8898 Y16.3046
G01 X9.8845 Y16.2952
G01 X9.8813 Y16.2888
G01 X9.8772 Y16.2788
G01 X9.8737 Y16.2686
G01 X9.8703 Y16.2547
G01 X9.8621 Y16.2064
G01 X9.8612 Y16.1992
G01 X9.8605 Y16.1884
G01 X9.8605 Y15.4522
G01 X9.8609 Y15.4415
G01 X9.8616 Y15.4344
G01 X9.8632 Y15.4238
G01 X9.8647 Y15.4169
G01 X9.8873 Y15.3394
G01 X9.8911 Y15.3290
G01 X9.8956 Y15.3189
G01 X9.9027 Y15.3061
G01 X9.9089 Y15.2969
G01 X9.9326 Y15.2673
G01 X9.9407 Y15.2585
G01 X11.1938 Y14.0055
G01 X11.2046 Y13.9961
G01 X11.2132 Y13.9898
G01 X11.2193 Y13.9860
G01 X11.2900 Y13.9472
G01 X11.3036 Y13.9410
G01 X11.3142 Y13.9373
G01 X11.3249 Y13.9344
G01 X11.3359 Y13.9323
G01 X11.3507 Y13.9308
G01 X11.3656 Y13.9307
G01 X11.4465 Y13.9367
G01 X11.4613 Y13.9392
G01 X11.4721 Y13.9421
G01 X11.4828 Y13.9458
G01 X11.4964 Y13.9519
G01 X11.5094 Y13.9594
G01 X11.5538 Y13.9879
G01 X11.5626 Y13.9940
G01 X11.5709 Y14.0007
G01 X11.5787 Y14.0080
G01 X11.6329 Y14.0622
G01 X11.6519 Y14.0840
G01 X11.6602 Y14.0949
G01 X11.6893 Y14.1193
G01 X11.7001 Y14.1293
G01 X11.7224 Y14.1470
G01 X11.7747 Y14.1909
G01 X11.8363 Y14.2196
G01 X11.9013 Y14.2521
G01 X11.9679 Y14.2659
G01 X12.0383 Y14.2825
G01 X12.0617 Y14.2848
G01 X12.0762 Y14.2875
G01 X12.0903 Y14.2916
G01 X12.1023 Y14.2963
G01 X12.1442 Y14.3075
G01 X12.1547 Y14.3112
G01 X12.1648 Y14.3157
G01 X12.1746 Y14.3210
G01 X12.1840 Y14.3269
G01 X12.2181 Y14.3529
G01 X12.2998 Y14.4305
G01 X12.4525 Y14.5287
G01 X12.6211 Y14.5962
G01 X12.6369 Y14.6003
G01 X12.6437 Y14.6026
G01 X12.6536 Y14.6067
G01 X12.7285 Y14.6454
G01 X12.7378 Y14.6512
G01 X12.7437 Y14.6555
G01 X12.7494 Y14.6600
G01 X12.7576 Y14.6673
G01 X12.7676 Y14.6780
G01 X12.7946 Y14.7115
G01 X12.8010 Y14.7211
G01 X12.8205 Y14.7526
G01 X12.8731 Y14.8023
G01 X14.6193 Y16.5486
G01 X14.6289 Y16.5591
G01 X14.6375 Y16.5706
G01 X14.6432 Y16.5796
G01 X14.6817 Y16.6506
G01 X14.6861 Y16.6605
G01 X14.6909 Y16.6743
G01 X14.6935 Y16.6849
G01 X14.6954 Y16.6956
G01 X14.6965 Y16.7065
G01 X14.6988 Y16.7436
G01 X14.6990 Y16.7587
G01 X14.6851 Y16.9200
G01 X14.7026 Y17.1205
G01 X14.7548 Y17.3150
G01 X14.8398 Y17.4974
G01 X14.9553 Y17.6624
G01 X15.0976 Y17.8047
G01 X15.2626 Y17.9202
G01 X15.4470 Y18.0062
G01 X15.4538 Y18.0087
G01 X15.4636 Y18.0130
G01 X15.4730 Y18.0180
G01 X15.5001 Y18.0337
G01 X15.5642 Y18.0109
G01 X15.6547 Y17.9883
G01 X15.7469 Y17.9746
G01 X15.8400 Y17.9700
G01 X15.9331 Y17.9746
G01 X16.0253 Y17.9883
G01 X16.1158 Y18.0109
G01 X16.1799 Y18.0337
G01 X16.2070 Y18.0180
G01 X16.2164 Y18.0130
G01 X16.2262 Y18.0087
G01 X16.2330 Y18.0062
G01 X16.4174 Y17.9202
G01 X16.5824 Y17.8047
G01 X16.7247 Y17.6624
G01 X16.7465 Y17.6316
G01 X16.7533 Y17.6234
G01 X16.7607 Y17.6156
G01 X16.7714 Y17.6062
G01 X16.8260 Y17.5626
G01 X16.8377 Y17.5541
G01 X16.8501 Y17.5469
G01 X16.8598 Y17.5422
G01 X16.8699 Y17.5383
G01 X16.8802 Y17.5350
G01 X16.8907 Y17.5326
G01 X16.9413 Y17.5227
G01 X16.9521 Y17.5212
G01 X16.9630 Y17.5205
G01 X41.2663 Y17.5205
G01 X41.2736 Y17.5207
G01 X41.2952 Y17.5222
G01 X41.3124 Y17.5243
G01 X41.3503 Y17.5211
G01 X41.3649 Y17.5205
G01 X41.3932 Y17.5173
G01 X41.4612 Y17.5113
G01 X41.5251 Y17.4880
G01 X41.5940 Y17.4651
G01 X41.6509 Y17.4277
G01 X41.7126 Y17.3895
G01 X41.7623 Y17.3369
G01 X45.0864 Y14.0128
G01 X45.0942 Y14.0055
G01 X45.0998 Y14.0010
G01 X45.1084 Y13.9947
G01 X45.1175 Y13.9890
G01 X45.1819 Y13.9538
G01 X45.1920 Y13.9487
G01 X45.2059 Y13.9432
G01 X45.2167 Y13.9401
G01 X45.2314 Y13.9371
G01 X45.2464 Y13.9356
G01 X45.3004 Y13.9343
G01 X45.3111 Y13.9346
G01 X45.3182 Y13.9353
G01 X45.5002 Y13.9655
G01 X45.7198 Y13.9655
G01 X45.9365 Y13.9293
G01 X46.1443 Y13.8580
G01 X46.3375 Y13.7535
G01 X46.5108 Y13.6185
G01 X46.6596 Y13.4569
G01 X46.7797 Y13.2730
G01 X46.8680 Y13.0719
G01 X46.9219 Y12.8589
G01 X46.9400 Y12.6400
G01 X46.9219 Y12.4211
G01 X46.8680 Y12.2081
G01 X46.7797 Y12.0070
G01 X46.6596 Y11.8231
G01 X46.5108 Y11.6615
G01 X46.3322 Y11.5225
G01 X46.3231 Y11.5157
G01 X46.3123 Y11.5063
G01 X46.3026 Y11.4959
G01 X46.2525 Y11.4369
G01 X46.2440 Y11.4247
G01 X46.2368 Y11.4117
G01 X46.2309 Y11.3981
G01 X46.2284 Y11.3910
G01 X46.2254 Y11.3803
G01 X46.2131 Y11.3226
G01 X46.2112 Y11.3087
G01 X46.2105 Y11.2947
G01 X46.2105 Y6.3237
G01 X46.2107 Y6.3164
G01 X46.2122 Y6.2948
G01 X46.2143 Y6.2776
G01 X46.2111 Y6.2397
G01 X46.2105 Y6.2251
G01 X46.2073 Y6.1968
G01 X46.2013 Y6.1291
G01 X46.1766 Y6.0607
G01 X46.1551 Y5.9959
G01 X46.1177 Y5.9391
G01 X46.0795 Y5.8774
G01 X46.0269 Y5.8277
G01 X45.5058 Y5.3063
G01 X45.4989 Y5.2982
G01 X45.4946 Y5.2925
G01 X45.4906 Y5.2865
G01 X45.4852 Y5.2773
G01 X45.4500 Y5.2128
G01 X45.4439 Y5.1994
G01 X45.4391 Y5.1854
G01 X45.4365 Y5.1747
G01 X45.4346 Y5.1638
G01 X45.4310 Y5.1298
G01 X45.4305 Y5.1178
G01 X45.4305 Y3.4902
G01 X45.4270 Y3.4573
G01 X45.3908 Y3.3603
G01 X45.3304 Y3.2796
G01 X45.2497 Y3.2192
G01 X45.1527 Y3.1830
G01 X45.1198 Y3.1795
G01 X42.8402 Y3.1795
G01 X42.8073 Y3.1830
G01 X42.7103 Y3.2192
G01 X42.6296 Y3.2796
G01 X42.5692 Y3.3603
G01 X42.5330 Y3.4573
G01 X42.5295 Y3.4902
G01 X42.5295 Y5.7698
G01 X42.5330 Y5.8027
G01 X42.5692 Y5.8997
G01 X42.6296 Y5.9804
G01 X42.7103 Y6.0408
G01 X42.8073 Y6.0770
G01 X42.8402 Y6.0805
G01 X44.4678 Y6.0805
G01 X44.4749 Y6.0807
G01 X44.4856 Y6.0816
G01 X44.4962 Y6.0832
G01 X44.5066 Y6.0856
G01 X44.5806 Y6.1073
G01 X44.5910 Y6.1111
G01 X44.5977 Y6.1140
G01 X44.6108 Y6.1208
G01 X44.6231 Y6.1289
G01 X44.6496 Y6.1500
G01 X44.6586 Y6.1580
G01 X44.9292 Y6.4285
G01 X44.9365 Y6.4363
G01 X44.9454 Y6.4475
G01 X44.9531 Y6.4595
G01 X44.9883 Y6.5240
G01 X44.9917 Y6.5305
G01 X44.9961 Y6.5406
G01 X44.9998 Y6.5510
G01 X45.0018 Y6.5581
G01 X45.0042 Y6.5689
G01 X45.0058 Y6.5798
G01 X45.0090 Y6.6102
G01 X45.0095 Y6.6222
G01 X45.0095 Y11.2947
G01 X45.0091 Y11.3054
G01 X45.0080 Y11.3160
G01 X45.0061 Y11.3266
G01 X45.0034 Y11.3369
G01 X44.9837 Y11.4040
G01 X44.9802 Y11.4146
G01 X44.9759 Y11.4249
G01 X44.9690 Y11.4380
G01 X44.9608 Y11.4504
G01 X44.9514 Y11.4620
G01 X44.9098 Y11.5042
G01 X44.8995 Y11.5136
G01 X44.7092 Y11.6615
G01 X44.5604 Y11.8231
G01 X44.4403 Y12.0070
G01 X44.3520 Y12.2081
G01 X44.2981 Y12.4211
G01 X44.2800 Y12.6400
G01 X44.2981 Y12.8589
G01 X44.3100 Y12.9060
G01 X44.3120 Y12.9165
G01 X44.3132 Y12.9271
G01 X44.3136 Y12.9342
G01 X44.3136 Y12.9450
G01 X44.3110 Y13.0148
G01 X44.3102 Y13.0258
G01 X44.3085 Y13.0368
G01 X44.3051 Y13.0511
G01 X44.3016 Y13.0616
G01 X44.2958 Y13.0752
G01 X44.2886 Y13.0881
G01 X44.2587 Y13.1364
G01 X44.2500 Y13.1490
G01 X44.2426 Y13.1579
G01 X44.2373 Y13.1635
G01 X41.1615 Y16.2392
G01 X41.1537 Y16.2465
G01 X41.1482 Y16.2511
G01 X41.1425 Y16.2554
G01 X41.1335 Y16.2613
G01 X41.0628 Y16.3000
G01 X41.0561 Y16.3032
G01 X41.0459 Y16.3074
G01 X41.0354 Y16.3109
G01 X41.0247 Y16.3135
G01 X41.0138 Y16.3154
G01 X40.9838 Y16.3186
G01 X40.9678 Y16.3195
G01 X16.9667 Y16.3195
G01 X16.9560 Y16.3191
G01 X16.9489 Y16.3184
G01 X16.9418 Y16.3174
G01 X16.9313 Y16.3153
G01 X16.8505 Y16.2915
G01 X16.8438 Y16.2890
G01 X16.8339 Y16.2846
G01 X16.8213 Y16.2777
G01 X16.8152 Y16.2738
G01 X16.8065 Y16.2674
G01 X16.7957 Y16.2580
G01 X16.7611 Y16.2248
G01 X16.7535 Y16.2169
G01 X16.7443 Y16.2056
G01 X16.7247 Y16.1776
G01 X16.5824 Y16.0353
G01 X16.4174 Y15.9198
G01 X16.2350 Y15.8348
G01 X16.0406 Y15.7827
G01 X15.8400 Y15.7651
G01 X15.6862 Y15.7786
G01 X15.6755 Y15.7791
G01 X15.6612 Y15.7787
G01 X15.6506 Y15.7774
G01 X15.6436 Y15.7762
G01 X15.5751 Y15.7624
G01 X15.5645 Y15.7599
G01 X15.5541 Y15.7566
G01 X15.5406 Y15.7510
G01 X15.5310 Y15.7460
G01 X15.5217 Y15.7403
G01 X15.4827 Y15.7118
G01 X15.4769 Y15.7070
G01 X15.4686 Y15.6993
G01 X14.4324 Y14.6632
G01 X14.4251 Y14.6554
G01 X14.4184 Y14.6470
G01 X14.4143 Y14.6412
G01 X14.4086 Y14.6321
G01 X14.3716 Y14.5644
G01 X14.3669 Y14.5543
G01 X14.3641 Y14.5474
G01 X14.3607 Y14.5367
G01 X14.3589 Y14.5295
G01 X14.3574 Y14.5222
G01 X14.3558 Y14.5111
G01 X14.3551 Y14.5000
G01 X14.3551 Y14.4926
G01 X14.3604 Y14.4154
G01 X14.3611 Y14.4081
G01 X14.3628 Y14.3973
G01 X14.3653 Y14.3866
G01 X14.3674 Y14.3796
G01 X14.3699 Y14.3726
G01 X14.3741 Y14.3625
G01 X14.3810 Y14.3496
G01 X14.4035 Y14.3117
G01 X14.4097 Y14.3021
G01 X14.4166 Y14.2929
G01 X14.4678 Y14.2338
G01 X14.5585 Y14.0767
G01 X14.6179 Y13.9051
G01 X14.6437 Y13.7254
G01 X14.6351 Y13.5441
G01 X14.5923 Y13.3677
G01 X14.5169 Y13.2026
G01 X14.4116 Y13.0547
G01 X14.2802 Y12.9295
G01 X14.1275 Y12.8313
G01 X13.9590 Y12.7639
G01 X13.7808 Y12.7295
G01 X12.8447 Y12.7295
G01 X12.7093 Y12.7424
G01 X12.5351 Y12.7936
G01 X12.3981 Y12.8642
G01 X12.3883 Y12.8685
G01 X12.3748 Y12.8732
G01 X12.3610 Y12.8765
G01 X12.2923 Y12.8897
G01 X12.2813 Y12.8915
G01 X12.2739 Y12.8921
G01 X12.2590 Y12.8924
G01 X12.2442 Y12.8911
G01 X12.2295 Y12.8884
G01 X12.2152 Y12.8843
G01 X12.1433 Y12.8557
G01 X12.1299 Y12.8496
G01 X12.1171 Y12.8421
G01 X12.1081 Y12.8357
G01 X12.0995 Y12.8287
G01 X12.0852 Y12.8159
G01 X11.8263 Y12.5571
G01 X11.8179 Y12.5481
G01 X11.7864 Y12.5128
G01 X11.7652 Y12.4951
G01 X11.7555 Y12.4863
G01 X11.1308 Y11.8615
G01 X11.1212 Y11.8510
G01 X11.1126 Y11.8395
G01 X11.1052 Y11.8273
G01 X11.0717 Y11.7660
G01 X11.0668 Y11.7561
G01 X11.0626 Y11.7459
G01 X11.0582 Y11.7319
G01 X11.0552 Y11.7175
G01 X11.0514 Y11.6838
G01 X11.0506 Y11.6718
G01 X11.0505 Y6.2537
G01 X11.0507 Y6.2464
G01 X11.0522 Y6.2248
G01 X11.0543 Y6.2076
G01 X11.0511 Y6.1697
G01 X11.0505 Y6.1551
G01 X11.0473 Y6.1268
G01 X11.0413 Y6.0591
G01 X11.0166 Y5.9908
G01 X10.9951 Y5.9259
G01 X10.9577 Y5.8691
G01 X10.9195 Y5.8074
G01 X10.8669 Y5.7577
G01 X5.6701 Y0.5609
G01 X5.6628 Y0.5530
G01 X5.6540 Y0.5418
G01 X5.6463 Y0.5298
G01 X5.6076 Y0.4587
G01 X5.6018 Y0.4450
G01 X5.5983 Y0.4343
G01 X5.5957 Y0.4234
G01 X5.5939 Y0.4123
G01 X5.5929 Y0.4011
G01 X5.5927 Y0.3937
G01 X5.5941 Y0.3315
G01 X5.5948 Y0.3208
G01 X5.5962 Y0.3102
G01 X5.5983 Y0.2997
G01 X5.6118 Y0.2493
G01 X5.6301 Y0.0400
G01 X5.6118 Y-0.1693
G01 X5.5574 Y-0.3722
G01 X5.4686 Y-0.5625
G01 X5.3481 Y-0.7346
G01 X5.1996 Y-0.8831
G01 X5.0505 Y-0.9876
G01 X5.0421 Y-0.9943
G01 X5.0317 Y-1.0041
G01 X5.0222 Y-1.0148
G01 X4.9786 Y-1.0693
G01 X4.9720 Y-1.0783
G01 X4.9660 Y-1.0878
G01 X4.9592 Y-1.1010
G01 X4.9549 Y-1.1114
G01 X4.9526 Y-1.1184
G01 X4.9488 Y-1.1328
G01 X4.9466 Y-1.1476
G01 X4.9394 Y-1.2171
G01 X4.9386 Y-1.2282
G01 X4.9387 Y-1.2394
G01 X4.9393 Y-1.2468
G01 X4.9407 Y-1.2579
G01 X4.9422 Y-1.2652
G01 X4.9462 Y-1.2795
G01 X4.9501 Y-1.2900
G01 X4.9531 Y-1.2968
G01 X4.9879 Y-1.3658
G01 X4.9934 Y-1.3752
G01 X5.0018 Y-1.3871
G01 X5.0113 Y-1.3982
G01 X5.0192 Y-1.4058
G01 X5.0412 Y-1.4249
G01 X5.0502 Y-1.4322
G01 X5.1996 Y-1.5369
G01 X5.3481 Y-1.6854
G01 X5.3903 Y-1.7456
G01 X5.3970 Y-1.7540
G01 X5.4042 Y-1.7618
G01 X5.4147 Y-1.7715
G01 X5.4720 Y-1.8174
G01 X5.4807 Y-1.8239
G01 X5.4867 Y-1.8278
G01 X5.4961 Y-1.8331
G01 X5.5059 Y-1.8378
G01 X5.5159 Y-1.8417
G01 X5.5262 Y-1.8450
G01 X5.5367 Y-1.8474
G01 X5.5837 Y-1.8567
G01 X5.5945 Y-1.8584
G01 X5.6018 Y-1.8591
G01 X5.6127 Y-1.8595
G01 X5.8463 Y-1.8595
G01 X5.8536 Y-1.8593
G01 X5.8752 Y-1.8578
G01 X5.8924 Y-1.8557
G01 X5.9303 Y-1.8589
G01 X5.9449 Y-1.8595
G01 X5.9732 Y-1.8627
G01 X6.0409 Y-1.8687
G01 X6.1092 Y-1.8934
G01 X6.1740 Y-1.9149
G01 X6.2309 Y-1.9523
G01 X6.2926 Y-1.9905
G01 X6.3423 Y-2.0431
G01 X9.0586 Y-4.7594
G01 X9.0664 Y-4.7666
G01 X9.0748 Y-4.7734
G01 X9.0836 Y-4.7795
G01 X9.0897 Y-4.7832
G01 X9.1606 Y-4.8218
G01 X9.1705 Y-4.8261
G01 X9.1808 Y-4.8298
G01 X9.1913 Y-4.8327
G01 X9.2020 Y-4.8348
G01 X9.2128 Y-4.8362
G01 X9.2536 Y-4.8388
G01 X9.2687 Y-4.8390
G01 X9.4300 Y-4.8251
G01 X9.6305 Y-4.8427
G01 X9.8250 Y-4.8948
G01 X10.0074 Y-4.9798
G01 X10.1724 Y-5.0953
G01 X10.3147 Y-5.2376
G01 X10.3322 Y-5.2627
G01 X10.3387 Y-5.2712
G01 X10.3482 Y-5.2818
G01 X10.3560 Y-5.2892
G01 X10.4160 Y-5.3374
G01 X10.4277 Y-5.3459
G01 X10.4401 Y-5.3531
G01 X10.4531 Y-5.3592
G01 X10.4633 Y-5.3629
G01 X10.4772 Y-5.3667
G01 X10.5313 Y-5.3773
G01 X10.5457 Y-5.3791
G01 X10.5567 Y-5.3795
G01 X12.1913 Y-5.3795
G01 X12.1984 Y-5.3791
G01 X12.2091 Y-5.3780
G01 X12.2196 Y-5.3761
G01 X12.2265 Y-5.3744
G01 X12.2970 Y-5.3537
G01 X12.3111 Y-5.3488
G01 X12.3246 Y-5.3426
G01 X12.3343 Y-5.3370
G01 X12.3405 Y-5.3329
G01 X12.3494 Y-5.3262
G01 X12.3551 Y-5.3213
G01 X12.3656 Y-5.3108
G01 X12.4139 Y-5.2552
G01 X12.4231 Y-5.2435
G01 X12.4292 Y-5.2342
G01 X12.4345 Y-5.2244
G01 X12.4406 Y-5.2107
G01 X12.4442 Y-5.2002
G01 X12.4470 Y-5.1894
G01 X12.4490 Y-5.1784
G01 X12.4589 Y-5.1092
G01 X12.4603 Y-5.0944
G01 X12.4602 Y-5.0795
G01 X12.4586 Y-5.0647
G01 X12.4556 Y-5.0501
G01 X12.4512 Y-5.0359
G01 X12.4469 Y-5.0255
G01 X12.4148 Y-4.9556
G01 X12.4113 Y-4.9493
G01 X12.4056 Y-4.9402
G01 X12.4015 Y-4.9344
G01 X12.3948 Y-4.9261
G01 X12.3849 Y-4.9157
G01 X12.3679 Y-4.8995
G01 X12.3599 Y-4.8924
G01 X12.2311 Y-4.7910
G01 X12.1122 Y-4.6538
G01 X12.0215 Y-4.4967
G01 X11.9621 Y-4.3251
G01 X11.9363 Y-4.1454
G01 X11.9449 Y-3.9641
G01 X11.9877 Y-3.7877
G01 X12.0631 Y-3.6226
G01 X12.1684 Y-3.4747
G01 X12.2998 Y-3.3495
G01 X12.4525 Y-3.2513
G01 X12.6210 Y-3.1839
G01 X12.7992 Y-3.1495
G01 X13.7353 Y-3.1495
G01 X13.8707 Y-3.1624
G01 X14.0449 Y-3.2136
G01 X14.2062 Y-3.2968
G01 X14.3489 Y-3.4090
G01 X14.4678 Y-3.5461
G01 X14.5585 Y-3.7033
G01 X14.6179 Y-3.8749
G01 X14.6437 Y-4.0546
G01 X14.6351 Y-4.2359
G01 X14.5923 Y-4.4123
G01 X14.5169 Y-4.5774
G01 X14.4116 Y-4.7253
G01 X14.2802 Y-4.8505
G01 X14.1275 Y-4.9487
G01 X13.9590 Y-5.0161
G01 X13.7808 Y-5.0505
G01 X13.2138 Y-5.0505
G01 X13.2031 Y-5.0509
G01 X13.1890 Y-5.0526
G01 X13.1785 Y-5.0547
G01 X13.1716 Y-5.0566
G01 X13.1010 Y-5.0774
G01 X13.0905 Y-5.0812
G01 X13.0803 Y-5.0857
G01 X13.0673 Y-5.0930
G01 X13.0580 Y-5.0993
G01 X13.0493 Y-5.1062
G01 X13.0385 Y-5.1164
G01 X12.9853 Y-5.1776
G01 X12.9764 Y-5.1896
G01 X12.9687 Y-5.2023
G01 X12.9638 Y-5.2124
G01 X12.9597 Y-5.2228
G01 X12.9564 Y-5.2334
G01 X12.9538 Y-5.2443
G01 X12.9421 Y-5.3245
G01 X12.9412 Y-5.3356
G01 X12.9413 Y-5.3505
G01 X12.9424 Y-5.3616
G01 X12.9450 Y-5.3763
G01 X12.9480 Y-5.3871
G01 X12.9531 Y-5.4011
G01 X12.9870 Y-5.4749
G01 X12.9948 Y-5.4881
G01 X12.9992 Y-5.4944
G01 X13.0063 Y-5.5034
G01 X13.0623 Y-5.5631
G01 X13.1085 Y-5.6092
G01 X13.1190 Y-5.6189
G01 X13.1305 Y-5.6274
G01 X13.1396 Y-5.6331
G01 X13.2105 Y-5.6717
G01 X13.2172 Y-5.6747
G01 X13.2276 Y-5.6787
G01 X13.2381 Y-5.6818
G01 X13.2453 Y-5.6835
G01 X13.2598 Y-5.6858
G01 X13.2942 Y-5.6893
G01 X13.7353 Y-5.6895
G01 X13.8707 Y-5.7024
G01 X14.0449 Y-5.7536
G01 X14.2062 Y-5.8368
G01 X14.3489 Y-5.9490
G01 X14.4678 Y-6.0861
G01 X14.5585 Y-6.2434
G01 X14.6179 Y-6.4149
G01 X14.6437 Y-6.5946
G01 X14.6351 Y-6.7759
G01 X14.5923 Y-6.9523
G01 X14.5169 Y-7.1174
G01 X14.4116 Y-7.2653
G01 X14.2802 Y-7.3905
G01 X14.1275 Y-7.4887
G01 X13.9590 Y-7.5561
G01 X13.7808 Y-7.5905
G01 X12.8447 Y-7.5905
G01 X12.7093 Y-7.5776
G01 X12.5351 Y-7.5264
G01 X12.3738 Y-7.4432
G01 X12.2311 Y-7.3310
G01 X12.1122 Y-7.1938
G01 X12.0215 Y-7.0367
G01 X11.9621 Y-6.8651
G01 X11.9544 Y-6.8120
G01 X11.9514 Y-6.7980
G01 X11.9482 Y-6.7878
G01 X11.9429 Y-6.7745
G01 X11.9123 Y-6.7076
G01 X11.9071 Y-6.6978
G01 X11.8989 Y-6.6853
G01 X11.8920 Y-6.6765
G01 X11.8845 Y-6.6682
G01 X11.8764 Y-6.6605
G01 X11.8677 Y-6.6535
G01 X11.8586 Y-6.6471
G01 X11.7998 Y-6.6093
G01 X11.7867 Y-6.6018
G01 X11.7764 Y-6.5971
G01 X11.7693 Y-6.5943
G01 X11.7622 Y-6.5920
G01 X11.7512 Y-6.5891
G01 X11.7400 Y-6.5870
G01 X11.7051 Y-6.5820
G01 X11.6909 Y-6.5807
G01 X10.5567 Y-6.5805
G01 X10.5460 Y-6.5809
G01 X10.5353 Y-6.5820
G01 X10.5283 Y-6.5832
G01 X10.5178 Y-6.5856
G01 X10.4474 Y-6.6063
G01 X10.4371 Y-6.6097
G01 X10.4271 Y-6.6138
G01 X10.4175 Y-6.6187
G01 X10.4052 Y-6.6262
G01 X10.3965 Y-6.6326
G01 X10.3857 Y-6.6420
G01 X10.3511 Y-6.6752
G01 X10.3435 Y-6.6831
G01 X10.3343 Y-6.6944
G01 X10.3147 Y-6.7224
G01 X10.1724 Y-6.8647
G01 X10.0074 Y-6.9802
G01 X9.8250 Y-7.0652
G01 X9.6306 Y-7.1173
G01 X9.4300 Y-7.1349
G01 X9.2295 Y-7.1174
G01 X9.0350 Y-7.0652
G01 X8.8526 Y-6.9802
G01 X8.6876 Y-6.8647
G01 X8.5453 Y-6.7224
G01 X8.4298 Y-6.5574
G01 X8.3448 Y-6.3750
G01 X8.2927 Y-6.1806
G01 X8.2751 Y-5.9800
G01 X8.2888 Y-5.8227
G01 X8.2891 Y-5.8119
G01 X8.2889 Y-5.8048
G01 X8.2879 Y-5.7941
G01 X8.2868 Y-5.7871
G01 X8.2717 Y-5.7115
G01 X8.2689 Y-5.7010
G01 X8.2640 Y-5.6873
G01 X8.2578 Y-5.6741
G01 X8.2503 Y-5.6617
G01 X8.2195 Y-5.6198
G01 X8.2093 Y-5.6086
G01 X5.7797 Y-3.1789
G01 X5.7719 Y-3.1716
G01 X5.7635 Y-3.1649
G01 X5.7547 Y-3.1588
G01 X5.7455 Y-3.1534
G01 X5.6776 Y-3.1165
G01 X5.6673 Y-3.1120
G01 X5.6604 Y-3.1094
G01 X5.6460 Y-3.1054
G01 X5.6350 Y-3.1033
G01 X5.6277 Y-3.1023
G01 X5.6165 Y-3.1016
G01 X5.6053 Y-3.1017
G01 X5.5282 Y-3.1072
G01 X5.5135 Y-3.1094
G01 X5.4990 Y-3.1130
G01 X5.4885 Y-3.1166
G01 X5.4816 Y-3.1195
G01 X5.4716 Y-3.1244
G01 X5.4619 Y-3.1301
G01 X5.4527 Y-3.1364
G01 X5.3909 Y-3.1830
G01 X5.3798 Y-3.1932
G01 X5.3722 Y-3.2015
G01 X5.3652 Y-3.2104
G01 X5.3481 Y-3.2346
G01 X5.2099 Y-3.3729
G01 X5.2026 Y-3.3807
G01 X5.1937 Y-3.3920
G01 X5.1897 Y-3.3979
G01 X5.1843 Y-3.4071
G01 X5.1508 Y-3.4684
G01 X5.1443 Y-3.4818
G01 X5.1392 Y-3.4958
G01 X5.1355 Y-3.5102
G01 X5.1332 Y-3.5249
G01 X5.1324 Y-3.5398
G01 X5.1328 Y-3.5510
G01 X5.1385 Y-3.6281
G01 X5.1403 Y-3.6391
G01 X5.1419 Y-3.6464
G01 X5.1462 Y-3.6607
G01 X5.1504 Y-3.6710
G01 X5.1536 Y-3.6777
G01 X5.1571 Y-3.6843
G01 X5.1630 Y-3.6938
G01 X5.2115 Y-3.7588
G01 X5.2190 Y-3.7675
G01 X5.2299 Y-3.7782
G01 X5.2387 Y-3.7855
G01 X5.2541 Y-3.7962
G01 X5.3997 Y-3.8861
G01 X5.4989 Y-3.9853
G01 X5.5725 Y-4.1047
G01 X5.6170 Y-4.2389
G01 X5.6250 Y-4.3177
G01 X5.6250 Y-4.5600
G01 X5.4250 Y-4.5600
G01 X5.4250 Y-4.3600
G01 X5.4236 Y-4.3281
G01 X5.4227 Y-4.3171
G01 X5.4173 Y-4.2820
G01 X5.4078 Y-4.2439
G01 X5.3946 Y-4.2069
G01 X5.3811 Y-4.1780
G01 X5.3741 Y-4.1650
G01 X5.3576 Y-4.1378
G01 X5.3342 Y-4.1062
G01 X5.3078 Y-4.0772
G01 X5.2788 Y-4.0508
G01 X5.2472 Y-4.0274
G01 X5.2136 Y-4.0072
G01 X5.1781 Y-3.9904
G01 X5.1411 Y-3.9772
G01 X5.1030 Y-3.9677
G01 X5.0715 Y-3.9628
G01 X5.0569 Y-3.9614
G01 X5.0250 Y-3.9600
G01 X3.5750 Y-3.9600
G01 X3.5358 Y-3.9619
G01 X3.5042 Y-3.9664
G01 X3.4898 Y-3.9693
G01 X3.4589 Y-3.9772
G01 X3.4288 Y-3.9878
G01 X3.4152 Y-3.9934
G01 X3.3864 Y-4.0072
G01 X3.3590 Y-4.0235
G01 X3.3468 Y-4.0317
G01 X3.3212 Y-4.0508
G01 X3.2975 Y-4.0721
G01 X3.2871 Y-4.0825
G01 X3.2658 Y-4.1062
G01 X3.2424 Y-4.1378
G01 X3.2222 Y-4.1714
G01 X3.2054 Y-4.2069
G01 X3.1922 Y-4.2439
G01 X3.1843 Y-4.2748
G01 X3.1814 Y-4.2892
G01 X3.1769 Y-4.3208
G01 X3.1750 Y-4.3563
G01 X3.1750 Y-4.5600
G01 X2.9750 Y-4.5600
G01 X2.9750 Y-4.3177
G01 X2.9830 Y-4.2389
G01 X3.0275 Y-4.1047
G01 X3.1011 Y-3.9853
G01 X3.2003 Y-3.8861
G01 X3.3402 Y-3.7999
G01 X3.3520 Y-3.7918
G01 X3.3630 Y-3.7826
G01 X3.3706 Y-3.7751
G01 X3.4246 Y-3.7149
G01 X3.4334 Y-3.7029
G01 X3.4410 Y-3.6901
G01 X3.4472 Y-3.6765
G01 X3.4521 Y-3.6625
G01 X3.4556 Y-3.6480
G01 X3.4675 Y-3.5754
G01 X3.4689 Y-3.5643
G01 X3.4693 Y-3.5568
G01 X3.4691 Y-3.5420
G01 X3.4675 Y-3.5271
G01 X3.4653 Y-3.5162
G01 X3.4611 Y-3.5019
G01 X3.4570 Y-3.4915
G01 X3.4276 Y-3.4239
G01 X3.4224 Y-3.4138
G01 X3.4185 Y-3.4072
G01 X3.4143 Y-3.4009
G01 X3.4073 Y-3.3918
G01 X3.3925 Y-3.3753
G01 X3.2518 Y-3.2346
G01 X3.1314 Y-3.0625
G01 X3.0432 Y-2.8734
G01 X2.9882 Y-2.6692
G01 X2.9699 Y-2.4600
G01 X2.9882 Y-2.2507
G01 X3.0426 Y-2.0478
G01 X3.8968 Y-1.2524
G01 X3.8996 Y-1.2247
G01 X3.9009 Y-1.2069
G01 X3.9014 Y-1.1875
G01 X3.9009 Y-1.1686
G01 X3.9266 Y-1.1748
G01 X3.9490 Y-1.1790
G01 X4.0410 Y-1.1926
G01 X4.0549 Y-1.1942
G01 X4.0696 Y-1.1953
G01 X4.1684 Y-1.1999
G01 X4.4250 Y-1.2000
G01 X4.4434 Y-1.1996
G01 X4.5275 Y-1.1954
G01 X4.5531 Y-1.1933
G01 X4.6560 Y-1.1782
G01 X4.6777 Y-1.1739
G01 X4.7032 Y-1.1676
G01 X4.7004 Y-1.1953
G01 X4.6991 Y-1.2131
G01 X4.6986 Y-1.2325
G01 X4.6990 Y-1.2514
G01 X4.6734 Y-1.2452
G01 X4.6510 Y-1.2410
G01 X4.5590 Y-1.2274
G01 X4.5451 Y-1.2258
G01 X4.5304 Y-1.2247
G01 X4.4316 Y-1.2201
G01 X4.1750 Y-1.2200
G01 X4.1566 Y-1.2204
G01 X4.0725 Y-1.2246
G01 X4.0469 Y-1.2267
G01 X3.9440 Y-1.2418
G01 X3.9223 Y-1.2461
G01 X3.8968 Y-1.2524
G01 X4.0843 Y-1.4643
G01 X4.0697 Y-1.4657
G01 X3.9799 Y-1.4792
G01 X3.8847 Y-1.5031
G01 X3.7923 Y-1.5361
G01 X3.7102 Y-1.5748
G01 X3.6972 Y-1.5817
G01 X3.6256 Y-1.6246
G01 X3.6134 Y-1.6328
G01 X3.5406 Y-1.6870
G01 X3.4732 Y-1.7478
G01 X3.4628 Y-1.7582
G01 X3.4020 Y-1.8256
G01 X3.3435 Y-1.9044
G01 X3.2967 Y-1.9822
G01 X3.2898 Y-1.9952
G01 X3.2511 Y-2.0773
G01 X3.2181 Y-2.1697
G01 X3.1942 Y-2.2649
G01 X3.1807 Y-2.3547
G01 X3.1793 Y-2.3693
G01 X3.1752 Y-2.4526
G01 X3.1752 Y-2.4674
G01 X3.1798 Y-2.5580
G01 X3.1930 Y-2.6478
G01 X3.1958 Y-2.6623
G01 X3.2161 Y-2.7432
G01 X3.2204 Y-2.7573
G01 X3.2511 Y-2.8427
G01 X3.2931 Y-2.9314
G01 X3.3435 Y-3.0156
G01 X3.3975 Y-3.0886
G01 X3.4068 Y-3.1000
G01 X3.4628 Y-3.1618
G01 X3.4732 Y-3.1722
G01 X3.5406 Y-3.2330
G01 X3.6194 Y-3.2915
G01 X3.6972 Y-3.3383
G01 X3.7102 Y-3.3452
G01 X3.7923 Y-3.3839
G01 X3.8812 Y-3.4158
G01 X3.8918 Y-3.4189
G01 X3.9799 Y-3.4408
G01 X4.0697 Y-3.4543
G01 X4.0843 Y-3.4557
G01 X4.1713 Y-3.4600
G01 X4.4250 Y-3.4600
G01 X4.5230 Y-3.4552
G01 X4.6128 Y-3.4420
G01 X4.6273 Y-3.4392
G01 X4.7153 Y-3.4169
G01 X4.8008 Y-3.3865
G01 X4.8144 Y-3.3809
G01 X4.8964 Y-3.3419
G01 X4.9744 Y-3.2954
G01 X4.9866 Y-3.2872
G01 X5.0594 Y-3.2330
G01 X5.1268 Y-3.1722
G01 X5.1372 Y-3.1618
G01 X5.1980 Y-3.0944
G01 X5.2522 Y-3.0216
G01 X5.2604 Y-3.0094
G01 X5.3069 Y-2.9314
G01 X5.3408 Y-2.8601
G01 X5.7443 Y-2.8601
G01 X8.5385 Y-5.6544
G01 X8.5232 Y-5.6972
G01 X8.5199 Y-5.7078
G01 X8.4999 Y-5.7875
G01 X8.4976 Y-5.7983
G01 X8.4846 Y-5.8869
G01 X8.4802 Y-5.9726
G01 X8.4800 Y-5.9837
G01 X8.4846 Y-6.0731
G01 X8.4983 Y-6.1653
G01 X8.5209 Y-6.2558
G01 X8.5509 Y-6.3401
G01 X8.5553 Y-6.3503
G01 X8.5922 Y-6.4278
G01 X8.6362 Y-6.5016
G01 X8.6443 Y-6.5138
G01 X8.6911 Y-6.5769
G01 X8.7004 Y-6.5882
G01 X8.7582 Y-6.6518
G01 X8.8273 Y-6.7144
G01 X8.9022 Y-6.7699
G01 X8.9758 Y-6.8142
G01 X8.9887 Y-6.8211
G01 X9.0665 Y-6.8577
G01 X9.1542 Y-6.8891
G01 X9.2447 Y-6.9117
G01 X9.3369 Y-6.9254
G01 X9.4300 Y-6.9300
G01 X9.5231 Y-6.9254
G01 X9.6153 Y-6.9117
G01 X9.6987 Y-6.8911
G01 X9.7093 Y-6.8880
G01 X9.7935 Y-6.8577
G01 X9.8778 Y-6.8178
G01 X9.9578 Y-6.7699
G01 X10.0269 Y-6.7189
G01 X10.0355 Y-6.7120
G01 X10.1018 Y-6.6518
G01 X10.1596 Y-6.5882
G01 X10.1667 Y-6.5798
G01 X10.2157 Y-6.5138
G01 X10.2219 Y-6.5047
G01 X10.2661 Y-6.4311
G01 X10.2711 Y-6.4213
G01 X10.2906 Y-6.3801
G01 X12.1872 Y-6.3801
G01 X12.1723 Y-6.4223
G01 X12.1552 Y-6.4901
G01 X12.1532 Y-6.5009
G01 X12.1440 Y-6.5628
G01 X12.1431 Y-6.5738
G01 X12.1400 Y-6.6400
G01 X12.1431 Y-6.7062
G01 X12.1440 Y-6.7172
G01 X12.1532 Y-6.7791
G01 X12.1560 Y-6.7935
G01 X12.1723 Y-6.8577
G01 X12.1944 Y-6.9201
G01 X12.2001 Y-6.9337
G01 X12.2286 Y-6.9935
G01 X12.2625 Y-7.0505
G01 X12.2685 Y-7.0597
G01 X12.3057 Y-7.1100
G01 X12.3151 Y-7.1214
G01 X12.3597 Y-7.1703
G01 X12.4086 Y-7.2149
G01 X12.4200 Y-7.2243
G01 X12.4733 Y-7.2636
G01 X12.5365 Y-7.3014
G01 X12.6030 Y-7.3329
G01 X12.6653 Y-7.3554
G01 X12.6794 Y-7.3597
G01 X12.7437 Y-7.3756
G01 X12.8092 Y-7.3855
G01 X12.8238 Y-7.3869
G01 X12.8863 Y-7.3900
G01 X13.6937 Y-7.3900
G01 X13.7635 Y-7.3864
G01 X13.8291 Y-7.3768
G01 X13.8435 Y-7.3740
G01 X13.9077 Y-7.3577
G01 X13.9770 Y-7.3329
G01 X14.0370 Y-7.3048
G01 X14.0500 Y-7.2978
G01 X14.1005 Y-7.2675
G01 X14.1127 Y-7.2594
G01 X14.1658 Y-7.2198
G01 X14.2150 Y-7.1754
G01 X14.2254 Y-7.1650
G01 X14.2698 Y-7.1158
G01 X14.3136 Y-7.0567
G01 X14.3514 Y-6.9935
G01 X14.3799 Y-6.9337
G01 X14.3856 Y-6.9201
G01 X14.4054 Y-6.8647
G01 X14.4097 Y-6.8506
G01 X14.4256 Y-6.7863
G01 X14.4355 Y-6.7208
G01 X14.4369 Y-6.7062
G01 X14.4400 Y-6.6400
G01 X14.4369 Y-6.5738
G01 X14.4355 Y-6.5592
G01 X14.4256 Y-6.4937
G01 X14.4077 Y-6.4223
G01 X14.3829 Y-6.3530
G01 X14.3548 Y-6.2930
G01 X14.3478 Y-6.2800
G01 X14.3136 Y-6.2233
G01 X14.2698 Y-6.1642
G01 X14.2203 Y-6.1097
G01 X14.1658 Y-6.0602
G01 X14.1067 Y-6.0164
G01 X14.0435 Y-5.9786
G01 X13.9770 Y-5.9471
G01 X13.9147 Y-5.9246
G01 X13.9006 Y-5.9203
G01 X13.8435 Y-5.9060
G01 X13.8291 Y-5.9032
G01 X13.7635 Y-5.8936
G01 X13.6974 Y-5.8902
G01 X13.1059 Y-5.8900
G01 X12.9103 Y-5.6945
G01 X12.8838 Y-5.6707
G01 X12.8553 Y-5.6494
G01 X12.8461 Y-5.6434
G01 X12.8186 Y-5.6271
G01 X12.7899 Y-5.6133
G01 X12.7763 Y-5.6077
G01 X12.7462 Y-5.5971
G01 X12.7152 Y-5.5892
G01 X12.7008 Y-5.5863
G01 X12.6692 Y-5.5818
G01 X12.6300 Y-5.5799
G01 X10.2906 Y-5.5799
G01 X10.2711 Y-5.5387
G01 X10.2661 Y-5.5289
G01 X10.2238 Y-5.4584
G01 X10.2178 Y-5.4492
G01 X10.1644 Y-5.3773
G01 X10.1068 Y-5.3136
G01 X10.0991 Y-5.3057
G01 X10.0327 Y-5.2456
G01 X9.9578 Y-5.1901
G01 X9.8778 Y-5.1422
G01 X9.7935 Y-5.1023
G01 X9.7058 Y-5.0709
G01 X9.6153 Y-5.0483
G01 X9.5231 Y-5.0346
G01 X9.4337 Y-5.0300
G01 X9.4226 Y-5.0302
G01 X9.3369 Y-5.0346
G01 X9.2483 Y-5.0476
G01 X9.2375 Y-5.0499
G01 X9.1578 Y-5.0699
G01 X9.1472 Y-5.0732
G01 X9.1044 Y-5.0885
G01 X6.1929 Y-2.1771
G01 X6.1638 Y-2.1507
G01 X6.1353 Y-2.1294
G01 X6.1261 Y-2.1234
G01 X6.0986 Y-2.1071
G01 X6.0699 Y-2.0933
G01 X6.0563 Y-2.0877
G01 X6.0262 Y-2.0771
G01 X5.9952 Y-2.0692
G01 X5.9808 Y-2.0663
G01 X5.9492 Y-2.0618
G01 X5.9100 Y-2.0599
G01 X5.3408 Y-2.0599
G01 X5.3069 Y-1.9886
G01 X5.2565 Y-1.9044
G01 X5.1980 Y-1.8256
G01 X5.1347 Y-1.7555
G01 X5.1268 Y-1.7478
G01 X5.0594 Y-1.6870
G01 X4.9866 Y-1.6328
G01 X4.9744 Y-1.6246
G01 X4.9028 Y-1.5817
G01 X4.8898 Y-1.5748
G01 X4.8077 Y-1.5361
G01 X4.7153 Y-1.5031
G01 X4.6201 Y-1.4792
G01 X4.5303 Y-1.4657
G01 X4.5157 Y-1.4643
G01 X4.4250 Y-1.4600
G01 X4.1713 Y-1.4600
G01 X4.0843 Y-1.4643
G00 Z1.0000
G00 X4.8955 Y-1.4447
G01 F25.00
G01 Z-0.1000
G01 F70.00
G01 X4.8610 Y-1.4285
G01 X4.8461 Y-1.4223
G01 X4.7627 Y-1.3924
G01 X4.7452 Y-1.3868
G01 X4.6449 Y-1.3618
G01 X4.6304 Y-1.3593
G01 X4.5479 Y-1.3470
G01 X4.5362 Y-1.3455
G01 X4.5230 Y-1.3445
G01 X4.4302 Y-1.3401
G01 X4.1750 Y-1.3400
G01 X4.1618 Y-1.3403
G01 X4.0784 Y-1.3444
G01 X4.0638 Y-1.3455
G01 X3.9696 Y-1.3593
G01 X3.9486 Y-1.3632
G01 X3.8612 Y-1.3851
G01 X3.8422 Y-1.3907
G01 X3.7512 Y-1.4233
G01 X3.7356 Y-1.4300
G01 X3.6970 Y-1.4483
G01 X3.7201 Y-1.4191
G01 X3.7279 Y-1.4082
G01 X3.7351 Y-1.3969
G01 X3.7436 Y-1.3820
G01 X3.7495 Y-1.3699
G01 X3.7548 Y-1.3576
G01 X3.7604 Y-1.3422
G01 X3.7643 Y-1.3294
G01 X3.7669 Y-1.3193
G01 X3.7697 Y-1.3062
G01 X3.7718 Y-1.2929
G01 X3.7801 Y-1.2138
G01 X3.7811 Y-1.2004
G01 X3.7814 Y-1.1900
G01 X3.7812 Y-1.1766
G01 X3.7803 Y-1.1632
G01 X3.7773 Y-1.1403
G01 X3.7746 Y-1.1272
G01 X3.7721 Y-1.1171
G01 X3.7651 Y-1.0951
G01 X3.7602 Y-1.0826
G01 X3.7547 Y-1.0704
G01 X3.7208 Y-1.0033
G01 X3.7139 Y-0.9905
G01 X3.7045 Y-0.9753
G01 X3.7390 Y-0.9915
G01 X3.7539 Y-0.9977
G01 X3.8373 Y-1.0276
G01 X3.8548 Y-1.0332
G01 X3.9551 Y-1.0582
G01 X3.9696 Y-1.0607
G01 X4.0521 Y-1.0730
G01 X4.0638 Y-1.0745
G01 X4.0770 Y-1.0755
G01 X4.1698 Y-1.0799
G01 X4.4250 Y-1.0800
G01 X4.4382 Y-1.0797
G01 X4.5216 Y-1.0756
G01 X4.5362 Y-1.0745
G01 X4.6304 Y-1.0607
G01 X4.6514 Y-1.0568
G01 X4.7388 Y-1.0349
G01 X4.7578 Y-1.0293
G01 X4.8488 Y-0.9967
G01 X4.8644 Y-0.9900
G01 X4.9030 Y-0.9717
G01 X4.8799 Y-1.0009
G01 X4.8721 Y-1.0118
G01 X4.8648 Y-1.0231
G01 X4.8564 Y-1.0380
G01 X4.8505 Y-1.0501
G01 X4.8441 Y-1.0652
G01 X4.8396 Y-1.0778
G01 X4.8365 Y-1.0877
G01 X4.8331 Y-1.1007
G01 X4.8287 Y-1.1234
G01 X4.8200 Y-1.2047
G01 X4.8187 Y-1.2233
G01 X4.8189 Y-1.2464
G01 X4.8197 Y-1.2568
G01 X4.8212 Y-1.2701
G01 X4.8254 Y-1.2928
G01 X4.8287 Y-1.3058
G01 X4.8318 Y-1.3158
G01 X4.8387 Y-1.3347
G01 X4.8453 Y-1.3496
G01 X4.8846 Y-1.4270
G01 X4.8955 Y-1.4447
G01 X5.4413 Y-1.9399
G01 X5.4168 Y-1.9399
G01 X5.4103 Y-1.9275
G01 X5.4036 Y-1.9162
G01 X5.4224 Y-1.9291
G01 X5.4413 Y-1.9399
G00 Z1.0000
G00 X5.3824 Y-3.0392
G01 F25.00
G01 Z-0.1000
G01 F70.00
G01 X5.4088 Y-2.9950
G01 X5.4168 Y-2.9801
G01 X5.6946 Y-2.9801
G01 X5.7171 Y-3.0027
G01 X5.6974 Y-2.9953
G01 X5.6874 Y-2.9922
G01 X5.6744 Y-2.9888
G01 X5.6547 Y-2.9849
G01 X5.6318 Y-2.9822
G01 X5.6146 Y-2.9815
G01 X5.5983 Y-2.9819
G01 X5.5152 Y-2.9879
G01 X5.4953 Y-2.9907
G01 X5.4785 Y-2.9942
G01 X5.4627 Y-2.9986
G01 X5.4465 Y-3.0042
G01 X5.4314 Y-3.0105
G01 X5.4134 Y-3.0195
G01 X5.3986 Y-3.0281
G01 X5.3824 Y-3.0392
G00 Z1.0000
G00 X3.7053 Y-3.6076
G01 F25.00
G01 Z-0.1000
G01 F70.00
G01 X3.7997 Y-3.6416
G01 X3.8165 Y-3.6470
G01 X3.8335 Y-3.6517
G01 X3.9151 Y-3.6722
G01 X3.9345 Y-3.6765
G01 X3.9519 Y-3.6794
G01 X4.0425 Y-3.6928
G01 X4.0703 Y-3.6953
G01 X4.1669 Y-3.6999
G01 X4.4250 Y-3.7000
G01 X4.4441 Y-3.6995
G01 X4.5282 Y-3.6954
G01 X4.5451 Y-3.6942
G01 X4.5655 Y-3.6917
G01 X4.6488 Y-3.6793
G01 X4.6655 Y-3.6765
G01 X4.6856 Y-3.6720
G01 X4.7672 Y-3.6515
G01 X4.7835 Y-3.6470
G01 X4.8031 Y-3.6406
G01 X4.8824 Y-3.6122
G01 X4.8962 Y-3.6070
G01 X4.8991 Y-3.6460
G01 X4.9018 Y-3.6682
G01 X4.9065 Y-3.6938
G01 X4.9133 Y-3.7200
G01 X3.6852 Y-3.7200
G01 X3.6889 Y-3.7048
G01 X3.6920 Y-3.6895
G01 X3.7053 Y-3.6076
G01 X3.5405 Y-3.3826
G01 X3.5515 Y-3.3904
G01 X3.5627 Y-3.3976
G01 X3.6457 Y-3.4470
G01 X3.6589 Y-3.4537
G01 X3.7450 Y-3.4942
G01 X3.7588 Y-3.4995
G01 X3.8485 Y-3.5313
G01 X3.8627 Y-3.5353
G01 X3.9515 Y-3.5574
G01 X3.9696 Y-3.5607
G01 X4.0638 Y-3.5745
G01 X4.0784 Y-3.5756
G01 X4.1618 Y-3.5797
G01 X4.1750 Y-3.5800
G01 X4.4250 Y-3.5800
G01 X4.4382 Y-3.5797
G01 X4.5333 Y-3.5747
G01 X4.5479 Y-3.5730
G01 X4.6304 Y-3.5607
G01 X4.6421 Y-3.5588
G01 X4.6550 Y-3.5559
G01 X4.7373 Y-3.5353
G01 X4.7515 Y-3.5313
G01 X4.7627 Y-3.5276
G01 X4.8522 Y-3.4953
G01 X4.8657 Y-3.4894
G01 X4.9425 Y-3.4531
G01 X4.9517 Y-3.4484
G01 X4.9632 Y-3.4420
G01 X5.0360 Y-3.3983
G01 X5.0485 Y-3.3904
G01 X5.0619 Y-3.3808
G01 X5.0417 Y-3.4181
G01 X5.0359 Y-3.4302
G01 X5.0307 Y-3.4426
G01 X5.0262 Y-3.4552
G01 X5.0223 Y-3.4681
G01 X5.0182 Y-3.4847
G01 X5.0158 Y-3.4979
G01 X5.0140 Y-3.5112
G01 X5.0129 Y-3.5246
G01 X5.0126 Y-3.5476
G01 X5.0181 Y-3.6292
G01 X5.0205 Y-3.6507
G01 X5.0229 Y-3.6639
G01 X5.0259 Y-3.6770
G01 X5.0287 Y-3.6870
G01 X5.0328 Y-3.6998
G01 X5.0414 Y-3.7212
G01 X5.0459 Y-3.7306
G01 X5.0522 Y-3.7425
G01 X5.0607 Y-3.7565
G01 X5.0713 Y-3.7718
G01 X5.1164 Y-3.8320
G01 X5.1251 Y-3.8426
G01 X5.1331 Y-3.8514
G01 X5.1148 Y-3.8480
G01 X5.0774 Y-3.8427
G01 X5.0628 Y-3.8415
G01 X5.0265 Y-3.8400
G01 X3.5750 Y-3.8400
G01 X3.5372 Y-3.8415
G01 X3.5226 Y-3.8427
G01 X3.4815 Y-3.8485
G01 X3.4625 Y-3.8524
G01 X3.5167 Y-3.7918
G01 X3.5289 Y-3.7758
G01 X3.5399 Y-3.7589
G01 X3.5509 Y-3.7386
G01 X3.5565 Y-3.7264
G01 X3.5614 Y-3.7140
G01 X3.5658 Y-3.7013
G01 X3.5695 Y-3.6884
G01 X3.5725 Y-3.6753
G01 X3.5747 Y-3.6636
G01 X3.5862 Y-3.5932
G01 X3.5883 Y-3.5762
G01 X3.5893 Y-3.5598
G01 X3.5894 Y-3.5464
G01 X3.5888 Y-3.5330
G01 X3.5876 Y-3.5197
G01 X3.5850 Y-3.5027
G01 X3.5823 Y-3.4896
G01 X3.5789 Y-3.4766
G01 X3.5749 Y-3.4638
G01 X3.5677 Y-3.4450
G01 X3.5405 Y-3.3826
G00 Z1.0000
G00 X3.1750 Y-5.3600
G01 F25.00
G01 Z-0.1000
G01 F70.00
G01 X3.1750 Y-5.5637
G01 X3.1769 Y-5.5992
G01 X3.1827 Y-5.6380
G01 X3.1903 Y-5.6690
G01 X3.1945 Y-5.6831
G01 X3.2054 Y-5.7131
G01 X3.2189 Y-5.7420
G01 X3.2259 Y-5.7550
G01 X3.2424 Y-5.7822
G01 X3.2613 Y-5.8080
G01 X3.2706 Y-5.8193
G01 X3.2922 Y-5.8428
G01 X3.3212 Y-5.8692
G01 X3.3528 Y-5.8926
G01 X3.3800 Y-5.9091
G01 X3.3930 Y-5.9161
G01 X3.4152 Y-5.9266
G01 X3.4253 Y-5.9309
G01 X3.4589 Y-5.9428
G01 X3.4934 Y-5.9516
G01 X3.5042 Y-5.9536
G01 X3.5358 Y-5.9581
G01 X3.5713 Y-5.9600
G01 X3.9000 Y-5.9600
G01 X3.9000 Y-6.1600
G01 X3.5327 Y-6.1600
G01 X3.4539 Y-6.1520
G01 X3.3197 Y-6.1075
G01 X3.2003 Y-6.0339
G01 X3.1011 Y-5.9347
G01 X3.0275 Y-5.8153
G01 X2.9830 Y-5.6811
G01 X2.9750 Y-5.6023
G01 X2.9750 Y-5.3600
G01 X3.1750 Y-5.3600
G00 Z1.0000
G00 X4.7000 Y-5.9600
G01 F25.00
G01 Z-0.1000
G01 F70.00
G01 X5.0250 Y-5.9600
G01 X5.0569 Y-5.9586
G01 X5.0679 Y-5.9577
G01 X5.0994 Y-5.9530
G01 X5.1102 Y-5.9507
G01 X5.1411 Y-5.9428
G01 X5.1712 Y-5.9322
G01 X5.1815 Y-5.9281
G01 X5.2103 Y-5.9145
G01 X5.2200 Y-5.9091
G01 X5.2441 Y-5.8946
G01 X5.2532 Y-5.8883
G01 X5.2759 Y-5.8715
G01 X5.2843 Y-5.8644
G01 X5.3025 Y-5.8479
G01 X5.3129 Y-5.8375
G01 X5.3318 Y-5.8166
G01 X5.3387 Y-5.8080
G01 X5.3576 Y-5.7822
G01 X5.3778 Y-5.7486
G01 X5.3946 Y-5.7131
G01 X5.4067 Y-5.6796
G01 X5.4097 Y-5.6690
G01 X5.4173 Y-5.6380
G01 X5.4222 Y-5.6065
G01 X5.4236 Y-5.5919
G01 X5.4250 Y-5.5600
G01 X5.4250 Y-5.3600
G01 X5.6250 Y-5.3600
G01 X5.6250 Y-5.6023
G01 X5.6170 Y-5.6811
G01 X5.5725 Y-5.8153
G01 X5.4989 Y-5.9347
G01 X5.3997 Y-6.0339
G01 X5.2803 Y-6.1075
G01 X5.1461 Y-6.1520
G01 X5.0673 Y-6.1600
G01 X4.7000 Y-6.1600
G01 X4.7000 Y-5.9600
G00 Z1.0000
G00 X8.3850 Y-5.6706
G01 F25.00
G01 Z-0.1000
G01 F70.00
G01 X8.4013 Y-5.6869
G01 X8.3946 Y-5.7139
G01 X8.3890 Y-5.6865
G01 X8.3850 Y-5.6706
G00 Z1.0000
G00 X9.1542 Y-4.9470
G01 F25.00
G01 Z-0.1000
G01 F70.00
G01 X9.1369 Y-4.9513
G01 X9.1212 Y-4.9356
G01 X9.1371 Y-4.9417
G01 X9.1542 Y-4.9470
G00 Z1.0000
G00 X10.3853 Y-5.4599
G01 F25.00
G01 Z-0.1000
G01 F70.00
G01 X10.3646 Y-5.4599
G01 X10.3526 Y-5.4399
G01 X10.3688 Y-5.4506
G01 X10.3853 Y-5.4599
G00 Z1.0000
G00 X10.3550 Y-6.5161
G01 F25.00
G01 Z-0.1000
G01 F70.00
G01 X10.3646 Y-6.5001
G01 X10.3878 Y-6.5001
G01 X10.3700 Y-6.5081
G01 X10.3550 Y-6.5161
G01 X11.8509 Y-6.5001
G01 X12.0320 Y-6.5001
G01 X12.0256 Y-6.5430
G01 X12.0237 Y-6.5599
G01 X12.0201 Y-6.6319
G01 X12.0204 Y-6.6556
G01 X12.0147 Y-6.6445
G01 X12.0081 Y-6.6329
G01 X12.0008 Y-6.6216
G01 X11.9930 Y-6.6107
G01 X11.9846 Y-6.6002
G01 X11.9758 Y-6.5901
G01 X11.9594 Y-6.5738
G01 X11.9441 Y-6.5608
G01 X11.9303 Y-6.5507
G01 X11.8647 Y-6.5084
G01 X11.8509 Y-6.5001
G00 Z1.0000
G00 X12.6448 Y-5.3402
G01 F25.00
G01 Z-0.1000
G01 F70.00
G01 X12.6566 Y-5.3160
G01 X12.6622 Y-5.3029
G01 X12.6675 Y-5.2890
G01 X12.6720 Y-5.2756
G01 X12.6763 Y-5.2613
G01 X12.6827 Y-5.2345
G01 X12.6864 Y-5.2133
G01 X12.6981 Y-5.1308
G01 X12.6994 Y-5.1160
G01 X12.7002 Y-5.1018
G01 X12.7004 Y-5.0869
G01 X12.7001 Y-5.0716
G01 X12.7616 Y-5.0810
G01 X12.7490 Y-5.1052
G01 X12.7431 Y-5.1181
G01 X12.7375 Y-5.1319
G01 X12.7326 Y-5.1452
G01 X12.7280 Y-5.1594
G01 X12.7209 Y-5.1860
G01 X12.7180 Y-5.1999
G01 X12.7155 Y-5.2145
G01 X12.7042 Y-5.2933
G01 X12.7018 Y-5.3185
G01 X12.7011 Y-5.3439
G01 X12.6803 Y-5.3419
G01 X12.6448 Y-5.3402
G01 X12.8765 Y-5.5220
G01 X12.8633 Y-5.5153
G01 X12.8304 Y-5.5000
G01 X12.8167 Y-5.4947
G01 X12.7824 Y-5.4827
G01 X12.7682 Y-5.4787
G01 X12.7329 Y-5.4702
G01 X12.7184 Y-5.4676
G01 X12.6861 Y-5.4629
G01 X12.6692 Y-5.4615
G01 X12.6315 Y-5.4599
G01 X12.3566 Y-5.4599
G01 X12.3698 Y-5.4541
G01 X12.3850 Y-5.4463
G01 X12.3966 Y-5.4395
G01 X12.4103 Y-5.4305
G01 X12.4240 Y-5.4202
G01 X12.4364 Y-5.4095
G01 X12.4461 Y-5.4003
G01 X12.4578 Y-5.3877
G01 X12.5098 Y-5.3275
G01 X12.5180 Y-5.3169
G01 X12.5277 Y-5.3028
G01 X12.5380 Y-5.2855
G01 X12.5481 Y-5.2647
G01 X12.5554 Y-5.2460
G01 X12.5613 Y-5.2268
G01 X12.5645 Y-5.2138
G01 X12.5670 Y-5.2006
G01 X12.5777 Y-5.1263
G01 X12.5794 Y-5.1115
G01 X12.5803 Y-5.0981
G01 X12.5804 Y-5.0810
G01 X12.5794 Y-5.0646
G01 X12.5774 Y-5.0476
G01 X12.5745 Y-5.0315
G01 X12.5704 Y-5.0148
G01 X12.5664 Y-5.0020
G01 X12.5608 Y-4.9866
G01 X12.5249 Y-4.9076
G01 X12.5177 Y-4.8936
G01 X12.5111 Y-4.8824
G01 X12.5463 Y-4.8990
G01 X12.5584 Y-4.9043
G01 X12.6297 Y-4.9301
G01 X12.6502 Y-4.9361
G01 X12.7088 Y-4.9507
G01 X12.7282 Y-4.9547
G01 X12.8033 Y-4.9657
G01 X12.8179 Y-4.9668
G01 X12.8768 Y-4.9697
G01 X12.8900 Y-4.9700
G01 X13.0453 Y-4.9700
G01 X13.0318 Y-4.9759
G01 X13.0165 Y-4.9837
G01 X13.0024 Y-4.9920
G01 X12.9912 Y-4.9995
G01 X12.9776 Y-5.0098
G01 X12.9673 Y-5.0185
G01 X12.9554 Y-5.0297
G01 X12.9462 Y-5.0395
G01 X12.8936 Y-5.1002
G01 X12.8835 Y-5.1131
G01 X12.8758 Y-5.1241
G01 X12.8654 Y-5.1412
G01 X12.8575 Y-5.1564
G01 X12.8495 Y-5.1749
G01 X12.8429 Y-5.1939
G01 X12.8386 Y-5.2097
G01 X12.8351 Y-5.2265
G01 X12.8228 Y-5.3118
G01 X12.8216 Y-5.3252
G01 X12.8211 Y-5.3423
G01 X12.8214 Y-5.3557
G01 X12.8225 Y-5.3691
G01 X12.8246 Y-5.3854
G01 X12.8279 Y-5.4022
G01 X12.8312 Y-5.4152
G01 X12.8361 Y-5.4308
G01 X12.8397 Y-5.4406
G01 X12.8449 Y-5.4529
G01 X12.8765 Y-5.5220
G00 Z1.0000
G00 X12.8238 Y-3.3531
G01 F25.00
G01 Z-0.1000
G01 F70.00
G01 X12.8092 Y-3.3545
G01 X12.7509 Y-3.3632
G01 X12.7365 Y-3.3660
G01 X12.6723 Y-3.3823
G01 X12.6030 Y-3.4071
G01 X12.5365 Y-3.4386
G01 X12.4795 Y-3.4725
G01 X12.4673 Y-3.4806
G01 X12.4142 Y-3.5202
G01 X12.3650 Y-3.5646
G01 X12.3546 Y-3.5750
G01 X12.3102 Y-3.6242
G01 X12.2664 Y-3.6833
G01 X12.2322 Y-3.7400
G01 X12.2252 Y-3.7530
G01 X12.1971 Y-3.8130
G01 X12.1723 Y-3.8823
G01 X12.1544 Y-3.9537
G01 X12.1445 Y-4.0192
G01 X12.1431 Y-4.0338
G01 X12.1400 Y-4.1000
G01 X12.1436 Y-4.1735
G01 X12.1532 Y-4.2391
G01 X12.1560 Y-4.2535
G01 X12.1723 Y-4.3177
G01 X12.1971 Y-4.3870
G01 X12.2252 Y-4.4470
G01 X12.2322 Y-4.4600
G01 X12.2664 Y-4.5167
G01 X12.3057 Y-4.5700
G01 X12.3151 Y-4.5814
G01 X12.3597 Y-4.6303
G01 X12.4114 Y-4.6774
G01 X12.4200 Y-4.6843
G01 X12.4673 Y-4.7194
G01 X12.4795 Y-4.7275
G01 X12.5365 Y-4.7614
G01 X12.6030 Y-4.7929
G01 X12.6653 Y-4.8154
G01 X12.6794 Y-4.8197
G01 X12.7437 Y-4.8356
G01 X12.8128 Y-4.8460
G01 X12.8238 Y-4.8469
G01 X12.8900 Y-4.8500
G01 X13.6900 Y-4.8500
G01 X13.7562 Y-4.8469
G01 X13.7708 Y-4.8455
G01 X13.8363 Y-4.8356
G01 X13.9077 Y-4.8177
G01 X13.9770 Y-4.7929
G01 X14.0435 Y-4.7614
G01 X14.1067 Y-4.7236
G01 X14.1658 Y-4.6798
G01 X14.2203 Y-4.6303
G01 X14.2674 Y-4.5786
G01 X14.2743 Y-4.5700
G01 X14.3136 Y-4.5167
G01 X14.3514 Y-4.4535
G01 X14.3829 Y-4.3870
G01 X14.4077 Y-4.3177
G01 X14.4256 Y-4.2463
G01 X14.4364 Y-4.1735
G01 X14.4400 Y-4.1000
G01 X14.4364 Y-4.0265
G01 X14.4256 Y-3.9537
G01 X14.4077 Y-3.8823
G01 X14.3829 Y-3.8130
G01 X14.3514 Y-3.7465
G01 X14.3136 Y-3.6833
G01 X14.2698 Y-3.6242
G01 X14.2203 Y-3.5697
G01 X14.1686 Y-3.5226
G01 X14.1600 Y-3.5157
G01 X14.1127 Y-3.4806
G01 X14.1005 Y-3.4725
G01 X14.0435 Y-3.4386
G01 X13.9770 Y-3.4071
G01 X13.9147 Y-3.3846
G01 X13.9006 Y-3.3803
G01 X13.8363 Y-3.3644
G01 X13.7672 Y-3.3540
G01 X13.7562 Y-3.3531
G01 X13.6900 Y-3.3500
G01 X12.8900 Y-3.3500
G01 X12.8238 Y-3.3531
G00 Z1.0000
G00 X11.9363 Y-1.6054
G01 F25.00
G01 Z-0.1000
G01 F70.00
G01 X11.9449 Y-1.4241
G01 X11.9877 Y-1.2477
G01 X12.0631 Y-1.0826
G01 X12.1684 Y-0.9347
G01 X12.2998 Y-0.8095
G01 X12.4525 Y-0.7113
G01 X12.6210 Y-0.6439
G01 X12.7992 Y-0.6095
G01 X13.7353 Y-0.6095
G01 X13.8707 Y-0.6224
G01 X14.0449 Y-0.6736
G01 X14.2062 Y-0.7568
G01 X14.2144 Y-0.7632
G01 X14.3489 Y-0.8690
G01 X14.4678 Y-1.0061
G01 X14.5585 Y-1.1633
G01 X14.6179 Y-1.3349
G01 X14.6437 Y-1.5146
G01 X14.6351 Y-1.6959
G01 X14.5923 Y-1.8723
G01 X14.5169 Y-2.0374
G01 X14.4116 Y-2.1853
G01 X14.2802 Y-2.3105
G01 X14.1275 Y-2.4087
G01 X13.9590 Y-2.4761
G01 X13.7808 Y-2.5105
G01 X12.8447 Y-2.5105
G01 X12.7093 Y-2.4976
G01 X12.5351 Y-2.4464
G01 X12.3738 Y-2.3632
G01 X12.2311 Y-2.2510
G01 X12.1122 Y-2.1138
G01 X12.0215 Y-1.9567
G01 X11.9621 Y-1.7851
G01 X11.9363 Y-1.6054
G00 Z1.0000
G00 X12.8238 Y-0.8131
G01 F25.00
G01 Z-0.1000
G01 F70.00
G01 X12.8092 Y-0.8145
G01 X12.7509 Y-0.8232
G01 X12.7365 Y-0.8260
G01 X12.6723 Y-0.8423
G01 X12.6030 Y-0.8671
G01 X12.5365 Y-0.8986
G01 X12.4795 Y-0.9325
G01 X12.4673 Y-0.9406
G01 X12.4142 Y-0.9802
G01 X12.3650 Y-1.0246
G01 X12.3546 Y-1.0350
G01 X12.3102 Y-1.0842
G01 X12.2664 Y-1.1433
G01 X12.2322 Y-1.2000
G01 X12.2252 Y-1.2130
G01 X12.1971 Y-1.2730
G01 X12.1723 Y-1.3423
G01 X12.1544 Y-1.4137
G01 X12.1445 Y-1.4792
G01 X12.1431 Y-1.4938
G01 X12.1400 Y-1.5600
G01 X12.1436 Y-1.6335
G01 X12.1532 Y-1.6991
G01 X12.1560 Y-1.7135
G01 X12.1723 Y-1.7777
G01 X12.1971 Y-1.8470
G01 X12.2252 Y-1.9070
G01 X12.2322 Y-1.9200
G01 X12.2664 Y-1.9767
G01 X12.3057 Y-2.0300
G01 X12.3151 Y-2.0414
G01 X12.3597 Y-2.0903
G01 X12.4114 Y-2.1374
G01 X12.4200 Y-2.1443
G01 X12.4673 Y-2.1794
G01 X12.4795 Y-2.1875
G01 X12.5365 Y-2.2214
G01 X12.6030 Y-2.2529
G01 X12.6653 Y-2.2754
G01 X12.6794 Y-2.2797
G01 X12.7437 Y-2.2956
G01 X12.8128 Y-2.3060
G01 X12.8238 Y-2.3069
G01 X12.8900 Y-2.3100
G01 X13.6900 Y-2.3100
G01 X13.7562 Y-2.3069
G01 X13.7708 Y-2.3055
G01 X13.8363 Y-2.2956
G01 X13.9077 Y-2.2777
G01 X13.9770 Y-2.2529
G01 X14.0435 Y-2.2214
G01 X14.1067 Y-2.1836
G01 X14.1658 Y-2.1398
G01 X14.2203 Y-2.0903
G01 X14.2674 Y-2.0386
G01 X14.2743 Y-2.0300
G01 X14.3136 Y-1.9767
G01 X14.3514 Y-1.9135
G01 X14.3829 Y-1.8470
G01 X14.4077 Y-1.7777
G01 X14.4256 Y-1.7063
G01 X14.4364 Y-1.6335
G01 X14.4400 Y-1.5600
G01 X14.4364 Y-1.4865
G01 X14.4256 Y-1.4137
G01 X14.4077 Y-1.3423
G01 X14.3829 Y-1.2730
G01 X14.3514 Y-1.2065
G01 X14.3136 Y-1.1433
G01 X14.2698 Y-1.0842
G01 X14.2203 Y-1.0297
G01 X14.1686 Y-0.9826
G01 X14.1600 Y-0.9757
G01 X14.1127 Y-0.9406
G01 X14.1005 Y-0.9325
G01 X14.0435 Y-0.8986
G01 X13.9770 Y-0.8671
G01 X13.9147 Y-0.8446
G01 X13.9006 Y-0.8403
G01 X13.8363 Y-0.8244
G01 X13.7672 Y-0.8140
G01 X13.7562 Y-0.8131
G01 X13.6900 Y-0.8100
G01 X12.8900 Y-0.8100
G01 X12.8238 Y-0.8131
G00 Z1.0000
G00 X13.6900 Y0.2300
G01 F25.00
G01 Z-0.1000
G01 F70.00
G01 X13.7562 Y0.2331
G01 X13.7708 Y0.2345
G01 X13.8363 Y0.2444
G01 X13.9006 Y0.2603
G01 X13.9147 Y0.2646
G01 X13.9770 Y0.2871
G01 X14.0370 Y0.3152
G01 X14.0468 Y0.3203
G01 X14.1005 Y0.3525
G01 X14.1127 Y0.3606
G01 X14.1658 Y0.4002
G01 X14.2177 Y0.4471
G01 X14.2254 Y0.4550
G01 X14.2649 Y0.4986
G01 X14.2721 Y0.5071
G01 X14.3115 Y0.5603
G01 X14.3238 Y0.5800
G01 X14.5517 Y0.5800
G01 X14.5165 Y0.5028
G01 X14.4112 Y0.3551
G01 X14.2799 Y0.2299
G01 X14.1273 Y0.1318
G01 X13.9589 Y0.0643
G01 X13.7807 Y0.0300
G01 X13.6900 Y0.0300
G01 X13.6900 Y0.2300
G00 Z1.0000
G00 X13.6900 Y1.7300
G01 F25.00
G01 Z-0.1000
G01 F70.00
G01 X13.6900 Y1.9300
G01 X13.7353 Y1.9300
G01 X13.8706 Y1.9171
G01 X14.0447 Y1.8660
G01 X14.2059 Y1.7828
G01 X14.3486 Y1.6707
G01 X14.4674 Y1.5336
G01 X14.5560 Y1.3800
G01 X14.3238 Y1.3800
G01 X14.3115 Y1.3997
G01 X14.2721 Y1.4529
G01 X14.2649 Y1.4614
G01 X14.2254 Y1.5050
G01 X14.2177 Y1.5129
G01 X14.1714 Y1.5549
G01 X14.1600 Y1.5643
G01 X14.1067 Y1.6036
G01 X14.0468 Y1.6397
G01 X14.0370 Y1.6448
G01 X13.9770 Y1.6729
G01 X13.9147 Y1.6954
G01 X13.9006 Y1.6997
G01 X13.8363 Y1.7156
G01 X13.7708 Y1.7255
G01 X13.7562 Y1.7269
G01 X13.6900 Y1.7300
G00 Z1.0000
G00 X12.0283 Y1.3800
G01 F25.00
G01 Z-0.1000
G01 F70.00
G01 X12.0635 Y1.4572
G01 X12.1688 Y1.6049
G01 X12.3001 Y1.7301
G01 X12.4527 Y1.8282
G01 X12.6211 Y1.8957
G01 X12.7993 Y1.9300
G01 X12.8900 Y1.9300
G01 X12.8900 Y1.7300
G01 X12.8238 Y1.7269
G01 X12.8092 Y1.7255
G01 X12.7437 Y1.7156
G01 X12.6794 Y1.6997
G01 X12.6653 Y1.6954
G01 X12.6030 Y1.6729
G01 X12.5430 Y1.6448
G01 X12.5332 Y1.6397
G01 X12.4795 Y1.6075
G01 X12.4673 Y1.5994
G01 X12.4142 Y1.5598
G01 X12.3623 Y1.5129
G01 X12.3546 Y1.5050
G01 X12.3151 Y1.4614
G01 X12.3079 Y1.4529
G01 X12.2685 Y1.3997
G01 X12.2562 Y1.3800
G01 X12.0283 Y1.3800
G00 Z1.0000
G00 X12.0240 Y0.5800
G01 F25.00
G01 Z-0.1000
G01 F70.00
G01 X12.2562 Y0.5800
G01 X12.2685 Y0.5603
G01 X12.3079 Y0.5071
G01 X12.3151 Y0.4986
G01 X12.3546 Y0.4550
G01 X12.3623 Y0.4471
G01 X12.4086 Y0.4051
G01 X12.4200 Y0.3957
G01 X12.4733 Y0.3564
G01 X12.5332 Y0.3203
G01 X12.5430 Y0.3152
G01 X12.6030 Y0.2871
G01 X12.6653 Y0.2646
G01 X12.6794 Y0.2603
G01 X12.7437 Y0.2444
G01 X12.8092 Y0.2345
G01 X12.8238 Y0.2331
G01 X12.8900 Y0.2300
G01 X12.8900 Y0.0300
G01 X12.8447 Y0.0300
G01 X12.7094 Y0.0429
G01 X12.5353 Y0.0940
G01 X12.3740 Y0.1772
G01 X12.2314 Y0.2893
G01 X12.1126 Y0.4264
G01 X12.0240 Y0.5800
G00 Z1.0000
G00 X9.8300 Y0.7794
G01 F25.00
G01 Z-0.1000
G01 F70.00
G01 X9.8713 Y0.7989
G01 X9.8811 Y0.8039
G01 X9.9516 Y0.8462
G01 X9.9608 Y0.8522
G01 X10.0327 Y0.9056
G01 X10.1018 Y0.9682
G01 X10.1644 Y1.0373
G01 X10.2178 Y1.1092
G01 X10.2238 Y1.1184
G01 X10.2661 Y1.1889
G01 X10.2711 Y1.1987
G01 X10.2906 Y1.2400
G01 X10.5124 Y1.2400
G01 X10.4297 Y1.0628
G01 X10.3143 Y0.8980
G01 X10.1720 Y0.7557
G01 X10.0072 Y0.6403
G01 X9.8300 Y0.5576
G01 X9.8300 Y0.7794
G00 Z1.0000
G00 X8.3476 Y1.2400
G01 F25.00
G01 Z-0.1000
G01 F70.00
G01 X8.5694 Y1.2400
G01 X8.5889 Y1.1987
G01 X8.5939 Y1.1889
G01 X8.6362 Y1.1184
G01 X8.6422 Y1.1092
G01 X8.6956 Y1.0373
G01 X8.7582 Y0.9682
G01 X8.8273 Y0.9056
G01 X8.8992 Y0.8522
G01 X8.9084 Y0.8462
G01 X8.9789 Y0.8039
G01 X8.9887 Y0.7989
G01 X9.0300 Y0.7794
G01 X9.0300 Y0.5576
G01 X8.8528 Y0.6403
G01 X8.6880 Y0.7557
G01 X8.5457 Y0.8980
G01 X8.4303 Y1.0628
G01 X8.3476 Y1.2400
G00 Z1.0000
G00 X8.3476 Y2.0400
G01 F25.00
G01 Z-0.1000
G01 F70.00
G01 X8.4303 Y2.2172
G01 X8.5457 Y2.3820
G01 X8.6880 Y2.5243
G01 X8.8528 Y2.6397
G01 X9.0300 Y2.7224
G01 X9.0300 Y2.5006
G01 X8.9887 Y2.4811
G01 X8.9789 Y2.4761
G01 X8.9084 Y2.4338
G01 X8.8992 Y2.4278
G01 X8.8273 Y2.3744
G01 X8.7582 Y2.3118
G01 X8.6956 Y2.2427
G01 X8.6422 Y2.1708
G01 X8.6362 Y2.1616
G01 X8.5939 Y2.0911
G01 X8.5889 Y2.0813
G01 X8.5694 Y2.0400
G01 X8.3476 Y2.0400
G00 Z1.0000
G00 X9.8300 Y2.5006
G01 F25.00
G01 Z-0.1000
G01 F70.00
G01 X9.8300 Y2.7224
G01 X10.0072 Y2.6397
G01 X10.1720 Y2.5243
G01 X10.3143 Y2.3820
G01 X10.4297 Y2.2172
G01 X10.5124 Y2.0400
G01 X10.2906 Y2.0400
G01 X10.2711 Y2.0813
G01 X10.2661 Y2.0911
G01 X10.2238 Y2.1616
G01 X10.2178 Y2.1708
G01 X10.1644 Y2.2427
G01 X10.1018 Y2.3118
G01 X10.0327 Y2.3744
G01 X9.9608 Y2.4278
G01 X9.9516 Y2.4338
G01 X9.8811 Y2.4761
G01 X9.8713 Y2.4811
G01 X9.8300 Y2.5006
G00 Z1.0000
G00 X11.9363 Y3.4746
G01 F25.00
G01 Z-0.1000
G01 F70.00
G01 X11.9449 Y3.6559
G01 X11.9877 Y3.8323
G01 X12.0631 Y3.9974
G01 X12.1684 Y4.1453
G01 X12.2998 Y4.2705
G01 X12.4525 Y4.3687
G01 X12.6210 Y4.4361
G01 X12.7992 Y4.4705
G01 X13.7353 Y4.4705
G01 X13.8707 Y4.4576
G01 X14.0449 Y4.4064
G01 X14.2062 Y4.3232
G01 X14.3489 Y4.2110
G01 X14.4678 Y4.0738
G01 X14.5585 Y3.9167
G01 X14.6179 Y3.7451
G01 X14.6437 Y3.5654
G01 X14.6351 Y3.3841
G01 X14.5923 Y3.2077
G01 X14.5169 Y3.0426
G01 X14.4116 Y2.8947
G01 X14.2802 Y2.7695
G01 X14.1275 Y2.6713
G01 X13.9590 Y2.6039
G01 X13.7808 Y2.5695
G01 X12.8447 Y2.5695
G01 X12.7093 Y2.5824
G01 X12.5351 Y2.6336
G01 X12.3738 Y2.7168
G01 X12.2311 Y2.8290
G01 X12.1122 Y2.9662
G01 X12.0215 Y3.1233
G01 X11.9621 Y3.2949
G01 X11.9363 Y3.4746
G00 Z1.0000
G00 X12.8238 Y4.2669
G01 F25.00
G01 Z-0.1000
G01 F70.00
G01 X12.8092 Y4.2655
G01 X12.7509 Y4.2568
G01 X12.7365 Y4.2540
G01 X12.6723 Y4.2377
G01 X12.6030 Y4.2129
G01 X12.5365 Y4.1814
G01 X12.4795 Y4.1475
G01 X12.4673 Y4.1394
G01 X12.4142 Y4.0998
G01 X12.3650 Y4.0554
G01 X12.3546 Y4.0450
G01 X12.3102 Y3.9958
G01 X12.2664 Y3.9367
G01 X12.2322 Y3.8800
G01 X12.2252 Y3.8670
G01 X12.1971 Y3.8070
G01 X12.1723 Y3.7377
G01 X12.1544 Y3.6663
G01 X12.1445 Y3.6008
G01 X12.1431 Y3.5862
G01 X12.1400 Y3.5200
G01 X12.1436 Y3.4465
G01 X12.1532 Y3.3809
G01 X12.1560 Y3.3665
G01 X12.1723 Y3.3023
G01 X12.1971 Y3.2330
G01 X12.2252 Y3.1730
G01 X12.2322 Y3.1600
G01 X12.2664 Y3.1033
G01 X12.3057 Y3.0500
G01 X12.3151 Y3.0386
G01 X12.3597 Y2.9897
G01 X12.4114 Y2.9426
G01 X12.4200 Y2.9357
G01 X12.4673 Y2.9006
G01 X12.4795 Y2.8925
G01 X12.5365 Y2.8586
G01 X12.6030 Y2.8271
G01 X12.6653 Y2.8046
G01 X12.6794 Y2.8003
G01 X12.7437 Y2.7844
G01 X12.8128 Y2.7740
G01 X12.8238 Y2.7731
G01 X12.8900 Y2.7700
G01 X13.6900 Y2.7700
G01 X13.7562 Y2.7731
G01 X13.7708 Y2.7745
G01 X13.8363 Y2.7844
G01 X13.9077 Y2.8023
G01 X13.9770 Y2.8271
G01 X14.0435 Y2.8586
G01 X14.1067 Y2.8964
G01 X14.1658 Y2.9402
G01 X14.2203 Y2.9897
G01 X14.2674 Y3.0414
G01 X14.2743 Y3.0500
G01 X14.3136 Y3.1033
G01 X14.3514 Y3.1665
G01 X14.3829 Y3.2330
G01 X14.4077 Y3.3023
G01 X14.4256 Y3.3737
G01 X14.4364 Y3.4465
G01 X14.4400 Y3.5200
G01 X14.4364 Y3.5935
G01 X14.4256 Y3.6663
G01 X14.4077 Y3.7377
G01 X14.3829 Y3.8070
G01 X14.3514 Y3.8735
G01 X14.3136 Y3.9367
G01 X14.2698 Y3.9958
G01 X14.2203 Y4.0503
G01 X14.1686 Y4.0974
G01 X14.1600 Y4.1043
G01 X14.1127 Y4.1394
G01 X14.1005 Y4.1475
G01 X14.0435 Y4.1814
G01 X13.9770 Y4.2129
G01 X13.9147 Y4.2354
G01 X13.9006 Y4.2397
G01 X13.8363 Y4.2556
G01 X13.7672 Y4.2660
G01 X13.7562 Y4.2669
G01 X13.6900 Y4.2700
G01 X12.8900 Y4.2700
G01 X12.8238 Y4.2669
G00 Z1.0000
G00 X11.9363 Y6.0146
G01 F25.00
G01 Z-0.1000
G01 F70.00
G01 X11.9449 Y6.1959
G01 X11.9877 Y6.3723
G01 X12.0631 Y6.5374
G01 X12.1684 Y6.6853
G01 X12.2998 Y6.8105
G01 X12.4525 Y6.9087
G01 X12.6210 Y6.9761
G01 X12.7992 Y7.0105
G01 X13.7353 Y7.0105
G01 X13.8707 Y6.9976
G01 X14.0449 Y6.9464
G01 X14.2062 Y6.8632
G01 X14.3489 Y6.7510
G01 X14.4678 Y6.6139
G01 X14.5585 Y6.4567
G01 X14.6179 Y6.2851
G01 X14.6437 Y6.1054
G01 X14.6351 Y5.9241
G01 X14.5923 Y5.7477
G01 X14.5169 Y5.5826
G01 X14.4116 Y5.4347
G01 X14.2802 Y5.3095
G01 X14.1275 Y5.2113
G01 X13.9590 Y5.1439
G01 X13.7808 Y5.1095
G01 X12.8447 Y5.1095
G01 X12.7093 Y5.1224
G01 X12.5351 Y5.1736
G01 X12.3738 Y5.2568
G01 X12.2311 Y5.3690
G01 X12.1122 Y5.5062
G01 X12.0215 Y5.6633
G01 X11.9621 Y5.8349
G01 X11.9363 Y6.0146
G00 Z1.0000
G00 X12.8238 Y6.8069
G01 F25.00
G01 Z-0.1000
G01 F70.00
G01 X12.8092 Y6.8055
G01 X12.7509 Y6.7968
G01 X12.7365 Y6.7940
G01 X12.6723 Y6.7777
G01 X12.6030 Y6.7529
G01 X12.5365 Y6.7214
G01 X12.4795 Y6.6875
G01 X12.4673 Y6.6794
G01 X12.4142 Y6.6398
G01 X12.3650 Y6.5954
G01 X12.3546 Y6.5850
G01 X12.3102 Y6.5358
G01 X12.2664 Y6.4767
G01 X12.2322 Y6.4200
G01 X12.2252 Y6.4070
G01 X12.1971 Y6.3470
G01 X12.1723 Y6.2777
G01 X12.1544 Y6.2063
G01 X12.1445 Y6.1408
G01 X12.1431 Y6.1262
G01 X12.1400 Y6.0600
G01 X12.1431 Y5.9938
G01 X12.1445 Y5.9792
G01 X12.1544 Y5.9137
G01 X12.1723 Y5.8423
G01 X12.1971 Y5.7730
G01 X12.2252 Y5.7130
G01 X12.2322 Y5.7000
G01 X12.2664 Y5.6433
G01 X12.3057 Y5.5900
G01 X12.3151 Y5.5786
G01 X12.3597 Y5.5297
G01 X12.4114 Y5.4826
G01 X12.4200 Y5.4757
G01 X12.4673 Y5.4406
G01 X12.4795 Y5.4325
G01 X12.5365 Y5.3986
G01 X12.6030 Y5.3671
G01 X12.6653 Y5.3446
G01 X12.6794 Y5.3403
G01 X12.7437 Y5.3244
G01 X12.8128 Y5.3140
G01 X12.8238 Y5.3131
G01 X12.8900 Y5.3100
G01 X13.6900 Y5.3100
G01 X13.7562 Y5.3131
G01 X13.7708 Y5.3145
G01 X13.8363 Y5.3244
G01 X13.9077 Y5.3423
G01 X13.9770 Y5.3671
G01 X14.0435 Y5.3986
G01 X14.1067 Y5.4364
G01 X14.1658 Y5.4802
G01 X14.2203 Y5.5297
G01 X14.2674 Y5.5814
G01 X14.2743 Y5.5900
G01 X14.3136 Y5.6433
G01 X14.3514 Y5.7065
G01 X14.3829 Y5.7730
G01 X14.4077 Y5.8423
G01 X14.4256 Y5.9137
G01 X14.4364 Y5.9865
G01 X14.4400 Y6.0600
G01 X14.4364 Y6.1335
G01 X14.4256 Y6.2063
G01 X14.4077 Y6.2777
G01 X14.3829 Y6.3470
G01 X14.3514 Y6.4135
G01 X14.3136 Y6.4767
G01 X14.2698 Y6.5358
G01 X14.2203 Y6.5903
G01 X14.1686 Y6.6374
G01 X14.1600 Y6.6443
G01 X14.1127 Y6.6794
G01 X14.1005 Y6.6875
G01 X14.0435 Y6.7214
G01 X13.9770 Y6.7529
G01 X13.9147 Y6.7754
G01 X13.9006 Y6.7797
G01 X13.8363 Y6.7956
G01 X13.7672 Y6.8060
G01 X13.7562 Y6.8069
G01 X13.6900 Y6.8100
G01 X12.8900 Y6.8100
G01 X12.8238 Y6.8069
G00 Z1.0000
G00 X11.9363 Y8.5546
G01 F25.00
G01 Z-0.1000
G01 F70.00
G01 X11.9449 Y8.7359
G01 X11.9877 Y8.9123
G01 X12.0631 Y9.0774
G01 X12.1684 Y9.2253
G01 X12.2998 Y9.3505
G01 X12.4525 Y9.4487
G01 X12.6210 Y9.5161
G01 X12.7992 Y9.5505
G01 X13.7353 Y9.5505
G01 X13.8707 Y9.5376
G01 X14.0449 Y9.4864
G01 X14.2062 Y9.4032
G01 X14.3489 Y9.2910
G01 X14.4678 Y9.1539
G01 X14.5585 Y8.9967
G01 X14.6179 Y8.8251
G01 X14.6437 Y8.6454
G01 X14.6351 Y8.4641
G01 X14.5923 Y8.2877
G01 X14.5169 Y8.1226
G01 X14.4116 Y7.9747
G01 X14.2802 Y7.8495
G01 X14.1275 Y7.7513
G01 X13.9590 Y7.6839
G01 X13.7808 Y7.6495
G01 X12.8447 Y7.6495
G01 X12.7093 Y7.6624
G01 X12.5351 Y7.7136
G01 X12.3738 Y7.7968
G01 X12.2311 Y7.9090
G01 X12.1122 Y8.0462
G01 X12.0215 Y8.2033
G01 X11.9621 Y8.3749
G01 X11.9363 Y8.5546
G00 Z1.0000
G00 X12.8238 Y9.3469
G01 F25.00
G01 Z-0.1000
G01 F70.00
G01 X12.8092 Y9.3455
G01 X12.7509 Y9.3368
G01 X12.7365 Y9.3340
G01 X12.6723 Y9.3177
G01 X12.6030 Y9.2929
G01 X12.5365 Y9.2614
G01 X12.4795 Y9.2275
G01 X12.4673 Y9.2194
G01 X12.4142 Y9.1798
G01 X12.3650 Y9.1354
G01 X12.3546 Y9.1250
G01 X12.3102 Y9.0758
G01 X12.2664 Y9.0167
G01 X12.2322 Y8.9600
G01 X12.2252 Y8.9470
G01 X12.1971 Y8.8870
G01 X12.1723 Y8.8177
G01 X12.1544 Y8.7463
G01 X12.1445 Y8.6808
G01 X12.1431 Y8.6662
G01 X12.1400 Y8.6000
G01 X12.1431 Y8.5338
G01 X12.1445 Y8.5192
G01 X12.1544 Y8.4537
G01 X12.1723 Y8.3823
G01 X12.1971 Y8.3130
G01 X12.2252 Y8.2530
G01 X12.2322 Y8.2400
G01 X12.2664 Y8.1833
G01 X12.3057 Y8.1300
G01 X12.3151 Y8.1186
G01 X12.3597 Y8.0697
G01 X12.4114 Y8.0226
G01 X12.4200 Y8.0157
G01 X12.4673 Y7.9806
G01 X12.4795 Y7.9725
G01 X12.5365 Y7.9386
G01 X12.6030 Y7.9071
G01 X12.6653 Y7.8846
G01 X12.6794 Y7.8803
G01 X12.7437 Y7.8644
G01 X12.8128 Y7.8540
G01 X12.8238 Y7.8531
G01 X12.8900 Y7.8500
G01 X13.6900 Y7.8500
G01 X13.7562 Y7.8531
G01 X13.7708 Y7.8545
G01 X13.8363 Y7.8644
G01 X13.9077 Y7.8823
G01 X13.9770 Y7.9071
G01 X14.0435 Y7.9386
G01 X14.1067 Y7.9764
G01 X14.1658 Y8.0202
G01 X14.2203 Y8.0697
G01 X14.2674 Y8.1214
G01 X14.2743 Y8.1300
G01 X14.3136 Y8.1833
G01 X14.3514 Y8.2465
G01 X14.3829 Y8.3130
G01 X14.4077 Y8.3823
G01 X14.4256 Y8.4537
G01 X14.4364 Y8.5265
G01 X14.4400 Y8.6000
G01 X14.4364 Y8.6735
G01 X14.4256 Y8.7463
G01 X14.4077 Y8.8177
G01 X14.3829 Y8.8870
G01 X14.3514 Y8.9535
G01 X14.3136 Y9.0167
G01 X14.2698 Y9.0758
G01 X14.2203 Y9.1303
G01 X14.1686 Y9.1774
G01 X14.1600 Y9.1843
G01 X14.1127 Y9.2194
G01 X14.1005 Y9.2275
G01 X14.0435 Y9.2614
G01 X13.9770 Y9.2929
G01 X13.9147 Y9.3154
G01 X13.9006 Y9.3197
G01 X13.8363 Y9.3356
G01 X13.7672 Y9.3460
G01 X13.7562 Y9.3469
G01 X13.6900 Y9.3500
G01 X12.8900 Y9.3500
G01 X12.8238 Y9.3469
G00 Z1.0000
G00 X11.9363 Y11.0946
G01 F25.00
G01 Z-0.1000
G01 F70.00
G01 X11.9449 Y11.2759
G01 X11.9877 Y11.4523
G01 X12.0631 Y11.6174
G01 X12.1684 Y11.7653
G01 X12.2998 Y11.8905
G01 X12.4525 Y11.9887
G01 X12.6210 Y12.0561
G01 X12.7992 Y12.0905
G01 X13.7353 Y12.0905
G01 X13.8707 Y12.0776
G01 X14.0449 Y12.0264
G01 X14.2062 Y11.9432
G01 X14.3489 Y11.8310
G01 X14.4678 Y11.6938
G01 X14.5585 Y11.5367
G01 X14.6179 Y11.3651
G01 X14.6437 Y11.1854
G01 X14.6351 Y11.0041
G01 X14.5923 Y10.8277
G01 X14.5169 Y10.6626
G01 X14.4116 Y10.5147
G01 X14.2802 Y10.3895
G01 X14.1275 Y10.2913
G01 X13.9590 Y10.2239
G01 X13.7808 Y10.1895
G01 X12.8447 Y10.1895
G01 X12.7093 Y10.2024
G01 X12.5351 Y10.2536
G01 X12.3738 Y10.3368
G01 X12.2311 Y10.4490
G01 X12.1122 Y10.5862
G01 X12.0215 Y10.7433
G01 X11.9621 Y10.9149
G01 X11.9363 Y11.0946
G00 Z1.0000
G00 X12.8238 Y11.8869
G01 F25.00
G01 Z-0.1000
G01 F70.00
G01 X12.8092 Y11.8855
G01 X12.7509 Y11.8768
G01 X12.7365 Y11.8740
G01 X12.6723 Y11.8577
G01 X12.6030 Y11.8329
G01 X12.5365 Y11.8014
G01 X12.4795 Y11.7675
G01 X12.4673 Y11.7594
G01 X12.4142 Y11.7198
G01 X12.3650 Y11.6754
G01 X12.3546 Y11.6650
G01 X12.3102 Y11.6158
G01 X12.2664 Y11.5567
G01 X12.2322 Y11.5000
G01 X12.2252 Y11.4870
G01 X12.1971 Y11.4270
G01 X12.1723 Y11.3577
G01 X12.1544 Y11.2863
G01 X12.1445 Y11.2208
G01 X12.1431 Y11.2062
G01 X12.1400 Y11.1400
G01 X12.1431 Y11.0738
G01 X12.1445 Y11.0592
G01 X12.1544 Y10.9937
G01 X12.1723 Y10.9223
G01 X12.1971 Y10.8530
G01 X12.2252 Y10.7930
G01 X12.2322 Y10.7800
G01 X12.2664 Y10.7233
G01 X12.3057 Y10.6700
G01 X12.3151 Y10.6586
G01 X12.3597 Y10.6097
G01 X12.4114 Y10.5626
G01 X12.4200 Y10.5557
G01 X12.4673 Y10.5206
G01 X12.4795 Y10.5125
G01 X12.5365 Y10.4786
G01 X12.6030 Y10.4471
G01 X12.6653 Y10.4246
G01 X12.6794 Y10.4203
G01 X12.7437 Y10.4044
G01 X12.8128 Y10.3940
G01 X12.8238 Y10.3931
G01 X12.8900 Y10.3900
G01 X13.6900 Y10.3900
G01 X13.7562 Y10.3931
G01 X13.7708 Y10.3945
G01 X13.8363 Y10.4044
G01 X13.9077 Y10.4223
G01 X13.9770 Y10.4471
G01 X14.0435 Y10.4786
G01 X14.1067 Y10.5164
G01 X14.1658 Y10.5602
G01 X14.2203 Y10.6097
G01 X14.2674 Y10.6614
G01 X14.2743 Y10.6700
G01 X14.3136 Y10.7233
G01 X14.3514 Y10.7865
G01 X14.3829 Y10.8530
G01 X14.4077 Y10.9223
G01 X14.4256 Y10.9937
G01 X14.4364 Y11.0665
G01 X14.4400 Y11.1400
G01 X14.4364 Y11.2135
G01 X14.4256 Y11.2863
G01 X14.4077 Y11.3577
G01 X14.3829 Y11.4270
G01 X14.3514 Y11.4935
G01 X14.3136 Y11.5567
G01 X14.2698 Y11.6158
G01 X14.2203 Y11.6703
G01 X14.1686 Y11.7174
G01 X14.1600 Y11.7243
G01 X14.1127 Y11.7594
G01 X14.1005 Y11.7675
G01 X14.0435 Y11.8014
G01 X13.9770 Y11.8329
G01 X13.9147 Y11.8554
G01 X13.9006 Y11.8597
G01 X13.8363 Y11.8756
G01 X13.7672 Y11.8860
G01 X13.7562 Y11.8869
G01 X13.6900 Y11.8900
G01 X12.8900 Y11.8900
G01 X12.8238 Y11.8869
G00 Z1.0000
G00 X12.1387 Y12.9832
G01 F25.00
G01 Z-0.1000
G01 F70.00
G01 X12.2487 Y13.0931
G01 X12.2692 Y13.0706
G01 X12.2806 Y13.0592
G01 X12.3291 Y13.0152
G01 X12.3453 Y13.0017
G01 X12.3099 Y13.0085
G01 X12.2900 Y13.0112
G01 X12.2766 Y13.0122
G01 X12.2632 Y13.0125
G01 X12.2402 Y13.0114
G01 X12.2298 Y13.0103
G01 X12.2165 Y13.0083
G01 X12.2034 Y13.0056
G01 X12.1904 Y13.0022
G01 X12.1713 Y12.9960
G01 X12.1387 Y12.9832
G00 Z1.0000
G00 X11.5139 Y13.8295
G01 F25.00
G01 Z-0.1000
G01 F70.00
G01 X11.3850 Y13.7006
G01 X11.2538 Y13.8318
G01 X11.2645 Y13.8275
G01 X11.2771 Y13.8232
G01 X11.2900 Y13.8194
G01 X11.3031 Y13.8163
G01 X11.3163 Y13.8139
G01 X11.3295 Y13.8121
G01 X11.3429 Y13.8110
G01 X11.3563 Y13.8106
G01 X11.3779 Y13.8113
G01 X11.4595 Y13.8174
G01 X11.4729 Y13.8193
G01 X11.4861 Y13.8218
G01 X11.4992 Y13.8250
G01 X11.5139 Y13.8295
G00 Z1.0000
G00 X10.5205 Y13.0939
G01 F25.00
G01 Z-0.1000
G01 F70.00
G01 X10.6494 Y12.9650
G01 X10.5182 Y12.8338
G01 X10.5225 Y12.8445
G01 X10.5268 Y12.8571
G01 X10.5306 Y12.8700
G01 X10.5336 Y12.8831
G01 X10.5361 Y12.8963
G01 X10.5379 Y12.9095
G01 X10.5390 Y12.9229
G01 X10.5394 Y12.9363
G01 X10.5387 Y12.9579
G01 X10.5326 Y13.0395
G01 X10.5307 Y13.0529
G01 X10.5282 Y13.0661
G01 X10.5250 Y13.0792
G01 X10.5205 Y13.0939
G00 Z1.0000
G00 X12.8023 Y14.5500
G01 F25.00
G01 Z-0.1000
G01 F70.00
G01 X12.8007 Y14.5454
G01 X12.7936 Y14.5445
G01 X12.7986 Y14.5476
G01 X12.8023 Y14.5500
G00 Z1.0000
G00 X14.2532 Y14.3427
G01 F25.00
G01 Z-0.1000
G01 F70.00
G01 X14.2431 Y14.3516
G01 X14.2327 Y14.3598
G01 X14.1746 Y14.4026
G01 X14.1621 Y14.4105
G01 X14.1019 Y14.4463
G01 X14.2562 Y14.6006
G01 X14.2520 Y14.5900
G01 X14.2476 Y14.5773
G01 X14.2439 Y14.5644
G01 X14.2408 Y14.5514
G01 X14.2384 Y14.5382
G01 X14.2366 Y14.5249
G01 X14.2355 Y14.5115
G01 X14.2350 Y14.4981
G01 X14.2357 Y14.4765
G01 X14.2418 Y14.3952
G01 X14.2436 Y14.3821
G01 X14.2461 Y14.3692
G01 X14.2492 Y14.3563
G01 X14.2532 Y14.3427
G00 Z1.0000
G00 X15.5306 Y15.8750
G01 F25.00
G01 Z-0.1000
G01 F70.00
G01 X15.5469 Y15.8913
G01 X15.5739 Y15.8846
G01 X15.5465 Y15.8790
G01 X15.5306 Y15.8750
G00 Z1.0000
G00 X14.8070 Y16.6442
G01 F25.00
G01 Z-0.1000
G01 F70.00
G01 X14.8113 Y16.6269
G01 X14.7956 Y16.6111
G01 X14.8017 Y16.6271
G01 X14.8070 Y16.6442
G00 Z1.0000
G00 X16.7650 Y16.3839
G01 F25.00
G01 Z-0.1000
G01 F70.00
G01 X16.7746 Y16.3999
G01 X16.7978 Y16.3999
G01 X16.7800 Y16.3919
G01 X16.7650 Y16.3839
G00 Z1.0000
G00 X16.7953 Y17.4401
G01 F25.00
G01 Z-0.1000
G01 F70.00
G01 X16.7746 Y17.4401
G01 X16.7626 Y17.4601
G01 X16.7788 Y17.4494
G01 X16.7953 Y17.4401
G00 Z1.0000
G00 X16.7314 Y19.2457
G01 F25.00
G01 Z-0.1000
G01 F70.00
G01 X16.8853 Y19.3996
G01 X16.9248 Y19.3148
G01 X16.9769 Y19.1205
G01 X16.9944 Y18.9200
G01 X16.9769 Y18.7195
G01 X16.9248 Y18.5252
G01 X16.8853 Y18.4404
G01 X16.7314 Y18.5943
G01 X16.7468 Y18.6372
G01 X16.7501 Y18.6478
G01 X16.7701 Y18.7275
G01 X16.7724 Y18.7383
G01 X16.7854 Y18.8269
G01 X16.7900 Y18.9200
G01 X16.7854 Y19.0131
G01 X16.7724 Y19.1017
G01 X16.7701 Y19.1125
G01 X16.7501 Y19.1922
G01 X16.7468 Y19.2028
G01 X16.7314 Y19.2457
G00 Z1.0000
G00 X15.3604 Y19.9653
G01 F25.00
G01 Z-0.1000
G01 F70.00
G01 X15.4452 Y20.0048
G01 X15.6395 Y20.0569
G01 X15.8400 Y20.0744
G01 X16.0405 Y20.0569
G01 X16.2348 Y20.0048
G01 X16.3196 Y19.9653
G01 X16.1657 Y19.8114
G01 X16.1228 Y19.8268
G01 X16.1122 Y19.8301
G01 X16.0325 Y19.8501
G01 X16.0217 Y19.8524
G01 X15.9331 Y19.8654
G01 X15.8400 Y19.8700
G01 X15.7469 Y19.8654
G01 X15.6583 Y19.8524
G01 X15.6475 Y19.8501
G01 X15.5678 Y19.8301
G01 X15.5572 Y19.8268
G01 X15.5143 Y19.8114
G01 X15.3604 Y19.9653
G00 Z1.0000
G00 X14.7947 Y19.3996
G01 F25.00
G01 Z-0.1000
G01 F70.00
G01 X14.9486 Y19.2457
G01 X14.9332 Y19.2028
G01 X14.9299 Y19.1922
G01 X14.9099 Y19.1125
G01 X14.9076 Y19.1017
G01 X14.8946 Y19.0131
G01 X14.8900 Y18.9200
G01 X14.8946 Y18.8269
G01 X14.9076 Y18.7383
G01 X14.9099 Y18.7275
G01 X14.9299 Y18.6478
G01 X14.9332 Y18.6372
G01 X14.9486 Y18.5943
G01 X14.7947 Y18.4404
G01 X14.7552 Y18.5252
G01 X14.7031 Y18.7195
G01 X14.6856 Y18.9200
G01 X14.7031 Y19.1205
G01 X14.7552 Y19.3148
G01 X14.7947 Y19.3996
G00 Z1.0000
G00 X16.4604 Y22.8747
G01 F25.00
G01 Z-0.1000
G01 F70.00
G01 X16.6143 Y23.0286
G01 X16.6572 Y23.0132
G01 X16.6678 Y23.0099
G01 X16.7475 Y22.9899
G01 X16.7583 Y22.9876
G01 X16.8469 Y22.9746
G01 X16.9400 Y22.9700
G01 X17.0331 Y22.9746
G01 X17.1217 Y22.9876
G01 X17.1325 Y22.9899
G01 X17.2122 Y23.0099
G01 X17.2228 Y23.0132
G01 X17.2657 Y23.0286
G01 X17.4196 Y22.8747
G01 X17.3348 Y22.8352
G01 X17.1405 Y22.7831
G01 X16.9400 Y22.7656
G01 X16.7395 Y22.7831
G01 X16.5452 Y22.8352
G01 X16.4604 Y22.8747
G00 Z1.0000
G00 X17.8314 Y23.5943
G01 F25.00
G01 Z-0.1000
G01 F70.00
G01 X17.8468 Y23.6372
G01 X17.8501 Y23.6478
G01 X17.8701 Y23.7275
G01 X17.8724 Y23.7383
G01 X17.8854 Y23.8269
G01 X17.8900 Y23.9200
G01 X17.8854 Y24.0131
G01 X17.8724 Y24.1017
G01 X17.8701 Y24.1125
G01 X17.8501 Y24.1922
G01 X17.8468 Y24.2028
G01 X17.8314 Y24.2457
G01 X17.9853 Y24.3996
G01 X18.0248 Y24.3148
G01 X18.0769 Y24.1205
G01 X18.0944 Y23.9200
G01 X18.0769 Y23.7195
G01 X18.0248 Y23.5252
G01 X17.9853 Y23.4404
G01 X17.8314 Y23.5943
G00 Z1.0000
G00 X16.7571 Y25.0949
G01 F25.00
G01 Z-0.1000
G01 F70.00
G01 X16.8073 Y25.1023
G01 X16.8300 Y25.1049
G01 X16.9209 Y25.1095
G01 X16.9385 Y25.1100
G01 X16.9584 Y25.1096
G01 X17.0500 Y25.1049
G01 X17.0727 Y25.1023
G01 X17.1225 Y25.0950
G01 X17.1193 Y25.1140
G01 X17.1171 Y25.1333
G01 X17.1159 Y25.1496
G01 X17.1154 Y25.1690
G01 X17.1159 Y25.1883
G01 X17.1174 Y25.2077
G01 X17.1198 Y25.2269
G01 X17.1230 Y25.2451
G01 X17.0727 Y25.2377
G01 X17.0500 Y25.2351
G01 X17.0376 Y25.2343
G01 X16.9591 Y25.2305
G01 X16.9415 Y25.2300
G01 X16.9216 Y25.2304
G01 X16.8300 Y25.2351
G01 X16.8073 Y25.2377
G01 X16.7574 Y25.2450
G01 X16.7603 Y25.2283
G01 X16.7627 Y25.2091
G01 X16.7641 Y25.1898
G01 X16.7646 Y25.1704
G01 X16.7641 Y25.1511
G01 X16.7626 Y25.1318
G01 X16.7602 Y25.1125
G01 X16.7571 Y25.0949
G01 X17.3315 Y25.4247
G01 X17.2632 Y25.4002
G01 X17.2492 Y25.3957
G01 X17.1617 Y25.3735
G01 X17.1473 Y25.3703
G01 X17.1357 Y25.3683
G01 X17.0463 Y25.3553
G01 X17.0317 Y25.3542
G01 X16.9415 Y25.3500
G01 X16.9268 Y25.3503
G01 X16.8366 Y25.3550
G01 X16.8220 Y25.3568
G01 X16.7327 Y25.3703
G01 X16.7183 Y25.3735
G01 X16.6308 Y25.3957
G01 X16.6168 Y25.4002
G01 X16.5493 Y25.4244
G01 X16.5643 Y25.4073
G01 X16.5724 Y25.3969
G01 X16.5783 Y25.3884
G01 X16.5902 Y25.3690
G01 X16.5963 Y25.3573
G01 X16.6007 Y25.3480
G01 X16.6069 Y25.3331
G01 X16.6124 Y25.3171
G01 X16.6334 Y25.2474
G01 X16.6369 Y25.2344
G01 X16.6392 Y25.2243
G01 X16.6415 Y25.2111
G01 X16.6432 Y25.1978
G01 X16.6445 Y25.1747
G01 X16.6444 Y25.1613
G01 X16.6438 Y25.1509
G01 X16.6412 Y25.1280
G01 X16.6387 Y25.1148
G01 X16.6356 Y25.1017
G01 X16.6151 Y25.0295
G01 X16.6093 Y25.0118
G01 X16.6019 Y24.9934
G01 X16.6468 Y24.9486
G01 X16.7183 Y24.9665
G01 X16.7327 Y24.9697
G01 X16.8234 Y24.9834
G01 X16.8366 Y24.9850
G01 X16.8469 Y24.9857
G01 X16.9385 Y24.9900
G01 X16.9532 Y24.9897
G01 X17.0331 Y24.9857
G01 X17.0434 Y24.9850
G01 X17.0566 Y24.9834
G01 X17.1473 Y24.9697
G01 X17.1617 Y24.9665
G01 X17.2332 Y24.9486
G01 X17.2783 Y24.9937
G01 X17.2731 Y25.0063
G01 X17.2687 Y25.0188
G01 X17.2470 Y25.0906
G01 X17.2422 Y25.1086
G01 X17.2391 Y25.1247
G01 X17.2372 Y25.1380
G01 X17.2362 Y25.1484
G01 X17.2355 Y25.1617
G01 X17.2355 Y25.1752
G01 X17.2362 Y25.1885
G01 X17.2375 Y25.2019
G01 X17.2413 Y25.2247
G01 X17.2454 Y25.2413
G01 X17.2664 Y25.3149
G01 X17.2717 Y25.3305
G01 X17.2782 Y25.3463
G01 X17.2885 Y25.3670
G01 X17.2937 Y25.3760
G01 X17.3010 Y25.3873
G01 X17.3147 Y25.4058
G01 X17.3234 Y25.4160
G01 X17.3315 Y25.4247
G00 Z1.0000
G00 X16.0174 Y25.8799
G01 F25.00
G01 Z-0.1000
G01 F70.00
G01 X16.0012 Y25.8906
G01 X15.9847 Y25.8999
G01 X16.0054 Y25.8999
G01 X16.0174 Y25.8799
G00 Z1.0000
G00 X15.9822 Y26.9401
G01 F25.00
G01 Z-0.1000
G01 F70.00
G01 X16.0000 Y26.9481
G01 X16.0150 Y26.9561
G01 X16.0054 Y26.9401
G01 X15.9822 Y26.9401
G00 Z1.0000
G00 X17.2061 Y27.4554
G01 F25.00
G01 Z-0.1000
G01 F70.00
G01 X17.2335 Y27.4610
G01 X17.2494 Y27.4650
G01 X17.2331 Y27.4487
G01 X17.2061 Y27.4554
G00 Z1.0000
G00 X17.9844 Y26.7289
G01 F25.00
G01 Z-0.1000
G01 F70.00
G01 X17.9783 Y26.7129
G01 X17.9730 Y26.6958
G01 X17.9687 Y26.7131
G01 X17.9844 Y26.7289
G00 Z1.0000
G00 X15.8947 Y24.3996
G01 F25.00
G01 Z-0.1000
G01 F70.00
G01 X16.0486 Y24.2457
G01 X16.0332 Y24.2028
G01 X16.0299 Y24.1922
G01 X16.0099 Y24.1125
G01 X16.0076 Y24.1017
G01 X15.9946 Y24.0131
G01 X15.9900 Y23.9200
G01 X15.9946 Y23.8269
G01 X16.0076 Y23.7383
G01 X16.0099 Y23.7275
G01 X16.0299 Y23.6478
G01 X16.0332 Y23.6372
G01 X16.0486 Y23.5943
G01 X15.8947 Y23.4404
G01 X15.8552 Y23.5252
G01 X15.8031 Y23.7195
G01 X15.7856 Y23.9200
G01 X15.8031 Y24.1205
G01 X15.8552 Y24.3148
G01 X15.8947 Y24.3996
G00 Z1.0000
G00 X11.2781 Y25.1326
G01 F25.00
G01 Z-0.1000
G01 F70.00
G01 X11.2720 Y25.1165
G01 X11.2662 Y25.0977
G01 X11.2618 Y25.0785
G01 X11.2591 Y25.0615
G01 X11.2454 Y25.0998
G01 X11.2781 Y25.1326
G00 Z1.0000
G00 X10.4651 Y25.8513
G01 F25.00
G01 Z-0.1000
G01 F70.00
G01 X10.4839 Y25.8529
G01 X10.5033 Y25.8559
G01 X10.5225 Y25.8603
G01 X10.5402 Y25.8658
G01 X10.5098 Y25.8354
G01 X10.4651 Y25.8513
G00 Z1.0000
G00 X8.7619 Y24.0874
G01 F25.00
G01 Z-0.1000
G01 F70.00
G01 X8.7680 Y24.1035
G01 X8.7738 Y24.1223
G01 X8.7782 Y24.1415
G01 X8.7809 Y24.1585
G01 X8.7946 Y24.1202
G01 X8.7619 Y24.0874
G00 Z1.0000
G00 X9.5749 Y23.3687
G01 F25.00
G01 Z-0.1000
G01 F70.00
G01 X9.5561 Y23.3671
G01 X9.5367 Y23.3641
G01 X9.5175 Y23.3596
G01 X9.4998 Y23.3542
G01 X9.5302 Y23.3846
G01 X9.5749 Y23.3687
G00 Z1.0000
G00 X6.1019 Y25.1262
G01 F25.00
G01 Z-0.1000
G01 F70.00
G01 X6.2530 Y25.2773
G01 X6.2713 Y25.2476
G01 X6.3556 Y25.0440
G01 X6.4070 Y24.8297
G01 X6.4243 Y24.6100
G01 X6.4070 Y24.3903
G01 X6.3556 Y24.1760
G01 X6.2713 Y23.9724
G01 X6.2530 Y23.9427
G01 X6.1019 Y24.0938
G01 X6.1257 Y24.1440
G01 X6.1300 Y24.1542
G01 X6.1672 Y24.2581
G01 X6.1703 Y24.2688
G01 X6.1962 Y24.3723
G01 X6.1982 Y24.3831
G01 X6.2142 Y24.4924
G01 X6.2200 Y24.6100
G01 X6.2142 Y24.7276
G01 X6.1982 Y24.8369
G01 X6.1962 Y24.8477
G01 X6.1703 Y24.9512
G01 X6.1672 Y24.9619
G01 X6.1300 Y25.0658
G01 X6.1257 Y25.0760
G01 X6.1019 Y25.1262
G00 Z1.0000
G00 X4.5038 Y25.6919
G01 F25.00
G01 Z-0.1000
G01 F70.00
G01 X4.3527 Y25.8430
G01 X4.3824 Y25.8613
G01 X4.5860 Y25.9456
G01 X4.8003 Y25.9970
G01 X5.0200 Y26.0143
G01 X5.2397 Y25.9970
G01 X5.4540 Y25.9456
G01 X5.6576 Y25.8613
G01 X5.6873 Y25.8430
G01 X5.5362 Y25.6919
G01 X5.4860 Y25.7157
G01 X5.4758 Y25.7200
G01 X5.3719 Y25.7572
G01 X5.3612 Y25.7603
G01 X5.2577 Y25.7862
G01 X5.2469 Y25.7882
G01 X5.1376 Y25.8042
G01 X5.0200 Y25.8100
G01 X4.9024 Y25.8042
G01 X4.7931 Y25.7882
G01 X4.7823 Y25.7862
G01 X4.6788 Y25.7603
G01 X4.6681 Y25.7572
G01 X4.5642 Y25.7200
G01 X4.5540 Y25.7157
G01 X4.5038 Y25.6919
G00 Z1.0000
G00 X3.6157 Y24.6100
G01 F25.00
G01 Z-0.1000
G01 F70.00
G01 X3.6330 Y24.8297
G01 X3.6844 Y25.0440
G01 X3.7687 Y25.2476
G01 X3.7870 Y25.2773
G01 X3.9381 Y25.1262
G01 X3.9143 Y25.0760
G01 X3.9100 Y25.0658
G01 X3.8728 Y24.9619
G01 X3.8697 Y24.9512
G01 X3.8438 Y24.8477
G01 X3.8418 Y24.8369
G01 X3.8258 Y24.7276
G01 X3.8200 Y24.6100
G01 X3.8258 Y24.4924
G01 X3.8418 Y24.3831
G01 X3.8438 Y24.3723
G01 X3.8697 Y24.2688
G01 X3.8728 Y24.2581
G01 X3.9100 Y24.1542
G01 X3.9143 Y24.1440
G01 X3.9381 Y24.0938
G01 X3.7870 Y23.9427
G01 X3.7687 Y23.9724
G01 X3.6844 Y24.1760
G01 X3.6330 Y24.3903
G01 X3.6157 Y24.6100
G00 Z1.0000
G00 X4.5038 Y23.5281
G01 F25.00
G01 Z-0.1000
G01 F70.00
G01 X4.5540 Y23.5043
G01 X4.5642 Y23.5000
G01 X4.6681 Y23.4628
G01 X4.6788 Y23.4597
G01 X4.7823 Y23.4338
G01 X4.7931 Y23.4318
G01 X4.9024 Y23.4158
G01 X5.0200 Y23.4100
G01 X5.1376 Y23.4158
G01 X5.2469 Y23.4318
G01 X5.2577 Y23.4338
G01 X5.3612 Y23.4597
G01 X5.3719 Y23.4628
G01 X5.4758 Y23.5000
G01 X5.4860 Y23.5043
G01 X5.5362 Y23.5281
G01 X5.6873 Y23.3770
G01 X5.6576 Y23.3587
G01 X5.4540 Y23.2744
G01 X5.2397 Y23.2230
G01 X5.0200 Y23.2057
G01 X4.8003 Y23.2230
G01 X4.5860 Y23.2744
G01 X4.3825 Y23.3587
G01 X4.3527 Y23.3770
G01 X4.5038 Y23.5281
G00 Z1.0000
G00 X5.2362 Y19.0906
G01 F25.00
G01 Z-0.1000
G01 F70.00
G01 X5.2309 Y19.0771
G01 X5.2267 Y19.0644
G01 X5.2222 Y19.0479
G01 X5.2194 Y19.0347
G01 X5.2170 Y19.0185
G01 X5.2157 Y19.0052
G01 X5.2150 Y18.9918
G01 X5.2152 Y18.9747
G01 X5.2211 Y18.8915
G01 X5.2226 Y18.8780
G01 X5.2249 Y18.8646
G01 X5.2295 Y18.8447
G01 X5.2344 Y18.8288
G01 X5.2417 Y18.8098
G01 X5.2495 Y18.7933
G01 X5.2283 Y18.8024
G01 X5.2186 Y18.8059
G01 X5.2059 Y18.8098
G01 X5.1931 Y18.8131
G01 X5.1801 Y18.8158
G01 X5.1575 Y18.8188
G01 X5.1443 Y18.8197
G01 X5.1325 Y18.8200
G01 X4.9656 Y18.8200
G01 X5.2362 Y19.0906
G01 X5.5225 Y18.2029
G01 X5.5225 Y18.3290
G01 X5.5617 Y18.3144
G01 X5.5818 Y18.3077
G01 X5.5399 Y18.2374
G01 X5.5323 Y18.2232
G01 X5.5225 Y18.2029
G01 X5.5225 Y16.7751
G01 X5.5225 Y16.8971
G01 X5.5274 Y16.8867
G01 X5.5284 Y16.8848
G01 X5.5323 Y16.8768
G01 X5.5414 Y16.8600
G01 X5.5830 Y16.7904
G01 X5.5644 Y16.7866
G01 X5.5506 Y16.7834
G01 X5.5363 Y16.7794
G01 X5.5225 Y16.7751
G01 X5.4024 Y16.5448
G01 X5.4024 Y18.5585
G01 X5.4136 Y18.5435
G01 X5.4145 Y18.5423
G01 X5.4229 Y18.5318
G01 X5.4317 Y18.5217
G01 X5.4411 Y18.5121
G01 X5.4509 Y18.5030
G01 X5.4612 Y18.4944
G01 X5.4719 Y18.4863
G01 X5.4861 Y18.4767
G01 X5.5061 Y18.4652
G01 X5.5155 Y18.4606
G01 X5.5278 Y18.4553
G01 X5.6009 Y18.4279
G01 X5.6185 Y18.4220
G01 X5.6409 Y18.4164
G01 X5.6541 Y18.4140
G01 X5.6645 Y18.4126
G01 X5.6875 Y18.4110
G01 X5.7009 Y18.4109
G01 X5.7113 Y18.4113
G01 X5.7277 Y18.4128
G01 X5.7446 Y18.4154
G01 X5.8298 Y18.4340
G01 X5.7837 Y18.3831
G01 X5.7741 Y18.3719
G01 X5.7103 Y18.2863
G01 X5.7027 Y18.2755
G01 X5.6972 Y18.2667
G01 X5.6476 Y18.1840
G01 X5.6412 Y18.1725
G01 X5.6365 Y18.1633
G01 X5.5911 Y18.0667
G01 X5.5858 Y18.0530
G01 X5.5543 Y17.9650
G01 X5.5506 Y17.9538
G01 X5.5470 Y17.9410
G01 X5.5239 Y17.8489
G01 X5.5227 Y17.8439
G01 X5.5220 Y17.8410
G01 X5.5213 Y17.8374
G01 X5.5187 Y17.8229
G01 X5.5039 Y17.7224
G01 X5.5024 Y17.7041
G01 X5.4976 Y17.6056
G01 X5.4975 Y17.5025
G01 X5.4978 Y17.4893
G01 X5.5033 Y17.3841
G01 X5.5050 Y17.3695
G01 X5.5207 Y17.2654
G01 X5.5220 Y17.2590
G01 X5.5227 Y17.2561
G01 X5.5239 Y17.2511
G01 X5.5497 Y17.1490
G01 X5.5543 Y17.1350
G01 X5.5886 Y17.0395
G01 X5.5959 Y17.0226
G01 X5.6412 Y16.9275
G01 X5.6484 Y16.9147
G01 X5.7007 Y16.8276
G01 X5.7112 Y16.8125
G01 X5.7741 Y16.7281
G01 X5.7837 Y16.7169
G01 X5.8326 Y16.6629
G01 X5.8003 Y16.6752
G01 X5.7875 Y16.6791
G01 X5.7745 Y16.6824
G01 X5.7577 Y16.6856
G01 X5.7444 Y16.6874
G01 X5.7310 Y16.6885
G01 X5.7176 Y16.6890
G01 X5.6946 Y16.6882
G01 X5.6812 Y16.6868
G01 X5.6709 Y16.6853
G01 X5.5943 Y16.6703
G01 X5.5762 Y16.6660
G01 X5.5542 Y16.6590
G01 X5.5444 Y16.6553
G01 X5.5321 Y16.6499
G01 X5.5117 Y16.6392
G01 X5.5002 Y16.6322
G01 X5.4916 Y16.6264
G01 X5.4785 Y16.6166
G01 X5.4654 Y16.6055
G01 X5.4024 Y16.5448
G00 Z1.0000
G00 X3.0775 Y16.5500
G01 F25.00
G01 Z-0.1000
G01 F70.00
G01 X3.0782 Y16.5353
G01 X3.0804 Y16.5207
G01 X3.0840 Y16.5065
G01 X3.0876 Y16.4960
G01 X3.0935 Y16.4826
G01 X3.1008 Y16.4698
G01 X3.1092 Y16.4577
G01 X3.1189 Y16.4466
G01 X3.1295 Y16.4364
G01 X3.1411 Y16.4274
G01 X3.1536 Y16.4195
G01 X3.1667 Y16.4129
G01 X3.1804 Y16.4076
G01 X3.1946 Y16.4036
G01 X3.2091 Y16.4011
G01 X3.2201 Y16.4002
G01 X5.1362 Y16.4000
G01 X5.1509 Y16.4011
G01 X5.1654 Y16.4036
G01 X5.1796 Y16.4076
G01 X5.1933 Y16.4129
G01 X5.2064 Y16.4195
G01 X5.2189 Y16.4274
G01 X5.2305 Y16.4364
G01 X5.2411 Y16.4466
G01 X5.2508 Y16.4577
G01 X5.2572 Y16.4667
G01 X5.2648 Y16.4793
G01 X5.2711 Y16.4926
G01 X5.2760 Y16.5065
G01 X5.2789 Y16.5171
G01 X5.2814 Y16.5316
G01 X5.2825 Y16.5463
G01 X5.2825 Y18.5500
G01 X5.2823 Y18.5574
G01 X5.2814 Y18.5684
G01 X5.2796 Y18.5793
G01 X5.2780 Y18.5864
G01 X5.2749 Y18.5971
G01 X5.2711 Y18.6074
G01 X5.2665 Y18.6174
G01 X5.2612 Y18.6271
G01 X5.2572 Y18.6333
G01 X5.2508 Y18.6423
G01 X5.2436 Y18.6507
G01 X5.2359 Y18.6586
G01 X5.2277 Y18.6660
G01 X5.2189 Y18.6726
G01 X5.2096 Y18.6787
G01 X5.2032 Y18.6823
G01 X5.1933 Y18.6871
G01 X5.1830 Y18.6912
G01 X5.1725 Y18.6946
G01 X5.1618 Y18.6971
G01 X5.1472 Y18.6993
G01 X5.1325 Y18.7000
G01 X4.6759 Y18.7000
G01 X9.5039 Y23.5280
G01 X9.5540 Y23.5043
G01 X9.5642 Y23.5000
G01 X9.6647 Y23.4640
G01 X9.6752 Y23.4606
G01 X9.7859 Y23.4331
G01 X9.8987 Y23.4162
G01 X9.9097 Y23.4152
G01 X10.0126 Y23.4102
G01 X10.0274 Y23.4102
G01 X10.1376 Y23.4158
G01 X10.2505 Y23.4324
G01 X10.2613 Y23.4347
G01 X10.3612 Y23.4597
G01 X10.3753 Y23.4640
G01 X10.4792 Y23.5013
G01 X10.5857 Y23.5517
G01 X10.6805 Y23.6083
G01 X10.6927 Y23.6165
G01 X10.7813 Y23.6824
G01 X10.8685 Y23.7615
G01 X10.9476 Y23.8487
G01 X11.0135 Y23.9373
G01 X11.0217 Y23.9495
G01 X11.0783 Y24.0443
G01 X11.1287 Y24.1508
G01 X11.1660 Y24.2547
G01 X11.1703 Y24.2688
G01 X11.1953 Y24.3687
G01 X11.1976 Y24.3795
G01 X11.2142 Y24.4924
G01 X11.2198 Y24.6026
G01 X11.2198 Y24.6174
G01 X11.2148 Y24.7203
G01 X11.2138 Y24.7313
G01 X11.1969 Y24.8441
G01 X11.1694 Y24.9548
G01 X11.1660 Y24.9653
G01 X11.1300 Y25.0658
G01 X11.1257 Y25.0760
G01 X11.1020 Y25.1261
G01 X11.9957 Y26.0199
G01 X16.0794 Y26.0199
G01 X16.0989 Y25.9787
G01 X16.1039 Y25.9689
G01 X16.1462 Y25.8984
G01 X16.1522 Y25.8892
G01 X16.2056 Y25.8173
G01 X16.2657 Y25.7509
G01 X16.2736 Y25.7432
G01 X16.3318 Y25.6904
G01 X16.3431 Y25.6811
G01 X16.4122 Y25.6301
G01 X16.4858 Y25.5858
G01 X16.4954 Y25.5805
G01 X16.5765 Y25.5423
G01 X16.6642 Y25.5109
G01 X16.7547 Y25.4883
G01 X16.8396 Y25.4755
G01 X16.8542 Y25.4740
G01 X16.9326 Y25.4702
G01 X16.9474 Y25.4702
G01 X17.0331 Y25.4746
G01 X17.1217 Y25.4876
G01 X17.1325 Y25.4899
G01 X17.2158 Y25.5109
G01 X17.3035 Y25.5423
G01 X17.3878 Y25.5822
G01 X17.4678 Y25.6301
G01 X17.5427 Y25.6856
G01 X17.6118 Y25.7482
G01 X17.6744 Y25.8173
G01 X17.7299 Y25.8922
G01 X17.7778 Y25.9722
G01 X17.8147 Y26.0497
G01 X17.8203 Y26.0633
G01 X17.8491 Y26.1442
G01 X17.8701 Y26.2275
G01 X17.8730 Y26.2419
G01 X17.8850 Y26.3232
G01 X17.8860 Y26.3342
G01 X17.8900 Y26.4200
G01 X17.8860 Y26.5058
G01 X17.8850 Y26.5168
G01 X17.8730 Y26.5981
G01 X17.8710 Y26.6089
G01 X17.8501 Y26.6922
G01 X17.8468 Y26.7028
G01 X17.8315 Y26.7456
G01 X18.2057 Y27.1199
G01 X48.7943 Y27.1199
G01 X51.2099 Y24.7043
G01 X51.2099 Y11.7650
G01 X50.6350 Y11.7650
G01 X50.6240 Y11.7646
G01 X50.6130 Y11.7634
G01 X50.6021 Y11.7614
G01 X50.5915 Y11.7585
G01 X50.5810 Y11.7549
G01 X50.5742 Y11.7521
G01 X50.5643 Y11.7473
G01 X50.5548 Y11.7417
G01 X50.5486 Y11.7376
G01 X50.5398 Y11.7310
G01 X50.5316 Y11.7236
G01 X50.5239 Y11.7157
G01 X50.5167 Y11.7073
G01 X50.5103 Y11.6983
G01 X50.5063 Y11.6921
G01 X50.5010 Y11.6824
G01 X50.4964 Y11.6724
G01 X50.4926 Y11.6621
G01 X50.4895 Y11.6514
G01 X50.4872 Y11.6406
G01 X50.4854 Y11.6260
G01 X50.4850 Y11.6150
G01 X50.4850 Y9.6650
G01 X50.4854 Y9.6540
G01 X50.4861 Y9.6466
G01 X50.4886 Y9.6321
G01 X50.4926 Y9.6179
G01 X50.4964 Y9.6076
G01 X50.5010 Y9.5976
G01 X50.5063 Y9.5879
G01 X50.5145 Y9.5756
G01 X50.5214 Y9.5670
G01 X50.5289 Y9.5589
G01 X50.5370 Y9.5514
G01 X50.5456 Y9.5445
G01 X50.5579 Y9.5363
G01 X50.5676 Y9.5310
G01 X50.5810 Y9.5251
G01 X50.5950 Y9.5204
G01 X50.6057 Y9.5179
G01 X50.6166 Y9.5161
G01 X50.6276 Y9.5152
G01 X52.5850 Y9.5150
G01 X52.5997 Y9.5157
G01 X52.6143 Y9.5179
G01 X52.6285 Y9.5215
G01 X52.6390 Y9.5251
G01 X52.6491 Y9.5294
G01 X52.6621 Y9.5363
G01 X52.6744 Y9.5445
G01 X52.6830 Y9.5514
G01 X52.6911 Y9.5589
G01 X52.7010 Y9.5698
G01 X52.7097 Y9.5817
G01 X52.7155 Y9.5911
G01 X52.7206 Y9.6009
G01 X52.7262 Y9.6145
G01 X52.7305 Y9.6286
G01 X52.7334 Y9.6430
G01 X52.7346 Y9.6540
G01 X52.7350 Y9.6650
G01 X52.7350 Y11.6150
G01 X52.7346 Y11.6260
G01 X52.7334 Y11.6370
G01 X52.7314 Y11.6479
G01 X52.7274 Y11.6621
G01 X52.7236 Y11.6724
G01 X52.7190 Y11.6824
G01 X52.7137 Y11.6921
G01 X52.7076 Y11.7014
G01 X52.7033 Y11.7073
G01 X52.6961 Y11.7157
G01 X52.6884 Y11.7236
G01 X52.6802 Y11.7310
G01 X52.6714 Y11.7376
G01 X52.6621 Y11.7437
G01 X52.6524 Y11.7490
G01 X52.6458 Y11.7521
G01 X52.6355 Y11.7562
G01 X52.6250 Y11.7596
G01 X52.6179 Y11.7614
G01 X52.6070 Y11.7634
G01 X52.5960 Y11.7646
G01 X52.5850 Y11.7650
G01 X52.0101 Y11.7650
G01 X52.0101 Y24.8700
G01 X52.0082 Y24.9092
G01 X52.0024 Y24.9481
G01 X51.9929 Y24.9862
G01 X51.9823 Y25.0163
G01 X51.9767 Y25.0299
G01 X51.9629 Y25.0586
G01 X51.9466 Y25.0861
G01 X51.9385 Y25.0983
G01 X51.9193 Y25.1238
G01 X51.8955 Y25.1503
G01 X49.2429 Y27.8029
G01 X49.2138 Y27.8293
G01 X49.1883 Y27.8485
G01 X49.1761 Y27.8566
G01 X49.1518 Y27.8711
G01 X49.1420 Y27.8762
G01 X49.1131 Y27.8897
G01 X49.0762 Y27.9029
G01 X49.0381 Y27.9124
G01 X49.0065 Y27.9173
G01 X48.9919 Y27.9187
G01 X48.9600 Y27.9201
G01 X18.0363 Y27.9201
G01 X18.0008 Y27.9182
G01 X17.9656 Y27.9131
G01 X17.9548 Y27.9108
G01 X17.9309 Y27.9049
G01 X17.9169 Y27.9006
G01 X17.8869 Y27.8897
G01 X17.8514 Y27.8729
G01 X17.8177 Y27.8527
G01 X17.7890 Y27.8316
G01 X17.7806 Y27.8245
G01 X17.7571 Y27.8029
G01 X17.2656 Y27.3115
G01 X17.2228 Y27.3268
G01 X17.2122 Y27.3301
G01 X17.1289 Y27.3510
G01 X17.1181 Y27.3530
G01 X17.0368 Y27.3650
G01 X17.0258 Y27.3660
G01 X16.9400 Y27.3700
G01 X16.8506 Y27.3657
G01 X16.8396 Y27.3645
G01 X16.7547 Y27.3517
G01 X16.6642 Y27.3291
G01 X16.5765 Y27.2977
G01 X16.4987 Y27.2611
G01 X16.4889 Y27.2561
G01 X16.4122 Y27.2099
G01 X16.3431 Y27.1589
G01 X16.3318 Y27.1496
G01 X16.2736 Y27.0968
G01 X16.2657 Y27.0891
G01 X16.2056 Y27.0227
G01 X16.1522 Y26.9508
G01 X16.1462 Y26.9416
G01 X16.1039 Y26.8711
G01 X16.0989 Y26.8613
G01 X16.0794 Y26.8201
G01 X11.8300 Y26.8201
G01 X11.7908 Y26.8182
G01 X11.7592 Y26.8137
G01 X11.7448 Y26.8108
G01 X11.7138 Y26.8029
G01 X11.6837 Y26.7923
G01 X11.6701 Y26.7867
G01 X11.6414 Y26.7729
G01 X11.6139 Y26.7566
G01 X11.6017 Y26.7485
G01 X11.5762 Y26.7293
G01 X11.5524 Y26.7080
G01 X10.5361 Y25.6920
G01 X10.4860 Y25.7157
G01 X10.4758 Y25.7200
G01 X10.3753 Y25.7560
G01 X10.3648 Y25.7594
G01 X10.2541 Y25.7869
G01 X10.1413 Y25.8038
G01 X10.1303 Y25.8048
G01 X10.0274 Y25.8098
G01 X10.0126 Y25.8098
G01 X9.9024 Y25.8042
G01 X9.7895 Y25.7876
G01 X9.7787 Y25.7853
G01 X9.6788 Y25.7603
G01 X9.6647 Y25.7560
G01 X9.5608 Y25.7187
G01 X9.4543 Y25.6683
G01 X9.3595 Y25.6117
G01 X9.3473 Y25.6035
G01 X9.2587 Y25.5376
G01 X9.1741 Y25.4611
G01 X9.1664 Y25.4532
G01 X9.0972 Y25.3768
G01 X9.0879 Y25.3655
G01 X9.0222 Y25.2767
G01 X8.9617 Y25.1757
G01 X8.9113 Y25.0692
G01 X8.8740 Y24.9653
G01 X8.8697 Y24.9512
G01 X8.8447 Y24.8513
G01 X8.8424 Y24.8405
G01 X8.8258 Y24.7276
G01 X8.8202 Y24.6174
G01 X8.8202 Y24.6026
G01 X8.8252 Y24.4997
G01 X8.8262 Y24.4887
G01 X8.8431 Y24.3759
G01 X8.8706 Y24.2652
G01 X8.8740 Y24.2547
G01 X8.9100 Y24.1542
G01 X8.9143 Y24.1440
G01 X8.9380 Y24.0939
G01 X3.8945 Y19.0503
G01 X3.8755 Y19.0294
G01 X3.8684 Y19.0210
G01 X3.8494 Y18.9953
G01 X3.8434 Y18.9861
G01 X3.8271 Y18.9586
G01 X3.8133 Y18.9299
G01 X3.8090 Y18.9197
G01 X3.7982 Y18.8897
G01 X3.7951 Y18.8791
G01 X3.7876 Y18.8481
G01 X3.7818 Y18.8092
G01 X3.7799 Y18.7737
G01 X3.7799 Y18.7000
G01 X3.2275 Y18.7000
G01 X3.2165 Y18.6996
G01 X3.2019 Y18.6978
G01 X3.1875 Y18.6946
G01 X3.1735 Y18.6899
G01 X3.1601 Y18.6840
G01 X3.1473 Y18.6767
G01 X3.1352 Y18.6683
G01 X3.1241 Y18.6586
G01 X3.1139 Y18.6480
G01 X3.1070 Y18.6394
G01 X3.0988 Y18.6271
G01 X3.0935 Y18.6174
G01 X3.0876 Y18.6040
G01 X3.0829 Y18.5900
G01 X3.0804 Y18.5793
G01 X3.0786 Y18.5684
G01 X3.0775 Y18.5537
G01 X3.0775 Y16.5500
G00 Z1.0000
G00 X2.8770 Y18.5898
G01 F25.00
G01 Z-0.1000
G01 F70.00
G01 X2.8805 Y18.6227
G01 X2.9167 Y18.7197
G01 X2.9771 Y18.8004
G01 X3.0578 Y18.8608
G01 X3.1548 Y18.8970
G01 X3.1877 Y18.9005
G01 X3.3993 Y18.9005
G01 X3.4136 Y18.9012
G01 X3.4277 Y18.9032
G01 X3.4416 Y18.9066
G01 X3.5086 Y18.9263
G01 X3.5227 Y18.9311
G01 X3.5328 Y18.9357
G01 X3.5458 Y18.9429
G01 X3.5579 Y18.9514
G01 X3.5692 Y18.9610
G01 X3.6109 Y19.0022
G01 X3.6179 Y19.0100
G01 X3.6243 Y19.0182
G01 X3.6723 Y19.0909
G01 X3.7105 Y19.1526
G01 X3.7631 Y19.2023
G01 X8.5856 Y24.0249
G01 X8.5929 Y24.0327
G01 X8.6017 Y24.0439
G01 X8.6095 Y24.0559
G01 X8.6480 Y24.1268
G01 X8.6538 Y24.1403
G01 X8.6581 Y24.1542
G01 X8.6605 Y24.1648
G01 X8.6625 Y24.1793
G01 X8.6630 Y24.1939
G01 X8.6624 Y24.2492
G01 X8.6615 Y24.2641
G01 X8.6605 Y24.2716
G01 X8.6583 Y24.2826
G01 X8.6325 Y24.3902
G01 X8.6152 Y24.6100
G01 X8.6325 Y24.8298
G01 X8.6839 Y25.0441
G01 X8.7683 Y25.2478
G01 X8.8835 Y25.4357
G01 X9.0266 Y25.6034
G01 X9.1943 Y25.7465
G01 X9.3822 Y25.8617
G01 X9.5859 Y25.9461
G01 X9.8002 Y25.9975
G01 X10.0200 Y26.0148
G01 X10.2398 Y25.9975
G01 X10.3509 Y25.9709
G01 X10.3650 Y25.9686
G01 X10.3757 Y25.9677
G01 X10.3899 Y25.9677
G01 X10.4597 Y25.9712
G01 X10.4742 Y25.9727
G01 X10.4850 Y25.9747
G01 X10.4990 Y25.9785
G01 X10.5126 Y25.9837
G01 X10.5225 Y25.9885
G01 X10.5320 Y25.9940
G01 X10.5820 Y26.0254
G01 X10.5911 Y26.0320
G01 X10.6025 Y26.0418
G01 X11.3603 Y26.7996
G01 X11.3653 Y26.8048
G01 X11.3795 Y26.8212
G01 X11.3902 Y26.8349
G01 X11.4193 Y26.8593
G01 X11.4301 Y26.8693
G01 X11.4524 Y26.8870
G01 X11.5047 Y26.9309
G01 X11.5663 Y26.9596
G01 X11.6310 Y26.9920
G01 X11.7022 Y27.0068
G01 X11.7683 Y27.0225
G01 X11.8409 Y27.0205
G01 X15.8133 Y27.0205
G01 X15.8276 Y27.0212
G01 X15.8382 Y27.0226
G01 X15.8452 Y27.0239
G01 X15.8556 Y27.0266
G01 X15.9295 Y27.0485
G01 X15.9396 Y27.0524
G01 X15.9493 Y27.0570
G01 X15.9556 Y27.0604
G01 X15.9648 Y27.0662
G01 X15.9735 Y27.0726
G01 X15.9817 Y27.0796
G01 X16.0214 Y27.1178
G01 X16.0265 Y27.1231
G01 X16.0335 Y27.1315
G01 X16.0553 Y27.1624
G01 X16.1976 Y27.3047
G01 X16.3626 Y27.4202
G01 X16.5450 Y27.5052
G01 X16.7395 Y27.5573
G01 X16.9400 Y27.5749
G01 X17.0938 Y27.5614
G01 X17.1045 Y27.5609
G01 X17.1152 Y27.5611
G01 X17.1223 Y27.5617
G01 X17.1329 Y27.5631
G01 X17.2085 Y27.5783
G01 X17.2155 Y27.5801
G01 X17.2259 Y27.5834
G01 X17.2327 Y27.5860
G01 X17.2426 Y27.5906
G01 X17.2522 Y27.5958
G01 X17.2643 Y27.6038
G01 X17.2973 Y27.6282
G01 X17.3087 Y27.6380
G01 X17.5703 Y27.8996
G01 X17.5754 Y27.9048
G01 X17.5895 Y27.9212
G01 X17.6002 Y27.9349
G01 X17.6293 Y27.9593
G01 X17.6401 Y27.9693
G01 X17.6624 Y27.9870
G01 X17.7144 Y28.0307
G01 X17.7803 Y28.0615
G01 X17.8413 Y28.0921
G01 X17.9079 Y28.1059
G01 X17.9786 Y28.1225
G01 X18.0509 Y28.1205
G01 X48.8963 Y28.1205
G01 X48.9036 Y28.1207
G01 X48.9252 Y28.1222
G01 X48.9424 Y28.1243
G01 X48.9803 Y28.1211
G01 X48.9949 Y28.1205
G01 X49.0232 Y28.1173
G01 X49.0909 Y28.1113
G01 X49.1592 Y28.0866
G01 X49.2240 Y28.0651
G01 X49.2809 Y28.0277
G01 X49.3426 Y27.9895
G01 X49.3923 Y27.9369
G01 X51.9896 Y25.3397
G01 X51.9948 Y25.3346
G01 X52.0112 Y25.3205
G01 X52.0249 Y25.3098
G01 X52.0493 Y25.2807
G01 X52.0593 Y25.2699
G01 X52.0770 Y25.2476
G01 X52.1209 Y25.1953
G01 X52.1496 Y25.1337
G01 X52.1821 Y25.0687
G01 X52.1959 Y25.0021
G01 X52.2125 Y24.9317
G01 X52.2105 Y24.8591
G01 X52.2107 Y12.2324
G01 X52.2120 Y12.2182
G01 X52.2147 Y12.2041
G01 X52.2363 Y12.1302
G01 X52.2398 Y12.1196
G01 X52.2426 Y12.1127
G01 X52.2457 Y12.1059
G01 X52.2511 Y12.0961
G01 X52.2571 Y12.0867
G01 X52.2615 Y12.0807
G01 X52.2687 Y12.0721
G01 X52.2764 Y12.0641
G01 X52.3348 Y12.0133
G01 X52.3435 Y12.0063
G01 X52.3528 Y11.9999
G01 X52.3625 Y11.9943
G01 X52.3726 Y11.9894
G01 X52.3866 Y11.9840
G01 X52.4011 Y11.9801
G01 X52.4526 Y11.9689
G01 X52.4632 Y11.9670
G01 X52.4738 Y11.9659
G01 X52.4845 Y11.9655
G01 X52.6248 Y11.9655
G01 X52.6577 Y11.9620
G01 X52.7547 Y11.9258
G01 X52.8354 Y11.8654
G01 X52.8958 Y11.7847
G01 X52.9320 Y11.6877
G01 X52.9355 Y11.6548
G01 X52.9355 Y9.6252
G01 X52.9320 Y9.5923
G01 X52.8958 Y9.4953
G01 X52.8354 Y9.4146
G01 X52.7547 Y9.3542
G01 X52.6577 Y9.3180
G01 X52.6248 Y9.3145
G01 X50.5952 Y9.3145
G01 X50.5623 Y9.3180
G01 X50.4653 Y9.3542
G01 X50.3846 Y9.4146
G01 X50.3242 Y9.4953
G01 X50.2880 Y9.5923
G01 X50.2845 Y9.6252
G01 X50.2845 Y11.6548
G01 X50.2880 Y11.6877
G01 X50.3242 Y11.7847
G01 X50.3846 Y11.8654
G01 X50.4653 Y11.9258
G01 X50.5623 Y11.9620
G01 X50.5952 Y11.9655
G01 X50.7391 Y11.9655
G01 X50.7533 Y11.9666
G01 X50.7674 Y11.9689
G01 X50.7778 Y11.9716
G01 X50.8448 Y11.9913
G01 X50.8554 Y11.9948
G01 X50.8657 Y11.9991
G01 X50.8756 Y12.0042
G01 X50.8852 Y12.0100
G01 X50.8943 Y12.0165
G01 X50.9056 Y12.0262
G01 X50.9134 Y12.0342
G01 X50.9617 Y12.0898
G01 X50.9709 Y12.1016
G01 X50.9751 Y12.1078
G01 X50.9807 Y12.1175
G01 X50.9841 Y12.1242
G01 X50.9885 Y12.1346
G01 X50.9921 Y12.1452
G01 X50.9940 Y12.1524
G01 X51.0068 Y12.2111
G01 X51.0084 Y12.2217
G01 X51.0093 Y12.2324
G01 X51.0095 Y24.5078
G01 X51.0088 Y24.5220
G01 X51.0068 Y24.5362
G01 X51.0044 Y24.5466
G01 X50.9837 Y24.6171
G01 X50.9802 Y24.6275
G01 X50.9775 Y24.6344
G01 X50.9744 Y24.6411
G01 X50.9692 Y24.6508
G01 X50.9611 Y24.6631
G01 X50.9374 Y24.6927
G01 X50.9292 Y24.7015
G01 X48.7890 Y26.8417
G01 X48.7782 Y26.8511
G01 X48.7695 Y26.8574
G01 X48.7635 Y26.8613
G01 X48.6928 Y26.9000
G01 X48.6828 Y26.9047
G01 X48.6725 Y26.9087
G01 X48.6619 Y26.9118
G01 X48.6511 Y26.9142
G01 X48.6402 Y26.9158
G01 X48.6138 Y26.9186
G01 X48.5978 Y26.9195
G01 X18.4022 Y26.9195
G01 X18.3915 Y26.9191
G01 X18.3774 Y26.9174
G01 X18.3634 Y26.9144
G01 X18.2859 Y26.8915
G01 X18.2723 Y26.8860
G01 X18.2624 Y26.8810
G01 X18.2530 Y26.8753
G01 X18.2440 Y26.8689
G01 X18.2204 Y26.8500
G01 X18.2114 Y26.8420
G01 X18.1606 Y26.7914
G01 X18.1510 Y26.7808
G01 X18.1425 Y26.7694
G01 X18.1368 Y26.7603
G01 X18.1016 Y26.6959
G01 X18.0967 Y26.6862
G01 X18.0926 Y26.6761
G01 X18.0891 Y26.6657
G01 X18.0865 Y26.6551
G01 X18.0852 Y26.6480
G01 X18.0838 Y26.6372
G01 X18.0810 Y26.5926
G01 X18.0809 Y26.5851
G01 X18.0814 Y26.5738
G01 X18.0949 Y26.4200
G01 X18.0773 Y26.2195
G01 X18.0252 Y26.0250
G01 X17.9402 Y25.8426
G01 X17.8247 Y25.6776
G01 X17.6824 Y25.5353
G01 X17.5174 Y25.4198
G01 X17.5010 Y25.4114
G01 X17.4920 Y25.4057
G01 X17.4862 Y25.4015
G01 X17.4779 Y25.3947
G01 X17.4200 Y25.3434
G01 X17.4148 Y25.3381
G01 X17.4075 Y25.3297
G01 X17.4030 Y25.3237
G01 X17.3968 Y25.3144
G01 X17.3896 Y25.3014
G01 X17.3865 Y25.2946
G01 X17.3825 Y25.2842
G01 X17.3602 Y25.2063
G01 X17.3578 Y25.1953
G01 X17.3559 Y25.1806
G01 X17.3555 Y25.1657
G01 X17.3565 Y25.1508
G01 X17.3583 Y25.1398
G01 X17.3618 Y25.1253
G01 X17.3832 Y25.0550
G01 X17.3870 Y25.0446
G01 X17.3900 Y25.0379
G01 X17.3950 Y25.0281
G01 X17.3988 Y25.0218
G01 X17.4029 Y25.0157
G01 X17.4095 Y25.0069
G01 X17.4143 Y25.0013
G01 X17.4220 Y24.9934
G01 X17.4357 Y24.9814
G01 X17.2657 Y24.8114
G01 X17.2228 Y24.8268
G01 X17.2122 Y24.8301
G01 X17.1325 Y24.8501
G01 X17.1217 Y24.8524
G01 X17.0331 Y24.8654
G01 X16.9400 Y24.8700
G01 X16.8469 Y24.8654
G01 X16.7583 Y24.8524
G01 X16.7475 Y24.8501
G01 X16.6678 Y24.8301
G01 X16.6572 Y24.8268
G01 X16.6143 Y24.8114
G01 X16.4440 Y24.9817
G01 X16.4600 Y24.9960
G01 X16.4677 Y25.0041
G01 X16.4725 Y25.0098
G01 X16.4770 Y25.0157
G01 X16.4832 Y25.0250
G01 X16.4887 Y25.0347
G01 X16.4920 Y25.0414
G01 X16.4949 Y25.0483
G01 X16.4986 Y25.0588
G01 X16.5188 Y25.1296
G01 X16.5222 Y25.1441
G01 X16.5241 Y25.1589
G01 X16.5245 Y25.1738
G01 X16.5239 Y25.1849
G01 X16.5217 Y25.1997
G01 X16.5182 Y25.2141
G01 X16.4979 Y25.2810
G01 X16.4944 Y25.2914
G01 X16.4900 Y25.3015
G01 X16.4850 Y25.3113
G01 X16.4812 Y25.3176
G01 X16.4750 Y25.3267
G01 X16.4657 Y25.3381
G01 X16.4553 Y25.3485
G01 X16.4012 Y25.3955
G01 X16.3924 Y25.4026
G01 X16.3798 Y25.4110
G01 X16.3731 Y25.4147
G01 X16.3626 Y25.4198
G01 X16.1976 Y25.5353
G01 X16.0553 Y25.6776
G01 X16.0378 Y25.7027
G01 X16.0313 Y25.7112
G01 X16.0218 Y25.7218
G01 X16.0113 Y25.7315
G01 X15.9540 Y25.7774
G01 X15.9453 Y25.7838
G01 X15.9393 Y25.7878
G01 X15.9267 Y25.7948
G01 X15.9135 Y25.8005
G01 X15.9033 Y25.8040
G01 X15.8893 Y25.8074
G01 X15.8351 Y25.8179
G01 X15.8243 Y25.8191
G01 X15.8133 Y25.8195
G01 X12.1922 Y25.8195
G01 X12.1780 Y25.8188
G01 X12.1638 Y25.8168
G01 X12.1500 Y25.8134
G01 X12.0829 Y25.7937
G01 X12.0725 Y25.7902
G01 X12.0623 Y25.7860
G01 X12.0492 Y25.7792
G01 X12.0369 Y25.7711
G01 X12.0104 Y25.7500
G01 X12.0014 Y25.7420
G01 X11.4519 Y25.1926
G01 X11.4425 Y25.1818
G01 X11.4382 Y25.1761
G01 X11.4324 Y25.1671
G01 X11.3936 Y25.0964
G01 X11.3876 Y25.0831
G01 X11.3839 Y25.0728
G01 X11.3802 Y25.0587
G01 X11.3779 Y25.0443
G01 X11.3771 Y25.0334
G01 X11.3770 Y25.0261
G01 X11.3778 Y24.9633
G01 X11.3789 Y24.9522
G01 X11.3809 Y24.9411
G01 X11.4075 Y24.8298
G01 X11.4248 Y24.6100
G01 X11.4075 Y24.3902
G01 X11.3561 Y24.1759
G01 X11.2717 Y23.9722
G01 X11.1565 Y23.7843
G01 X11.0134 Y23.6166
G01 X10.8457 Y23.4735
G01 X10.6578 Y23.3583
G01 X10.4541 Y23.2739
G01 X10.2398 Y23.2225
G01 X10.0200 Y23.2052
G01 X9.8002 Y23.2225
G01 X9.6926 Y23.2483
G01 X9.6821 Y23.2504
G01 X9.6715 Y23.2518
G01 X9.6608 Y23.2524
G01 X9.6536 Y23.2524
G01 X9.5730 Y23.2482
G01 X9.5586 Y23.2461
G01 X9.5444 Y23.2426
G01 X9.5307 Y23.2377
G01 X9.5207 Y23.2332
G01 X9.5080 Y23.2260
G01 X9.4612 Y23.1966
G01 X9.4519 Y23.1903
G01 X9.4460 Y23.1857
G01 X9.4349 Y23.1756
G01 X5.4124 Y19.1531
G01 X5.4051 Y19.1453
G01 X5.4005 Y19.1398
G01 X5.3942 Y19.1312
G01 X5.3904 Y19.1251
G01 X5.3533 Y19.0576
G01 X5.3483 Y19.0476
G01 X5.3441 Y19.0373
G01 X5.3406 Y19.0267
G01 X5.3380 Y19.0158
G01 X5.3362 Y19.0048
G01 X5.3350 Y18.9899
G01 X5.3351 Y18.9788
G01 X5.3411 Y18.8978
G01 X5.3429 Y18.8866
G01 X5.3455 Y18.8756
G01 X5.3490 Y18.8648
G01 X5.3532 Y18.8543
G01 X5.3583 Y18.8442
G01 X5.3752 Y18.8132
G01 X5.3826 Y18.8010
G01 X5.4433 Y18.7197
G01 X5.4487 Y18.7054
G01 X5.4530 Y18.6957
G01 X5.4580 Y18.6862
G01 X5.4637 Y18.6771
G01 X5.5097 Y18.6154
G01 X5.5192 Y18.6039
G01 X5.5298 Y18.5934
G01 X5.5414 Y18.5841
G01 X5.5538 Y18.5759
G01 X5.5637 Y18.5706
G01 X5.5774 Y18.5647
G01 X5.6499 Y18.5379
G01 X5.6606 Y18.5349
G01 X5.6679 Y18.5334
G01 X5.6827 Y18.5314
G01 X5.6976 Y18.5309
G01 X5.7124 Y18.5318
G01 X5.7271 Y18.5343
G01 X5.7990 Y18.5499
G01 X5.8095 Y18.5529
G01 X5.8232 Y18.5581
G01 X5.8299 Y18.5612
G01 X5.8396 Y18.5664
G01 X5.8692 Y18.5859
G01 X6.0052 Y18.6916
G01 X6.1950 Y18.7944
G01 X6.3200 Y18.8373
G01 X6.3200 Y18.6241
G01 X6.3015 Y18.6174
G01 X6.2914 Y18.6131
G01 X6.2069 Y18.5731
G01 X6.1939 Y18.5662
G01 X6.1075 Y18.5142
G01 X6.0264 Y18.4543
G01 X6.0150 Y18.4449
G01 X5.9404 Y18.3771
G01 X5.8678 Y18.2969
G01 X5.8033 Y18.2100
G01 X5.7477 Y18.1172
G01 X5.7044 Y18.0261
G01 X5.6988 Y18.0125
G01 X5.6650 Y17.9175
G01 X5.6394 Y17.8162
G01 X5.6374 Y17.8053
G01 X5.6237 Y17.7129
G01 X5.6225 Y17.7019
G01 X5.6175 Y17.6012
G01 X5.6175 Y17.5025
G01 X5.6223 Y17.4018
G01 X5.6237 Y17.3871
G01 X5.6387 Y17.2874
G01 X5.6630 Y17.1896
G01 X5.6673 Y17.1755
G01 X5.7014 Y17.0806
G01 X5.7444 Y16.9894
G01 X5.7495 Y16.9796
G01 X5.8033 Y16.8900
G01 X5.8678 Y16.8031
G01 X5.9404 Y16.7229
G01 X6.0178 Y16.6526
G01 X6.0264 Y16.6457
G01 X6.1075 Y16.5858
G01 X6.1939 Y16.5338
G01 X6.2069 Y16.5269
G01 X6.2914 Y16.4869
G01 X6.3015 Y16.4826
G01 X6.3200 Y16.4759
G01 X6.3200 Y16.2627
G01 X6.1950 Y16.3056
G01 X6.0052 Y16.4083
G01 X5.8695 Y16.5139
G01 X5.8607 Y16.5199
G01 X5.8483 Y16.5270
G01 X5.8353 Y16.5329
G01 X5.7703 Y16.5585
G01 X5.7598 Y16.5622
G01 X5.7490 Y16.5651
G01 X5.7380 Y16.5672
G01 X5.7269 Y16.5685
G01 X5.7157 Y16.5690
G01 X5.7009 Y16.5683
G01 X5.6898 Y16.5668
G01 X5.6176 Y16.5525
G01 X5.6067 Y16.5500
G01 X5.5926 Y16.5453
G01 X5.5823 Y16.5409
G01 X5.5724 Y16.5357
G01 X5.5599 Y16.5277
G01 X5.5510 Y16.5209
G01 X5.5427 Y16.5134
G01 X5.4897 Y16.4624
G01 X5.4823 Y16.4543
G01 X5.4777 Y16.4486
G01 X5.4693 Y16.4366
G01 X5.4621 Y16.4238
G01 X5.4504 Y16.3987
G01 X5.4433 Y16.3803
G01 X5.3829 Y16.2996
G01 X5.3022 Y16.2392
G01 X5.2052 Y16.2030
G01 X5.1723 Y16.1995
G01 X3.1877 Y16.1995
G01 X3.1548 Y16.2030
G01 X3.0578 Y16.2392
G01 X2.9771 Y16.2996
G01 X2.9167 Y16.3803
G01 X2.8805 Y16.4773
G01 X2.8770 Y16.5102
G01 X2.8770 Y18.5898
G00 Z1.0000
G00 X3.5679 Y18.8200
G01 F25.00
G01 Z-0.1000
G01 F70.00
G01 X3.5813 Y18.8258
G01 X3.5965 Y18.8336
G01 X3.6105 Y18.8419
G01 X3.6246 Y18.8514
G01 X3.6376 Y18.8614
G01 X3.6477 Y18.8701
G01 X3.6762 Y18.8979
G01 X3.6716 Y18.8794
G01 X3.6689 Y18.8664
G01 X3.6640 Y18.8341
G01 X3.6623 Y18.8200
G01 X3.5679 Y18.8200
G00 Z1.0000
G00 X8.2010 Y18.2064
G01 F25.00
G01 Z-0.1000
G01 F70.00
G01 X8.1858 Y18.1809
G01 X8.1781 Y18.1666
G01 X8.1326 Y18.0701
G01 X8.1258 Y18.0530
G01 X8.0943 Y17.9650
G01 X8.0879 Y17.9446
G01 X8.0613 Y17.8374
G01 X8.0587 Y17.8229
G01 X8.0450 Y17.7305
G01 X8.0435 Y17.7188
G01 X8.0425 Y17.7056
G01 X8.0378 Y17.6107
G01 X8.0375 Y17.5975
G01 X8.0376 Y17.4944
G01 X8.0429 Y17.3878
G01 X8.0450 Y17.3695
G01 X8.0587 Y17.2771
G01 X8.0627 Y17.2561
G01 X8.0866 Y17.1604
G01 X8.0906 Y17.1462
G01 X8.1276 Y17.0422
G01 X8.1353 Y17.0239
G01 X8.1781 Y16.9334
G01 X8.1858 Y16.9191
G01 X8.2009 Y16.8938
G01 X8.1901 Y16.9014
G01 X8.1787 Y16.9086
G01 X8.1584 Y16.9196
G01 X8.1462 Y16.9251
G01 X8.1338 Y16.9301
G01 X8.1239 Y16.9335
G01 X8.1111 Y16.9373
G01 X8.0951 Y16.9411
G01 X8.0819 Y16.9435
G01 X8.0075 Y16.9537
G01 X7.9890 Y16.9556
G01 X7.9726 Y16.9562
G01 X7.9622 Y16.9560
G01 X7.9488 Y16.9552
G01 X7.9288 Y16.9528
G01 X7.9091 Y16.9489
G01 X7.8897 Y16.9436
G01 X7.8743 Y16.9382
G01 X7.8619 Y16.9331
G01 X7.7938 Y16.9014
G01 X7.7793 Y16.8941
G01 X7.7942 Y16.9191
G01 X7.8019 Y16.9334
G01 X7.8474 Y17.0299
G01 X7.8542 Y17.0470
G01 X7.8857 Y17.1350
G01 X7.8921 Y17.1554
G01 X7.9187 Y17.2626
G01 X7.9213 Y17.2771
G01 X7.9350 Y17.3695
G01 X7.9365 Y17.3812
G01 X7.9375 Y17.3944
G01 X7.9422 Y17.4893
G01 X7.9425 Y17.5025
G01 X7.9424 Y17.6056
G01 X7.9371 Y17.7122
G01 X7.9350 Y17.7305
G01 X7.9213 Y17.8229
G01 X7.9173 Y17.8439
G01 X7.8903 Y17.9510
G01 X7.8857 Y17.9650
G01 X7.8524 Y18.0578
G01 X7.8447 Y18.0761
G01 X7.8019 Y18.1666
G01 X7.7942 Y18.1809
G01 X7.7796 Y18.2054
G01 X7.7893 Y18.1986
G01 X7.8006 Y18.1914
G01 X7.8210 Y18.1805
G01 X7.8332 Y18.1749
G01 X7.8456 Y18.1699
G01 X7.8555 Y18.1665
G01 X7.8683 Y18.1627
G01 X7.8843 Y18.1589
G01 X7.8975 Y18.1565
G01 X7.9718 Y18.1463
G01 X7.9904 Y18.1444
G01 X8.0105 Y18.1438
G01 X8.0306 Y18.1448
G01 X8.0505 Y18.1472
G01 X8.0732 Y18.1518
G01 X8.0925 Y18.1573
G01 X8.1086 Y18.1632
G01 X8.1209 Y18.1685
G01 X8.1869 Y18.1992
G01 X8.2010 Y18.2064
G00 Z1.0000
G00 X8.7061 Y16.4134
G01 F25.00
G01 Z-0.1000
G01 F70.00
G01 X8.7399 Y16.3974
G01 X8.7399 Y16.3536
G01 X8.7319 Y16.3713
G01 X8.7242 Y16.3859
G01 X8.7159 Y16.3993
G01 X8.7061 Y16.4134
G00 Z1.0000
G00 X9.7801 Y16.3545
G01 F25.00
G01 Z-0.1000
G01 F70.00
G01 X9.7801 Y16.3974
G01 X9.8229 Y16.4176
G01 X9.7939 Y16.3772
G01 X9.7869 Y16.3663
G01 X9.7801 Y16.3545
G00 Z1.0000
G00 X4.6656 Y1.1412
G01 F25.00
G01 Z-0.1000
G01 F70.00
G01 X4.6593 Y1.1349
G01 X4.6497 Y1.1372
G01 X4.6656 Y1.1412
G01 X4.0843 Y1.0357
G01 X4.0697 Y1.0343
G01 X3.9872 Y1.0220
G01 X3.9763 Y1.0200
G01 X3.8847 Y0.9969
G01 X3.7992 Y0.9665
G01 X3.7856 Y0.9609
G01 X3.7069 Y0.9236
G01 X3.6972 Y0.9183
G01 X3.6194 Y0.8715
G01 X3.5464 Y0.8175
G01 X3.5350 Y0.8082
G01 X3.4732 Y0.7522
G01 X3.4628 Y0.7418
G01 X3.4020 Y0.6744
G01 X3.3435 Y0.5956
G01 X3.2931 Y0.5114
G01 X3.2526 Y0.4261
G01 X3.2485 Y0.4158
G01 X3.2181 Y0.3303
G01 X3.1942 Y0.2351
G01 X3.1798 Y0.1380
G01 X3.1750 Y0.0400
G01 X3.1798 Y-0.0580
G01 X3.1942 Y-0.1551
G01 X3.2181 Y-0.2503
G01 X3.2511 Y-0.3427
G01 X3.2931 Y-0.4314
G01 X3.3435 Y-0.5156
