(G-CODE GENERATED BY FLATCAM v8.994 - www.flatcam.org - Version Date: 2020/11/7)

(Name: TapBeerFlowControl_hardware-PTH.drl_cnc)
(Type: G-code from Geometry)
(Units: MM)

(Created on Monday, 27 November 2023 at 14:24)

(This preprocessor is the default preprocessor used by FlatCAM.)
(It is made to work with MACH3 compatible motion controllers.)


(TOOLS DIAMETER: )
(Tool: 1 -> Dia: 0.7493)
(Tool: 2 -> Dia: 0.8000999999999999)
(Tool: 3 -> Dia: 0.89916)
(Tool: 4 -> Dia: 0.94996)
(Tool: 5 -> Dia: 1.0007599999999999)
(Tool: 6 -> Dia: 1.0998199999999998)
(Tool: 7 -> Dia: 1.30048)
(Tool: 8 -> Dia: 1.39954)

(FEEDRATE Z: )
(Tool: 1 -> Feedrate: 25.0)
(Tool: 2 -> Feedrate: 25.0)
(Tool: 3 -> Feedrate: 25.0)
(Tool: 4 -> Feedrate: 25.0)
(Tool: 5 -> Feedrate: 25.0)
(Tool: 6 -> Feedrate: 25.0)
(Tool: 7 -> Feedrate: 25.0)
(Tool: 8 -> Feedrate: 25.0)

(FEEDRATE RAPIDS: )
(Tool: 1 -> Feedrate Rapids: 1500)
(Tool: 2 -> Feedrate Rapids: 1500)
(Tool: 3 -> Feedrate Rapids: 1500)
(Tool: 4 -> Feedrate Rapids: 1500)
(Tool: 5 -> Feedrate Rapids: 1500)
(Tool: 6 -> Feedrate Rapids: 1500)
(Tool: 7 -> Feedrate Rapids: 1500)
(Tool: 8 -> Feedrate Rapids: 1500)

(Z_CUT: )
(Tool: 1 -> Z_Cut: -2.5)
(Tool: 2 -> Z_Cut: -2.5)
(Tool: 3 -> Z_Cut: -2.5)
(Tool: 4 -> Z_Cut: -2.5)
(Tool: 5 -> Z_Cut: -2.5)
(Tool: 6 -> Z_Cut: -2.5)
(Tool: 7 -> Z_Cut: -2.5)
(Tool: 8 -> Z_Cut: -2.5)

(Tools Offset: )
(Tool: 1 -> Offset Z: 0.0)
(Tool: 2 -> Offset Z: 0.0)
(Tool: 3 -> Offset Z: 0.0)

(Z_MOVE: )
(Tool: 1 -> Z_Move: 1.0)
(Tool: 2 -> Z_Move: 1.0)
(Tool: 3 -> Z_Move: 1.0)
(Tool: 4 -> Z_Move: 1.0)
(Tool: 5 -> Z_Move: 1.0)
(Tool: 6 -> Z_Move: 1.0)
(Tool: 7 -> Z_Move: 1.0)
(Tool: 8 -> Z_Move: 1.0)

(Z Toolchange: 5.0 mm)
(X,Y Toolchange: 0.0000, 0.0000 mm)
(Z Start: None mm)
(Z End: 5.0 mm)
(X,Y End: 0.0000, 0.0000 mm)
(Steps per circle: 64)
(Preprocessor Excellon: default)

(X range:    3.6299 ...   58.2590  mm)
(Y range:  -32.4413 ...   26.8194  mm)

(Spindle Speed: 1000 RPM)
G21
G90
G94

G01 F25.00

M5
G00 Z5.0000
T1
G00 X0.0000 Y0.0000                
M6
(MSG, Change to Tool Dia = 0.7493 ||| Total drills for tool T1 = 53)
M0
G00 Z5.0000

G01 F25.00
M03 S1000
G00 X45.2491 Y-2.5493
G01 Z-2.5000
G01 Z0
G00 Z1.0000
G00 X45.2491 Y-1.2793
G01 Z-2.5000
G01 Z0
G00 Z1.0000
G00 X45.2491 Y-0.0093
G01 Z-2.5000
G01 Z0
G00 Z1.0000
G00 X38.6908 Y-6.6413
G01 Z-2.5000
G01 Z0
G00 Z1.0000
G00 X38.6908 Y-4.1013
G01 Z-2.5000
G01 Z0
G00 Z1.0000
G00 X38.6908 Y-1.5613
G01 Z-2.5000
G01 Z0
G00 Z1.0000
G00 X38.6908 Y0.9787
G01 Z-2.5000
G01 Z0
G00 Z1.0000
G00 X38.6908 Y3.5187
G01 Z-2.5000
G01 Z0
G00 Z1.0000
G00 X38.6908 Y6.0587
G01 Z-2.5000
G01 Z0
G00 Z1.0000
G00 X38.6908 Y8.5987
G01 Z-2.5000
G01 Z0
G00 Z1.0000
G00 X38.6858 Y11.1362
G01 Z-2.5000
G01 Z0
G00 Z1.0000
G00 X38.6858 Y13.6762
G01 Z-2.5000
G01 Z0
G00 Z1.0000
G00 X16.9408 Y26.4194
G01 Z-2.5000
G01 Z0
G00 Z1.0000
G00 X16.9408 Y23.9200
G01 Z-2.5000
G01 Z0
G00 Z1.0000
G00 X15.8410 Y18.9188
G01 Z-2.5000
G01 Z0
G00 Z1.0000
G00 X15.8410 Y16.9198
G01 Z-2.5000
G01 Z0
G00 Z1.0000
G00 X13.2908 Y13.6787
G01 Z-2.5000
G01 Z0
G00 Z1.0000
G00 X13.2908 Y11.1387
G01 Z-2.5000
G01 Z0
G00 Z1.0000
G00 X13.2908 Y8.5987
G01 Z-2.5000
G01 Z0
G00 Z1.0000
G00 X13.2908 Y6.0587
G01 Z-2.5000
G01 Z0
G00 Z1.0000
G00 X13.2908 Y3.5187
G01 Z-2.5000
G01 Z0
G00 Z1.0000
G00 X9.4300 Y1.6391
G01 Z-2.5000
G01 Z0
G00 Z1.0000
G00 X13.2908 Y0.9787
G01 Z-2.5000
G01 Z0
G00 Z1.0000
G00 X13.2908 Y-1.5613
G01 Z-2.5000
G01 Z0
G00 Z1.0000
G00 X13.2908 Y-4.1013
G01 Z-2.5000
G01 Z0
G00 Z1.0000
G00 X9.4300 Y-5.9809
G01 Z-2.5000
G01 Z0
G00 Z1.0000
G00 X13.2908 Y-6.6413
G01 Z-2.5000
G01 Z0
G00 Z1.0000
G00 X13.2908 Y-9.1813
G01 Z-2.5000
G01 Z0
G00 Z1.0000
G00 X13.2908 Y-11.7213
G01 Z-2.5000
G01 Z0
G00 Z1.0000
G00 X13.2908 Y-14.2613
G01 Z-2.5000
G01 Z0
G00 Z1.0000
G00 X13.2908 Y-16.8013
G01 Z-2.5000
G01 Z0
G00 Z1.0000
G00 X13.2908 Y-19.3413
G01 Z-2.5000
G01 Z0
G00 Z1.0000
G00 X13.2908 Y-21.8813
G01 Z-2.5000
G01 Z0
G00 Z1.0000
G00 X13.2908 Y-24.4213
G01 Z-2.5000
G01 Z0
G00 Z1.0000
G00 X13.2908 Y-26.9613
G01 Z-2.5000
G01 Z0
G00 Z1.0000
G00 X13.2908 Y-29.5013
G01 Z-2.5000
G01 Z0
G00 Z1.0000
G00 X13.2908 Y-32.0413
G01 Z-2.5000
G01 Z0
G00 Z1.0000
G00 X38.6908 Y-32.0413
G01 Z-2.5000
G01 Z0
G00 Z1.0000
G00 X38.6908 Y-29.5013
G01 Z-2.5000
G01 Z0
G00 Z1.0000
G00 X38.6908 Y-26.9613
G01 Z-2.5000
G01 Z0
G00 Z1.0000
G00 X38.6908 Y-24.4213
G01 Z-2.5000
G01 Z0
G00 Z1.0000
G00 X38.6908 Y-21.8813
G01 Z-2.5000
G01 Z0
G00 Z1.0000
G00 X38.6908 Y-19.3413
G01 Z-2.5000
G01 Z0
G00 Z1.0000
G00 X38.6908 Y-16.8013
G01 Z-2.5000
G01 Z0
G00 Z1.0000
G00 X38.6908 Y-14.2613
G01 Z-2.5000
G01 Z0
G00 Z1.0000
G00 X38.6908 Y-11.7213
G01 Z-2.5000
G01 Z0
G00 Z1.0000
G00 X38.6908 Y-9.1813
G01 Z-2.5000
G01 Z0
G00 Z1.0000
G00 X44.5303 Y-12.8897
G01 Z-2.5000
G01 Z0
G00 Z1.0000
G00 X55.3202 Y-22.0006
G01 Z-2.5000
G01 Z0
G00 Z1.0000
G00 X55.3202 Y-14.3806
G01 Z-2.5000
G01 Z0
G00 Z1.0000
G00 X52.1503 Y-12.8897
G01 Z-2.5000
G01 Z0
G00 Z1.0000
G00 X46.9001 Y-8.8409
G01 Z-2.5000
G01 Z0
G00 Z1.0000
G00 X46.9001 Y-6.3009
G01 Z-2.5000
G01 Z0
G00 Z1.0000
M05
G00 Z5.00
G00 X0.0 Y0.0


