(G-CODE GENERATED BY FLATCAM v8.994 - www.flatcam.org - Version Date: 2020/11/7)

(Name: TapBeerFlowControl_hardware-NPTH.drl_mill_cnc)
(Type: G-code from Geometry)
(Units: MM)

(Created on Monday, 27 November 2023 at 14:23)

(This preprocessor is used with a motion controller loaded with GRBL firmware.)
(It is configured to be compatible with almost any version of GRBL firmware.)

(TOOL DIAMETER: 1.0 mm)
(Feedrate_XY: 50.0 mm/min)
(Feedrate_Z: 25.0 mm/min)
(Feedrate rapids 1500.0 mm/min)

(Z_Cut: -2.5 mm)
(Z_Move: 1.0 mm)
(Z Start: None mm)
(Z End: 5.0 mm)
(X,Y End: 0.0000, 0.0000 mm)
(Steps per circle: 64)
(Steps per circle: 64)
(Preprocessor Geometry: GRBL_11_no_M6)

(X range:    3.8886 ...   55.7003  mm)
(Y range:  -30.8999 ...   10.5003  mm)

(Spindle Speed: 1000.0 RPM)
G21
G90
G17
G94


G01 F50.00

M5             
G00 Z5.0000
G00 X0.0000 Y0.0000                
T1
(MSG, Change to Tool Dia = 1.0000)
M0
G00 Z5.0000
        
M03 S1000.0
G01 F50.00
G00 X8.1414 Y8.4997
G01 F25.00
G01 Z-2.5000
G01 F50.00
G01 X8.1317 Y8.3036 F50.00
G01 X8.1029 Y8.1094 F50.00
G01 X8.0552 Y7.9189 F50.00
G01 X7.9891 Y7.7341 F50.00
G01 X7.9051 Y7.5566 F50.00
G01 X7.8042 Y7.3882 F50.00
G01 X7.6872 Y7.2305 F50.00
G01 X7.5554 Y7.0850 F50.00
G01 X7.4099 Y6.9532 F50.00
G01 X7.2522 Y6.8362 F50.00
G01 X7.0838 Y6.7353 F50.00
G01 X6.9063 Y6.6513 F50.00
G01 X6.7215 Y6.5852 F50.00
G01 X6.5310 Y6.5375 F50.00
G01 X6.3368 Y6.5087 F50.00
G01 X6.1407 Y6.4990 F50.00
G01 X5.9446 Y6.5087 F50.00
G01 X5.7504 Y6.5375 F50.00
G01 X5.5600 Y6.5852 F50.00
G01 X5.3751 Y6.6513 F50.00
G01 X5.1976 Y6.7353 F50.00
G01 X5.0292 Y6.8362 F50.00
G01 X4.8716 Y6.9532 F50.00
G01 X4.7261 Y7.0850 F50.00
G01 X4.5942 Y7.2305 F50.00
G01 X4.4773 Y7.3882 F50.00
G01 X4.3763 Y7.5566 F50.00
G01 X4.2924 Y7.7341 F50.00
G01 X4.2263 Y7.9189 F50.00
G01 X4.1786 Y8.1094 F50.00
G01 X4.1497 Y8.3036 F50.00
G01 X4.1401 Y8.4997 F50.00
G01 X4.1497 Y8.6958 F50.00
G01 X4.1786 Y8.8900 F50.00
G01 X4.2263 Y9.0804 F50.00
G01 X4.2924 Y9.2653 F50.00
G01 X4.3763 Y9.4428 F50.00
G01 X4.4773 Y9.6112 F50.00
G01 X4.5942 Y9.7689 F50.00
G01 X4.7261 Y9.9143 F50.00
G01 X4.8716 Y10.0462 F50.00
G01 X5.0292 Y10.1631 F50.00
G01 X5.1976 Y10.2641 F50.00
G01 X5.3751 Y10.3480 F50.00
G01 X5.5600 Y10.4142 F50.00
G01 X5.7504 Y10.4619 F50.00
G01 X5.9446 Y10.4907 F50.00
G01 X6.1407 Y10.5003 F50.00
G01 X6.3368 Y10.4907 F50.00
G01 X6.5310 Y10.4619 F50.00
G01 X6.7215 Y10.4142 F50.00
G01 X6.9063 Y10.3480 F50.00
G01 X7.0838 Y10.2641 F50.00
G01 X7.2522 Y10.1631 F50.00
G01 X7.4099 Y10.0462 F50.00
G01 X7.5554 Y9.9143 F50.00
G01 X7.6872 Y9.7689 F50.00
G01 X7.8042 Y9.6112 F50.00
G01 X7.9051 Y9.4428 F50.00
G01 X7.9891 Y9.2653 F50.00
G01 X8.0552 Y9.0804 F50.00
G01 X8.1029 Y8.8900 F50.00
G01 X8.1317 Y8.6958 F50.00
G01 X8.1414 Y8.4997 F50.00
G00 Z1.0000
G00 X7.8899 Y-28.8993
G01 F25.00
G01 Z-2.5000
G01 F50.00
G01 X7.8803 Y-29.0954 F50.00
G01 X7.8515 Y-29.2896 F50.00
G01 X7.8038 Y-29.4800 F50.00
G01 X7.7376 Y-29.6649 F50.00
G01 X7.6537 Y-29.8424 F50.00
G01 X7.5527 Y-30.0108 F50.00
G01 X7.4358 Y-30.1685 F50.00
G01 X7.3039 Y-30.3139 F50.00
G01 X7.1585 Y-30.4458 F50.00
G01 X7.0008 Y-30.5627 F50.00
G01 X6.8324 Y-30.6637 F50.00
G01 X6.6549 Y-30.7476 F50.00
G01 X6.4700 Y-30.8138 F50.00
G01 X6.2796 Y-30.8615 F50.00
G01 X6.0854 Y-30.8903 F50.00
G01 X5.8893 Y-30.8999 F50.00
G01 X5.6932 Y-30.8903 F50.00
G01 X5.4990 Y-30.8615 F50.00
G01 X5.3085 Y-30.8138 F50.00
G01 X5.1237 Y-30.7476 F50.00
G01 X4.9462 Y-30.6637 F50.00
G01 X4.7778 Y-30.5627 F50.00
G01 X4.6201 Y-30.4458 F50.00
G01 X4.4746 Y-30.3139 F50.00
G01 X4.3428 Y-30.1685 F50.00
G01 X4.2258 Y-30.0108 F50.00
G01 X4.1249 Y-29.8424 F50.00
G01 X4.0409 Y-29.6649 F50.00
G01 X3.9748 Y-29.4800 F50.00
G01 X3.9271 Y-29.2896 F50.00
G01 X3.8983 Y-29.0954 F50.00
G01 X3.8886 Y-28.8993 F50.00
G01 X3.8983 Y-28.7032 F50.00
G01 X3.9271 Y-28.5090 F50.00
G01 X3.9748 Y-28.3185 F50.00
G01 X4.0409 Y-28.1337 F50.00
G01 X4.1249 Y-27.9562 F50.00
G01 X4.2258 Y-27.7878 F50.00
G01 X4.3428 Y-27.6301 F50.00
G01 X4.4746 Y-27.4846 F50.00
G01 X4.6201 Y-27.3528 F50.00
G01 X4.7778 Y-27.2358 F50.00
G01 X4.9462 Y-27.1349 F50.00
G01 X5.1237 Y-27.0509 F50.00
G01 X5.3085 Y-26.9848 F50.00
G01 X5.4990 Y-26.9371 F50.00
G01 X5.6932 Y-26.9083 F50.00
G01 X5.8893 Y-26.8987 F50.00
G01 X6.0854 Y-26.9083 F50.00
G01 X6.2796 Y-26.9371 F50.00
G01 X6.4700 Y-26.9848 F50.00
G01 X6.6549 Y-27.0509 F50.00
G01 X6.8324 Y-27.1349 F50.00
G01 X7.0008 Y-27.2358 F50.00
G01 X7.1585 Y-27.3528 F50.00
G01 X7.3039 Y-27.4846 F50.00
G01 X7.4358 Y-27.6301 F50.00
G01 X7.5527 Y-27.7878 F50.00
G01 X7.6537 Y-27.9562 F50.00
G01 X7.7376 Y-28.1337 F50.00
G01 X7.8038 Y-28.3185 F50.00
G01 X7.8515 Y-28.5090 F50.00
G01 X7.8803 Y-28.7032 F50.00
G01 X7.8899 Y-28.8993 F50.00
G00 Z1.0000
G00 X55.5606 Y-28.3887
G01 F25.00
G01 Z-2.5000
G01 F50.00
G01 X55.5510 Y-28.5848 F50.00
G01 X55.5222 Y-28.7790 F50.00
G01 X55.4745 Y-28.9695 F50.00
G01 X55.4083 Y-29.1543 F50.00
G01 X55.3244 Y-29.3318 F50.00
G01 X55.2235 Y-29.5002 F50.00
G01 X55.1065 Y-29.6579 F50.00
G01 X54.9747 Y-29.8034 F50.00
G01 X54.8292 Y-29.9352 F50.00
G01 X54.6715 Y-30.0522 F50.00
G01 X54.5031 Y-30.1531 F50.00
G01 X54.3256 Y-30.2371 F50.00
G01 X54.1408 Y-30.3032 F50.00
G01 X53.9503 Y-30.3509 F50.00
G01 X53.7561 Y-30.3797 F50.00
G01 X53.5600 Y-30.3894 F50.00
G01 X53.3639 Y-30.3797 F50.00
G01 X53.1697 Y-30.3509 F50.00
G01 X52.9792 Y-30.3032 F50.00
G01 X52.7944 Y-30.2371 F50.00
G01 X52.6169 Y-30.1531 F50.00
G01 X52.4485 Y-30.0522 F50.00
G01 X52.2908 Y-29.9352 F50.00
G01 X52.1453 Y-29.8034 F50.00
G01 X52.0135 Y-29.6579 F50.00
G01 X51.8965 Y-29.5002 F50.00
G01 X51.7956 Y-29.3318 F50.00
G01 X51.7117 Y-29.1543 F50.00
G01 X51.6455 Y-28.9695 F50.00
G01 X51.5978 Y-28.7790 F50.00
G01 X51.5690 Y-28.5848 F50.00
G01 X51.5594 Y-28.3887 F50.00
G01 X51.5690 Y-28.1926 F50.00
G01 X51.5978 Y-27.9984 F50.00
G01 X51.6455 Y-27.8080 F50.00
G01 X51.7117 Y-27.6231 F50.00
G01 X51.7956 Y-27.4456 F50.00
G01 X51.8965 Y-27.2772 F50.00
G01 X52.0135 Y-27.1196 F50.00
G01 X52.1453 Y-26.9741 F50.00
G01 X52.2908 Y-26.8422 F50.00
G01 X52.4485 Y-26.7253 F50.00
G01 X52.6169 Y-26.6243 F50.00
G01 X52.7944 Y-26.5404 F50.00
G01 X52.9792 Y-26.4743 F50.00
G01 X53.1697 Y-26.4266 F50.00
G01 X53.3639 Y-26.3977 F50.00
G01 X53.5600 Y-26.3881 F50.00
G01 X53.7561 Y-26.3977 F50.00
G01 X53.9503 Y-26.4266 F50.00
G01 X54.1408 Y-26.4743 F50.00
G01 X54.3256 Y-26.5404 F50.00
G01 X54.5031 Y-26.6243 F50.00
G01 X54.6715 Y-26.7253 F50.00
G01 X54.8292 Y-26.8422 F50.00
G01 X54.9747 Y-26.9741 F50.00
G01 X55.1065 Y-27.1196 F50.00
G01 X55.2235 Y-27.2772 F50.00
G01 X55.3244 Y-27.4456 F50.00
G01 X55.4083 Y-27.6231 F50.00
G01 X55.4745 Y-27.8080 F50.00
G01 X55.5222 Y-27.9984 F50.00
G01 X55.5510 Y-28.1926 F50.00
G01 X55.5606 Y-28.3887 F50.00
G00 Z1.0000
G00 X55.7003 Y-2.3893
G01 F25.00
G01 Z-2.5000
G01 F50.00
G01 X55.6907 Y-2.5854 F50.00
G01 X55.6619 Y-2.7796 F50.00
G01 X55.6142 Y-2.9701 F50.00
G01 X55.5480 Y-3.1549 F50.00
G01 X55.4641 Y-3.3324 F50.00
G01 X55.3632 Y-3.5008 F50.00
G01 X55.2462 Y-3.6585 F50.00
G01 X55.1144 Y-3.8040 F50.00
G01 X54.9689 Y-3.9358 F50.00
G01 X54.8112 Y-4.0528 F50.00
G01 X54.6428 Y-4.1537 F50.00
G01 X54.4653 Y-4.2376 F50.00
G01 X54.2805 Y-4.3038 F50.00
G01 X54.0900 Y-4.3515 F50.00
G01 X53.8958 Y-4.3803 F50.00
G01 X53.6997 Y-4.3899 F50.00
G01 X53.5036 Y-4.3803 F50.00
G01 X53.3094 Y-4.3515 F50.00
G01 X53.1189 Y-4.3038 F50.00
G01 X52.9341 Y-4.2376 F50.00
G01 X52.7566 Y-4.1537 F50.00
G01 X52.5882 Y-4.0528 F50.00
G01 X52.4305 Y-3.9358 F50.00
G01 X52.2850 Y-3.8040 F50.00
G01 X52.1532 Y-3.6585 F50.00
G01 X52.0362 Y-3.5008 F50.00
G01 X51.9353 Y-3.3324 F50.00
G01 X51.8514 Y-3.1549 F50.00
G01 X51.7852 Y-2.9701 F50.00
G01 X51.7375 Y-2.7796 F50.00
G01 X51.7087 Y-2.5854 F50.00
G01 X51.6991 Y-2.3893 F50.00
G01 X51.7087 Y-2.1932 F50.00
G01 X51.7375 Y-1.9990 F50.00
G01 X51.7852 Y-1.8085 F50.00
G01 X51.8514 Y-1.6237 F50.00
G01 X51.9353 Y-1.4462 F50.00
G01 X52.0362 Y-1.2778 F50.00
G01 X52.1532 Y-1.1201 F50.00
G01 X52.2850 Y-0.9746 F50.00
G01 X52.4305 Y-0.8428 F50.00
G01 X52.5882 Y-0.7258 F50.00
G01 X52.7566 Y-0.6249 F50.00
G01 X52.9341 Y-0.5410 F50.00
G01 X53.1189 Y-0.4748 F50.00
G01 X53.3094 Y-0.4271 F50.00
G01 X53.5036 Y-0.3983 F50.00
G01 X53.6997 Y-0.3887 F50.00
G01 X53.8958 Y-0.3983 F50.00
G01 X54.0900 Y-0.4271 F50.00
G01 X54.2805 Y-0.4748 F50.00
G01 X54.4653 Y-0.5410 F50.00
G01 X54.6428 Y-0.6249 F50.00
G01 X54.8112 Y-0.7258 F50.00
G01 X54.9689 Y-0.8428 F50.00
G01 X55.1144 Y-0.9746 F50.00
G01 X55.2462 Y-1.1201 F50.00
G01 X55.3632 Y-1.2778 F50.00
G01 X55.4641 Y-1.4462 F50.00
G01 X55.5480 Y-1.6237 F50.00
G01 X55.6142 Y-1.8085 F50.00
G01 X55.6619 Y-1.9990 F50.00
G01 X55.6907 Y-2.1932 F50.00
G01 X55.7003 Y-2.3893 F50.00
G00 Z1.0000
M05
G00 Z1.0000
G00 Z5.00
G00 X0.0 Y0.0


