(G-CODE GENERATED BY FLATCAM v8.994 - www.flatcam.org - Version Date: 2020/11/7)

(Name: TapBeerFlowControl_hardware-Edge_Cuts.gbr_cutout_cnc)
(Type: G-code from Geometry)
(Units: MM)

(Created on Monday, 27 November 2023 at 14:22)

(This preprocessor is used with a motion controller loaded with GRBL firmware.)
(It is configured to be compatible with almost any version of GRBL firmware.)

(TOOL DIAMETER: 1.0 mm)
(Feedrate_XY: 35.0 mm/min)
(Feedrate_Z: 25.0 mm/min)
(Feedrate rapids 1500.0 mm/min)

(Z_Cut: -3.0 mm)
(Z_Move: 1.0 mm)
(Z Start: None mm)
(Z End: 5.0 mm)
(X,Y End: 0.0000, 0.0000 mm)
(Steps per circle: 64)
(Steps per circle: 64)
(Preprocessor Geometry: GRBL_11_no_M6)

(X range:    0.8100 ...   60.3000  mm)
(Y range:  -33.9700 ...   29.9100  mm)

(Spindle Speed: 1000.0 RPM)
G21
G90
G17
G94


G01 F35.00

M5             
G00 Z5.0000
G00 X0.0000 Y0.0000                
T1
(MSG, Change to Tool Dia = 1.0000)
M0
G00 Z5.0000
        
M03 S1000.0
G01 F35.00
G00 X29.1550 Y29.9100
G01 F25.00
G01 Z-3.0000
G01 F35.00
G01 X1.4600 Y29.9100 F35.00
G01 X1.4257 Y29.9091 F35.00
G01 X1.3671 Y29.9033 F35.00
G01 X1.2997 Y29.8899 F35.00
G01 X1.2387 Y29.8711 F35.00
G01 X1.1843 Y29.8486 F35.00
G01 X1.1237 Y29.8162 F35.00
G01 X1.0748 Y29.7835 F35.00
G01 X1.0253 Y29.7432 F35.00
G01 X0.9768 Y29.6947 F35.00
G01 X0.9365 Y29.6452 F35.00
G01 X0.9038 Y29.5963 F35.00
G01 X0.8714 Y29.5357 F35.00
G01 X0.8472 Y29.4767 F35.00
G01 X0.8289 Y29.4155 F35.00
G01 X0.8167 Y29.3529 F35.00
G01 X0.8109 Y29.2943 F35.00
G01 X0.8100 Y29.2600 F35.00
G01 X0.8100 Y-33.3200 F35.00
G01 X0.8109 Y-33.3543 F35.00
G01 X0.8167 Y-33.4129 F35.00
G01 X0.8289 Y-33.4755 F35.00
G01 X0.8472 Y-33.5367 F35.00
G01 X0.8714 Y-33.5957 F35.00
G01 X0.9012 Y-33.6520 F35.00
G01 X0.9365 Y-33.7052 F35.00
G01 X0.9768 Y-33.7547 F35.00
G01 X1.0217 Y-33.7999 F35.00
G01 X1.0708 Y-33.8406 F35.00
G01 X1.1237 Y-33.8762 F35.00
G01 X1.1799 Y-33.9065 F35.00
G01 X1.2387 Y-33.9311 F35.00
G01 X1.2997 Y-33.9499 F35.00
G01 X1.3622 Y-33.9626 F35.00
G01 X1.4257 Y-33.9691 F35.00
G01 X1.4600 Y-33.9700 F35.00
G01 X29.1550 Y-33.9700 F35.00
G00 Z1.0000
G00 X32.1550 Y29.9100
G01 F25.00
G01 Z-3.0000
G01 F35.00
G01 X59.6500 Y29.9100 F35.00
G01 X59.6843 Y29.9091 F35.00
G01 X59.7478 Y29.9026 F35.00
G01 X59.8103 Y29.8899 F35.00
G01 X59.8713 Y29.8711 F35.00
G01 X59.9301 Y29.8465 F35.00
G01 X59.9863 Y29.8162 F35.00
G01 X60.0392 Y29.7806 F35.00
G01 X60.0883 Y29.7399 F35.00
G01 X60.1332 Y29.6947 F35.00
G01 X60.1735 Y29.6452 F35.00
G01 X60.2088 Y29.5920 F35.00
G01 X60.2386 Y29.5357 F35.00
G01 X60.2628 Y29.4767 F35.00
G01 X60.2811 Y29.4155 F35.00
G01 X60.2933 Y29.3529 F35.00
G01 X60.2991 Y29.2943 F35.00
G01 X60.3000 Y29.2600 F35.00
G01 X60.3000 Y-33.3200 F35.00
G01 X60.2991 Y-33.3543 F35.00
G01 X60.2933 Y-33.4129 F35.00
G01 X60.2811 Y-33.4755 F35.00
G01 X60.2628 Y-33.5367 F35.00
G01 X60.2386 Y-33.5957 F35.00
G01 X60.2062 Y-33.6563 F35.00
G01 X60.1735 Y-33.7052 F35.00
G01 X60.1332 Y-33.7547 F35.00
G01 X60.0847 Y-33.8032 F35.00
G01 X60.0352 Y-33.8435 F35.00
G01 X59.9863 Y-33.8762 F35.00
G01 X59.9257 Y-33.9086 F35.00
G01 X59.8713 Y-33.9311 F35.00
G01 X59.8103 Y-33.9499 F35.00
G01 X59.7429 Y-33.9633 F35.00
G01 X59.6843 Y-33.9691 F35.00
G01 X59.6500 Y-33.9700 F35.00
G01 X32.1550 Y-33.9700 F35.00
G00 Z1.0000
M05
G00 Z1.0000
G00 Z5.00
G00 X0.0 Y0.0


