(Block-name: Path_vbit)
(Block-expand: 0)
(Block-enable: 1)
(G-CODE GENERATED BY FLATCAM v8.994 - www.flatcam.org - Version Date: 2020/11/7)

(Name: TapBeerFlowControl_hardware-B_Cu.gbr_ncc_cnc)
(Type: G-code from Geometry)
(Units: MM)

(Created on Monday, 27 November 2023 at 01:25)

(This preprocessor is the default preprocessor used by FlatCAM.)
(It is made to work with MACH3 compatible motion controllers.)

(TOOL DIAMETER: 0.3 mm)
(Feedrate_XY: 70.0 mm/min)
(Feedrate_Z: 25.0 mm/min)
(Feedrate rapids 1500.0 mm/min)

(Z_Cut: -0.1 mm)
(Z_Move: 1.0 mm)
(Z Start: None mm)
(Z End: 15.0 mm)
(X,Y End: None mm)
(Steps per circle: 64)
(Preprocessor Geometry: default)

(X range:  111.8770 ...  167.9400  mm)
(Y range:  -89.1695 ...  -27.8757  mm)

(Spindle Speed: 1000.0 RPM)
G21
G90
G94

G01 F70.00

M5
G0 Z15
( ---------- cut-here ---------- )
G0 X-109.207 Y55.8636
T2
M6    
(MSG, Change to Tool Dia = 0.3000)
M0
G0 Z15

M03 S1000.0
G01 F70.00
G0 X3.4087 Y24.4736
G01 F25.00
G1 Z-0.1
G01 F70.00
G1 X3.426 Y24.6933
G1 X3.4774 Y24.9076
G1 X3.5617 Y25.1112
G1 X3.58 Y25.1409
G1 X3.7311 Y24.9898
G1 X3.7073 Y24.9396
G1 X3.703 Y24.9294
G1 X3.6658 Y24.8255
G1 X3.6627 Y24.8148
G1 X3.6368 Y24.7113
G1 X3.6348 Y24.7005
G1 X3.6188 Y24.5912
G1 X3.613 Y24.4736
G1 X3.6188 Y24.356
G1 X3.6348 Y24.2467
G1 X3.6368 Y24.2359
G1 X3.6627 Y24.1324
G1 X3.6658 Y24.1217
G1 X3.703 Y24.0178
G1 X3.7073 Y24.0076
G1 X3.7311 Y23.9574
G1 X3.58 Y23.8063
G1 X3.5617 Y23.836
G1 X3.4774 Y24.0396
G1 X3.426 Y24.2539
G1 X3.4087 Y24.4736
G0 Z1
( ---------- cut-here ---------- )
G0 X4.2968 Y25.5555
G01 F25.00
G1 Z-0.1
G01 F70.00
G1 X4.1457 Y25.7066
G1 X4.1754 Y25.7249
G1 X4.379 Y25.8092
G1 X4.5933 Y25.8606
G1 X4.813 Y25.8779
G1 X5.0327 Y25.8606
G1 X5.247 Y25.8092
G1 X5.4506 Y25.7249
G1 X5.4803 Y25.7066
G1 X5.3292 Y25.5555
G1 X5.279 Y25.5793
G1 X5.2688 Y25.5836
G1 X5.1649 Y25.6208
G1 X5.1542 Y25.6239
G1 X5.0507 Y25.6498
G1 X5.0399 Y25.6518
G1 X4.9306 Y25.6678
G1 X4.813 Y25.6736
G1 X4.6954 Y25.6678
G1 X4.5861 Y25.6518
G1 X4.5753 Y25.6498
G1 X4.4718 Y25.6239
G1 X4.4611 Y25.6208
G1 X4.3572 Y25.5836
G1 X4.347 Y25.5793
G1 X4.2968 Y25.5555
G0 Z1
( ---------- cut-here ---------- )
G0 X5.8949 Y24.9898
G01 F25.00
G1 Z-0.1
G01 F70.00
G1 X6.046 Y25.1409
G1 X6.0643 Y25.1112
G1 X6.1486 Y24.9076
G1 X6.2 Y24.6933
G1 X6.2173 Y24.4736
G1 X6.2 Y24.2539
G1 X6.1486 Y24.0396
G1 X6.0643 Y23.836
G1 X6.046 Y23.8063
G1 X5.8949 Y23.9574
G1 X5.9187 Y24.0076
G1 X5.923 Y24.0178
G1 X5.9602 Y24.1217
G1 X5.9633 Y24.1324
G1 X5.9892 Y24.2359
G1 X5.9912 Y24.2467
G1 X6.0072 Y24.356
G1 X6.013 Y24.4736
G1 X6.0072 Y24.5912
G1 X5.9912 Y24.7005
G1 X5.9892 Y24.7113
G1 X5.9633 Y24.8148
G1 X5.9602 Y24.8255
G1 X5.923 Y24.9294
G1 X5.9187 Y24.9396
G1 X5.8949 Y24.9898
G0 Z1
( ---------- cut-here ---------- )
G0 X4.2968 Y23.3917
G01 F25.00
G1 Z-0.1
G01 F70.00
G1 X4.347 Y23.3679
G1 X4.3572 Y23.3636
G1 X4.4611 Y23.3264
G1 X4.4718 Y23.3233
G1 X4.5753 Y23.2974
G1 X4.5861 Y23.2954
G1 X4.6954 Y23.2794
G1 X4.813 Y23.2736
G1 X4.9306 Y23.2794
G1 X5.0399 Y23.2954
G1 X5.0507 Y23.2974
G1 X5.1542 Y23.3233
G1 X5.1649 Y23.3264
G1 X5.2688 Y23.3636
G1 X5.279 Y23.3679
G1 X5.3292 Y23.3917
G1 X5.4803 Y23.2406
G1 X5.4506 Y23.2223
G1 X5.247 Y23.138
G1 X5.0327 Y23.0866
G1 X4.813 Y23.0693
G1 X4.5933 Y23.0866
G1 X4.379 Y23.138
G1 X4.1755 Y23.2223
G1 X4.1457 Y23.2406
G1 X4.2968 Y23.3917
G0 Z1
( ---------- cut-here ---------- )
G0 X8.5549 Y23.951
G01 F25.00
G1 Z-0.1
G01 F70.00
G1 X8.561 Y23.9671
G1 X8.5668 Y23.9859
G1 X8.5712 Y24.0051
G1 X8.5739 Y24.0221
G1 X8.5876 Y23.9838
G1 X8.5549 Y23.951
G0 Z1
( ---------- cut-here ---------- )
G0 X9.3679 Y23.2323
G01 F25.00
G1 Z-0.1
G01 F70.00
G1 X9.3491 Y23.2307
G1 X9.3297 Y23.2277
G1 X9.3105 Y23.2232
G1 X9.2928 Y23.2178
G1 X9.3232 Y23.2482
G1 X9.3679 Y23.2323
G0 Z1
( ---------- cut-here ---------- )
G0 X11.0711 Y24.9962
G01 F25.00
G1 Z-0.1
G01 F70.00
G1 X11.065 Y24.9801
G1 X11.0592 Y24.9613
G1 X11.0548 Y24.9421
G1 X11.0521 Y24.9251
G1 X11.0384 Y24.9634
G1 X11.0711 Y24.9962
G0 Z1
( ---------- cut-here ---------- )
G0 X10.2581 Y25.7149
G01 F25.00
G1 Z-0.1
G01 F70.00
G1 X10.2769 Y25.7165
G1 X10.2963 Y25.7195
G1 X10.3155 Y25.7239
G1 X10.3332 Y25.7294
G1 X10.3028 Y25.699
G1 X10.2581 Y25.7149
G0 Z1
( ---------- cut-here ---------- )
G0 X15.8104 Y25.7435
G01 F25.00
G1 Z-0.1
G01 F70.00
G1 X15.7942 Y25.7542
G1 X15.7777 Y25.7635
G1 X15.7984 Y25.7635
G1 X15.8104 Y25.7435
G0 Z1
( ---------- cut-here ---------- )
G0 X15.7752 Y26.8037
G01 F25.00
G1 Z-0.1
G01 F70.00
G1 X15.793 Y26.8117
G1 X15.808 Y26.8197
G1 X15.7984 Y26.8037
G1 X15.7752 Y26.8037
G0 Z1
( ---------- cut-here ---------- )
G0 X16.9991 Y27.319
G01 F25.00
G1 Z-0.1
G01 F70.00
G1 X17.0265 Y27.3246
G1 X17.0424 Y27.3286
G1 X17.0261 Y27.3123
G1 X16.9991 Y27.319
G0 Z1
( ---------- cut-here ---------- )
G0 X17.7774 Y26.5925
G01 F25.00
G1 Z-0.1
G01 F70.00
G1 X17.7713 Y26.5765
G1 X17.766 Y26.5594
G1 X17.7617 Y26.5767
G1 X17.7774 Y26.5925
G0 Z1
( ---------- cut-here ---------- )
G0 X17.1245 Y25.2883
G01 F25.00
G1 Z-0.1
G01 F70.00
G1 X17.1164 Y25.2796
G1 X17.1077 Y25.2694
G1 X17.094 Y25.2509
G1 X17.0867 Y25.2396
G1 X17.0815 Y25.2306
G1 X17.0712 Y25.2099
G1 X17.0647 Y25.1941
G1 X17.0594 Y25.1785
G1 X17.0384 Y25.1049
G1 X17.0343 Y25.0883
G1 X17.0305 Y25.0655
G1 X17.0292 Y25.0521
G1 X17.0285 Y25.0388
G1 X17.0285 Y25.0253
G1 X17.0292 Y25.012
G1 X17.0302 Y25.0016
G1 X17.0321 Y24.9883
G1 X17.0352 Y24.9722
G1 X17.04 Y24.9542
G1 X17.0617 Y24.8824
G1 X17.0661 Y24.8699
G1 X17.0713 Y24.8573
G1 X17.0262 Y24.8122
G1 X16.9547 Y24.8301
G1 X16.9403 Y24.8333
G1 X16.8496 Y24.847
G1 X16.8364 Y24.8486
G1 X16.8261 Y24.8493
G1 X16.7462 Y24.8533
G1 X16.7315 Y24.8536
G1 X16.6399 Y24.8493
G1 X16.6296 Y24.8486
G1 X16.6164 Y24.847
G1 X16.5257 Y24.8333
G1 X16.5113 Y24.8301
G1 X16.4398 Y24.8122
G1 X16.3949 Y24.857
G1 X16.4023 Y24.8754
G1 X16.4081 Y24.8931
G1 X16.4286 Y24.9653
G1 X16.4317 Y24.9784
G1 X16.4342 Y24.9916
G1 X16.4368 Y25.0145
G1 X16.4374 Y25.0249
G1 X16.4375 Y25.0383
G1 X16.4362 Y25.0614
G1 X16.4345 Y25.0747
G1 X16.4322 Y25.0879
G1 X16.4299 Y25.098
G1 X16.4264 Y25.111
G1 X16.4054 Y25.1807
G1 X16.3999 Y25.1967
G1 X16.3937 Y25.2116
G1 X16.3893 Y25.2209
G1 X16.3832 Y25.2326
G1 X16.3713 Y25.252
G1 X16.3654 Y25.2605
G1 X16.3573 Y25.2709
G1 X16.3423 Y25.288
G1 X16.4098 Y25.2638
G1 X16.4238 Y25.2593
G1 X16.5113 Y25.2371
G1 X16.5257 Y25.2339
G1 X16.615 Y25.2204
G1 X16.6296 Y25.2186
G1 X16.7198 Y25.2139
G1 X16.7345 Y25.2136
G1 X16.8247 Y25.2178
G1 X16.8393 Y25.2189
G1 X16.9287 Y25.2319
G1 X16.9403 Y25.2339
G1 X16.9547 Y25.2371
G1 X17.0422 Y25.2593
G1 X17.0562 Y25.2638
G1 X17.1245 Y25.2883
G1 X16.5501 Y24.9585
G1 X16.5532 Y24.9761
G1 X16.5556 Y24.9954
G1 X16.5571 Y25.0147
G1 X16.5576 Y25.034
G1 X16.5571 Y25.0534
G1 X16.5557 Y25.0727
G1 X16.5533 Y25.0919
G1 X16.5504 Y25.1086
G1 X16.6003 Y25.1013
G1 X16.623 Y25.0987
G1 X16.7146 Y25.094
G1 X16.7345 Y25.0936
G1 X16.7521 Y25.0941
G1 X16.8306 Y25.0979
G1 X16.843 Y25.0987
G1 X16.8657 Y25.1013
G1 X16.916 Y25.1087
G1 X16.9128 Y25.0905
G1 X16.9104 Y25.0713
G1 X16.9089 Y25.0519
G1 X16.9084 Y25.0326
G1 X16.9089 Y25.0132
G1 X16.9101 Y24.9969
G1 X16.9123 Y24.9776
G1 X16.9155 Y24.9586
G1 X16.8657 Y24.9659
G1 X16.843 Y24.9685
G1 X16.7514 Y24.9732
G1 X16.7315 Y24.9736
G1 X16.7139 Y24.9731
G1 X16.623 Y24.9685
G1 X16.6003 Y24.9659
G1 X16.5501 Y24.9585
G0 Z1
( ---------- cut-here ---------- )
G0 X15.6877 Y24.2632
G01 F25.00
G1 Z-0.1
G01 F70.00
G1 X15.8416 Y24.1093
G1 X15.8262 Y24.0664
G1 X15.8229 Y24.0558
G1 X15.8029 Y23.9761
G1 X15.8006 Y23.9653
G1 X15.7876 Y23.8767
G1 X15.783 Y23.7836
G1 X15.7876 Y23.6905
G1 X15.8006 Y23.6019
G1 X15.8029 Y23.5911
G1 X15.8229 Y23.5114
G1 X15.8262 Y23.5008
G1 X15.8416 Y23.4579
G1 X15.6877 Y23.304
G1 X15.6482 Y23.3888
G1 X15.5961 Y23.5831
G1 X15.5786 Y23.7836
G1 X15.5961 Y23.9841
G1 X15.6482 Y24.1784
G1 X15.6877 Y24.2632
G0 Z1
( ---------- cut-here ---------- )
G0 X16.2534 Y22.7383
G01 F25.00
G1 Z-0.1
G01 F70.00
G1 X16.4073 Y22.8922
G1 X16.4502 Y22.8768
G1 X16.4608 Y22.8735
G1 X16.5405 Y22.8535
G1 X16.5513 Y22.8512
G1 X16.6399 Y22.8382
G1 X16.733 Y22.8336
G1 X16.8261 Y22.8382
G1 X16.9147 Y22.8512
G1 X16.9255 Y22.8535
G1 X17.0052 Y22.8735
G1 X17.0158 Y22.8768
G1 X17.0587 Y22.8922
G1 X17.2126 Y22.7383
G1 X17.1278 Y22.6988
G1 X16.9335 Y22.6467
G1 X16.733 Y22.6292
G1 X16.5325 Y22.6467
G1 X16.3382 Y22.6988
G1 X16.2534 Y22.7383
G0 Z1
( ---------- cut-here ---------- )
G0 X17.6244 Y23.4579
G01 F25.00
G1 Z-0.1
G01 F70.00
G1 X17.6398 Y23.5008
G1 X17.6431 Y23.5114
G1 X17.6631 Y23.5911
G1 X17.6654 Y23.6019
G1 X17.6784 Y23.6905
G1 X17.683 Y23.7836
G1 X17.6784 Y23.8767
G1 X17.6654 Y23.9653
G1 X17.6631 Y23.9761
G1 X17.6431 Y24.0558
G1 X17.6398 Y24.0664
G1 X17.6244 Y24.1093
G1 X17.7783 Y24.2632
G1 X17.8178 Y24.1784
G1 X17.8699 Y23.9841
G1 X17.8874 Y23.7836
G1 X17.8699 Y23.5831
G1 X17.8178 Y23.3888
G1 X17.7783 Y23.304
G1 X17.6244 Y23.4579
G0 Z1
( ---------- cut-here ---------- )
G0 X15.1534 Y19.8289
G01 F25.00
G1 Z-0.1
G01 F70.00
G1 X15.2382 Y19.8684
G1 X15.4325 Y19.9205
G1 X15.633 Y19.938
G1 X15.8335 Y19.9205
G1 X16.0278 Y19.8684
G1 X16.1126 Y19.8289
G1 X15.9587 Y19.675
G1 X15.9158 Y19.6904
G1 X15.9052 Y19.6937
G1 X15.8255 Y19.7137
G1 X15.8147 Y19.716
G1 X15.7261 Y19.729
G1 X15.633 Y19.7336
G1 X15.5399 Y19.729
G1 X15.4513 Y19.716
G1 X15.4405 Y19.7137
G1 X15.3608 Y19.6937
G1 X15.3502 Y19.6904
G1 X15.3073 Y19.675
G1 X15.1534 Y19.8289
G0 Z1
( ---------- cut-here ---------- )
G0 X14.5877 Y19.2632
G01 F25.00
G1 Z-0.1
G01 F70.00
G1 X14.7416 Y19.1093
G1 X14.7262 Y19.0664
G1 X14.7229 Y19.0558
G1 X14.7029 Y18.9761
G1 X14.7006 Y18.9653
G1 X14.6876 Y18.8767
G1 X14.683 Y18.7836
G1 X14.6876 Y18.6905
G1 X14.7006 Y18.6019
G1 X14.7029 Y18.5911
G1 X14.7229 Y18.5114
G1 X14.7262 Y18.5008
G1 X14.7416 Y18.4579
G1 X14.5877 Y18.304
G1 X14.5482 Y18.3888
G1 X14.4961 Y18.5831
G1 X14.4786 Y18.7836
G1 X14.4961 Y18.9841
G1 X14.5482 Y19.1784
G1 X14.5877 Y19.2632
G0 Z1
( ---------- cut-here ---------- )
G0 X16.5244 Y19.1093
G01 F25.00
G1 Z-0.1
G01 F70.00
G1 X16.6783 Y19.2632
G1 X16.7178 Y19.1784
G1 X16.7699 Y18.9841
G1 X16.7874 Y18.7836
G1 X16.7699 Y18.5831
G1 X16.7178 Y18.3888
G1 X16.6783 Y18.304
G1 X16.5244 Y18.4579
G1 X16.5398 Y18.5008
G1 X16.5431 Y18.5114
G1 X16.5631 Y18.5911
G1 X16.5654 Y18.6019
G1 X16.5784 Y18.6905
G1 X16.583 Y18.7836
G1 X16.5784 Y18.8767
G1 X16.5654 Y18.9653
G1 X16.5631 Y18.9761
G1 X16.5431 Y19.0558
G1 X16.5398 Y19.0664
G1 X16.5244 Y19.1093
G0 Z1
( ---------- cut-here ---------- )
G0 X16.5883 Y17.3037
G01 F25.00
G1 Z-0.1
G01 F70.00
G1 X16.5676 Y17.3037
G1 X16.5556 Y17.3237
G1 X16.5718 Y17.313
G1 X16.5883 Y17.3037
G0 Z1
( ---------- cut-here ---------- )
G0 X16.558 Y16.2475
G01 F25.00
G1 Z-0.1
G01 F70.00
G1 X16.5676 Y16.2635
G1 X16.5908 Y16.2635
G1 X16.573 Y16.2555
G1 X16.558 Y16.2475
G0 Z1
( ---------- cut-here ---------- )
G0 X15.3236 Y15.7386
G01 F25.00
G1 Z-0.1
G01 F70.00
G1 X15.3399 Y15.7549
G1 X15.3669 Y15.7482
G1 X15.3395 Y15.7426
G1 X15.3236 Y15.7386
G0 Z1
( ---------- cut-here ---------- )
G0 X14.6 Y16.5078
G01 F25.00
G1 Z-0.1
G01 F70.00
G1 X14.6043 Y16.4905
G1 X14.5886 Y16.4747
G1 X14.5947 Y16.4907
G1 X14.6 Y16.5078
G0 Z1
( ---------- cut-here ---------- )
G0 X14.0462 Y14.2063
G01 F25.00
G1 Z-0.1
G01 F70.00
G1 X14.0361 Y14.2152
G1 X14.0257 Y14.2234
G1 X13.9676 Y14.2662
G1 X13.9551 Y14.2741
G1 X13.8949 Y14.3099
G1 X14.0492 Y14.4642
G1 X14.045 Y14.4536
G1 X14.0406 Y14.4409
G1 X14.0369 Y14.428
G1 X14.0338 Y14.415
G1 X14.0314 Y14.4018
G1 X14.0296 Y14.3885
G1 X14.0285 Y14.3751
G1 X14.028 Y14.3617
G1 X14.0287 Y14.3401
G1 X14.0348 Y14.2588
G1 X14.0366 Y14.2457
G1 X14.0391 Y14.2328
G1 X14.0422 Y14.2199
G1 X14.0462 Y14.2063
G0 Z1
( ---------- cut-here ---------- )
G0 X12.5953 Y14.4136
G01 F25.00
G1 Z-0.1
G01 F70.00
G1 X12.5937 Y14.409
G1 X12.5866 Y14.4081
G1 X12.5916 Y14.4112
G1 X12.5953 Y14.4136
G0 Z1
( ---------- cut-here ---------- )
G0 X11.3069 Y13.6931
G01 F25.00
G1 Z-0.1
G01 F70.00
G1 X11.178 Y13.5642
G1 X11.0468 Y13.6954
G1 X11.0575 Y13.6911
G1 X11.0701 Y13.6868
G1 X11.083 Y13.683
G1 X11.0961 Y13.6799
G1 X11.1093 Y13.6775
G1 X11.1225 Y13.6757
G1 X11.1359 Y13.6746
G1 X11.1493 Y13.6742
G1 X11.1709 Y13.6749
G1 X11.2525 Y13.681
G1 X11.2659 Y13.6829
G1 X11.2791 Y13.6854
G1 X11.2922 Y13.6886
G1 X11.3069 Y13.6931
G0 Z1
( ---------- cut-here ---------- )
G0 X11.9317 Y12.8468
G01 F25.00
G1 Z-0.1
G01 F70.00
G1 X12.0417 Y12.9567
G1 X12.0622 Y12.9342
G1 X12.0736 Y12.9228
G1 X12.1221 Y12.8788
G1 X12.1383 Y12.8653
G1 X12.1029 Y12.8721
G1 X12.083 Y12.8748
G1 X12.0696 Y12.8758
G1 X12.0562 Y12.8761
G1 X12.0332 Y12.875
G1 X12.0228 Y12.8739
G1 X12.0095 Y12.8719
G1 X11.9964 Y12.8692
G1 X11.9834 Y12.8658
G1 X11.9643 Y12.8596
G1 X11.9317 Y12.8468
G0 Z1
( ---------- cut-here ---------- )
G0 X12.6168 Y11.7505
G01 F25.00
G1 Z-0.1
G01 F70.00
G1 X12.6022 Y11.7491
G1 X12.5439 Y11.7404
G1 X12.5295 Y11.7376
G1 X12.4653 Y11.7213
G1 X12.396 Y11.6965
G1 X12.3295 Y11.665
G1 X12.2725 Y11.6311
G1 X12.2603 Y11.623
G1 X12.2072 Y11.5834
G1 X12.158 Y11.539
G1 X12.1476 Y11.5286
G1 X12.1032 Y11.4794
G1 X12.0594 Y11.4203
G1 X12.0252 Y11.3636
G1 X12.0182 Y11.3506
G1 X11.9901 Y11.2906
G1 X11.9653 Y11.2213
G1 X11.9474 Y11.1499
G1 X11.9375 Y11.0844
G1 X11.9361 Y11.0698
G1 X11.933 Y11.0036
G1 X11.9361 Y10.9374
G1 X11.9375 Y10.9228
G1 X11.9474 Y10.8573
G1 X11.9653 Y10.7859
G1 X11.9901 Y10.7166
G1 X12.0182 Y10.6566
G1 X12.0252 Y10.6436
G1 X12.0594 Y10.5869
G1 X12.0987 Y10.5336
G1 X12.1081 Y10.5222
G1 X12.1527 Y10.4733
G1 X12.2044 Y10.4262
G1 X12.213 Y10.4193
G1 X12.2603 Y10.3842
G1 X12.2725 Y10.3761
G1 X12.3295 Y10.3422
G1 X12.396 Y10.3107
G1 X12.4583 Y10.2882
G1 X12.4724 Y10.2839
G1 X12.5367 Y10.268
G1 X12.6058 Y10.2576
G1 X12.6168 Y10.2567
G1 X12.683 Y10.2536
G1 X13.483 Y10.2536
G1 X13.5492 Y10.2567
G1 X13.5638 Y10.2581
G1 X13.6293 Y10.268
G1 X13.7007 Y10.2859
G1 X13.77 Y10.3107
G1 X13.8365 Y10.3422
G1 X13.8997 Y10.38
G1 X13.9588 Y10.4238
G1 X14.0133 Y10.4733
G1 X14.0604 Y10.525
G1 X14.0673 Y10.5336
G1 X14.1066 Y10.5869
G1 X14.1444 Y10.6501
G1 X14.1759 Y10.7166
G1 X14.2007 Y10.7859
G1 X14.2186 Y10.8573
G1 X14.2294 Y10.9301
G1 X14.233 Y11.0036
G1 X14.2294 Y11.0771
G1 X14.2186 Y11.1499
G1 X14.2007 Y11.2213
G1 X14.1759 Y11.2906
G1 X14.1444 Y11.3571
G1 X14.1066 Y11.4203
G1 X14.0628 Y11.4794
G1 X14.0133 Y11.5339
G1 X13.9616 Y11.581
G1 X13.953 Y11.5879
G1 X13.9057 Y11.623
G1 X13.8935 Y11.6311
G1 X13.8365 Y11.665
G1 X13.77 Y11.6965
G1 X13.7077 Y11.719
G1 X13.6936 Y11.7233
G1 X13.6293 Y11.7392
G1 X13.5602 Y11.7496
G1 X13.5492 Y11.7505
G1 X13.483 Y11.7536
G1 X12.683 Y11.7536
G1 X12.6168 Y11.7505
G0 Z1
( ---------- cut-here ---------- )
G0 X11.7293 Y10.9582
G01 F25.00
G1 Z-0.1
G01 F70.00
G1 X11.7379 Y11.1395
G1 X11.7807 Y11.3159
G1 X11.8561 Y11.481
G1 X11.9614 Y11.6289
G1 X12.0928 Y11.7541
G1 X12.2455 Y11.8523
G1 X12.414 Y11.9197
G1 X12.5922 Y11.9541
G1 X13.5283 Y11.9541
G1 X13.6637 Y11.9412
G1 X13.8379 Y11.89
G1 X13.9992 Y11.8068
G1 X14.1419 Y11.6946
G1 X14.2608 Y11.5574
G1 X14.3515 Y11.4003
G1 X14.4109 Y11.2287
G1 X14.4367 Y11.049
G1 X14.4281 Y10.8677
G1 X14.3853 Y10.6913
G1 X14.3099 Y10.5262
G1 X14.2046 Y10.3783
G1 X14.0732 Y10.2531
G1 X13.9205 Y10.1549
G1 X13.752 Y10.0875
G1 X13.5738 Y10.0531
G1 X12.6377 Y10.0531
G1 X12.5023 Y10.066
G1 X12.3281 Y10.1172
G1 X12.1668 Y10.2004
G1 X12.0241 Y10.3126
G1 X11.9052 Y10.4498
G1 X11.8145 Y10.6069
G1 X11.7551 Y10.7785
G1 X11.7293 Y10.9582
G0 Z1
( ---------- cut-here ---------- )
G0 X12.6168 Y9.2105
G01 F25.00
G1 Z-0.1
G01 F70.00
G1 X12.6022 Y9.2091
G1 X12.5439 Y9.2004
G1 X12.5295 Y9.1976
G1 X12.4653 Y9.1813
G1 X12.396 Y9.1565
G1 X12.3295 Y9.125
G1 X12.2725 Y9.0911
G1 X12.2603 Y9.083
G1 X12.2072 Y9.0434
G1 X12.158 Y8.999
G1 X12.1476 Y8.9886
G1 X12.1032 Y8.9394
G1 X12.0594 Y8.8803
G1 X12.0252 Y8.8236
G1 X12.0182 Y8.8106
G1 X11.9901 Y8.7506
G1 X11.9653 Y8.6813
G1 X11.9474 Y8.6099
G1 X11.9375 Y8.5444
G1 X11.9361 Y8.5298
G1 X11.933 Y8.4636
G1 X11.9361 Y8.3974
G1 X11.9375 Y8.3828
G1 X11.9474 Y8.3173
G1 X11.9653 Y8.2459
G1 X11.9901 Y8.1766
G1 X12.0182 Y8.1166
G1 X12.0252 Y8.1036
G1 X12.0594 Y8.0469
G1 X12.0987 Y7.9936
G1 X12.1081 Y7.9822
G1 X12.1527 Y7.9333
G1 X12.2044 Y7.8862
G1 X12.213 Y7.8793
G1 X12.2603 Y7.8442
G1 X12.2725 Y7.8361
G1 X12.3295 Y7.8022
G1 X12.396 Y7.7707
G1 X12.4583 Y7.7482
G1 X12.4724 Y7.7439
G1 X12.5367 Y7.728
G1 X12.6058 Y7.7176
G1 X12.6168 Y7.7167
G1 X12.683 Y7.7136
G1 X13.483 Y7.7136
G1 X13.5492 Y7.7167
G1 X13.5638 Y7.7181
G1 X13.6293 Y7.728
G1 X13.7007 Y7.7459
G1 X13.77 Y7.7707
G1 X13.8365 Y7.8022
G1 X13.8997 Y7.84
G1 X13.9588 Y7.8838
G1 X14.0133 Y7.9333
G1 X14.0604 Y7.985
G1 X14.0673 Y7.9936
G1 X14.1066 Y8.0469
G1 X14.1444 Y8.1101
G1 X14.1759 Y8.1766
G1 X14.2007 Y8.2459
G1 X14.2186 Y8.3173
G1 X14.2294 Y8.3901
G1 X14.233 Y8.4636
G1 X14.2294 Y8.5371
G1 X14.2186 Y8.6099
G1 X14.2007 Y8.6813
G1 X14.1759 Y8.7506
G1 X14.1444 Y8.8171
G1 X14.1066 Y8.8803
G1 X14.0628 Y8.9394
G1 X14.0133 Y8.9939
G1 X13.9616 Y9.041
G1 X13.953 Y9.0479
G1 X13.9057 Y9.083
G1 X13.8935 Y9.0911
G1 X13.8365 Y9.125
G1 X13.77 Y9.1565
G1 X13.7077 Y9.179
G1 X13.6936 Y9.1833
G1 X13.6293 Y9.1992
G1 X13.5602 Y9.2096
G1 X13.5492 Y9.2105
G1 X13.483 Y9.2136
G1 X12.683 Y9.2136
G1 X12.6168 Y9.2105
G0 Z1
( ---------- cut-here ---------- )
G0 X11.7293 Y8.4182
G01 F25.00
G1 Z-0.1
G01 F70.00
G1 X11.7379 Y8.5995
G1 X11.7807 Y8.7759
G1 X11.8561 Y8.941
G1 X11.9614 Y9.0889
G1 X12.0928 Y9.2141
G1 X12.2455 Y9.3123
G1 X12.414 Y9.3797
G1 X12.5922 Y9.4141
G1 X13.5283 Y9.4141
G1 X13.6637 Y9.4012
G1 X13.8379 Y9.35
G1 X13.9992 Y9.2668
G1 X14.1419 Y9.1546
G1 X14.2608 Y9.0175
G1 X14.3515 Y8.8603
G1 X14.4109 Y8.6887
G1 X14.4367 Y8.509
G1 X14.4281 Y8.3277
G1 X14.3853 Y8.1513
G1 X14.3099 Y7.9862
G1 X14.2046 Y7.8383
G1 X14.0732 Y7.7131
G1 X13.9205 Y7.6149
G1 X13.752 Y7.5475
G1 X13.5738 Y7.5131
G1 X12.6377 Y7.5131
G1 X12.5023 Y7.526
G1 X12.3281 Y7.5772
G1 X12.1668 Y7.6604
G1 X12.0241 Y7.7726
G1 X11.9052 Y7.9098
G1 X11.8145 Y8.0669
G1 X11.7551 Y8.2385
G1 X11.7293 Y8.4182
G0 Z1
( ---------- cut-here ---------- )
G0 X12.6168 Y6.6705
G01 F25.00
G1 Z-0.1
G01 F70.00
G1 X12.6022 Y6.6691
G1 X12.5439 Y6.6604
G1 X12.5295 Y6.6576
G1 X12.4653 Y6.6413
G1 X12.396 Y6.6165
G1 X12.3295 Y6.585
G1 X12.2725 Y6.5511
G1 X12.2603 Y6.543
G1 X12.2072 Y6.5034
G1 X12.158 Y6.459
G1 X12.1476 Y6.4486
G1 X12.1032 Y6.3994
G1 X12.0594 Y6.3403
G1 X12.0252 Y6.2836
G1 X12.0182 Y6.2706
G1 X11.9901 Y6.2106
G1 X11.9653 Y6.1413
G1 X11.9474 Y6.0699
G1 X11.9375 Y6.0044
G1 X11.9361 Y5.9898
G1 X11.933 Y5.9236
G1 X11.9361 Y5.8574
G1 X11.9375 Y5.8428
G1 X11.9474 Y5.7773
G1 X11.9653 Y5.7059
G1 X11.9901 Y5.6366
G1 X12.0182 Y5.5766
G1 X12.0252 Y5.5636
G1 X12.0594 Y5.5069
G1 X12.0987 Y5.4536
G1 X12.1081 Y5.4422
G1 X12.1527 Y5.3933
G1 X12.2044 Y5.3462
G1 X12.213 Y5.3393
G1 X12.2603 Y5.3042
G1 X12.2725 Y5.2961
G1 X12.3295 Y5.2622
G1 X12.396 Y5.2307
G1 X12.4583 Y5.2082
G1 X12.4724 Y5.2039
G1 X12.5367 Y5.188
G1 X12.6058 Y5.1776
G1 X12.6168 Y5.1767
G1 X12.683 Y5.1736
G1 X13.483 Y5.1736
G1 X13.5492 Y5.1767
G1 X13.5638 Y5.1781
G1 X13.6293 Y5.188
G1 X13.7007 Y5.2059
G1 X13.77 Y5.2307
G1 X13.8365 Y5.2622
G1 X13.8997 Y5.3
G1 X13.9588 Y5.3438
G1 X14.0133 Y5.3933
G1 X14.0604 Y5.445
G1 X14.0673 Y5.4536
G1 X14.1066 Y5.5069
G1 X14.1444 Y5.5701
G1 X14.1759 Y5.6366
G1 X14.2007 Y5.7059
G1 X14.2186 Y5.7773
G1 X14.2294 Y5.8501
G1 X14.233 Y5.9236
G1 X14.2294 Y5.9971
G1 X14.2186 Y6.0699
G1 X14.2007 Y6.1413
G1 X14.1759 Y6.2106
G1 X14.1444 Y6.2771
G1 X14.1066 Y6.3403
G1 X14.0628 Y6.3994
G1 X14.0133 Y6.4539
G1 X13.9616 Y6.501
G1 X13.953 Y6.5079
G1 X13.9057 Y6.543
G1 X13.8935 Y6.5511
G1 X13.8365 Y6.585
G1 X13.77 Y6.6165
G1 X13.7077 Y6.639
G1 X13.6936 Y6.6433
G1 X13.6293 Y6.6592
G1 X13.5602 Y6.6696
G1 X13.5492 Y6.6705
G1 X13.483 Y6.6736
G1 X12.683 Y6.6736
G1 X12.6168 Y6.6705
G0 Z1
( ---------- cut-here ---------- )
G0 X11.7293 Y5.8782
G01 F25.00
G1 Z-0.1
G01 F70.00
G1 X11.7379 Y6.0595
G1 X11.7807 Y6.2359
G1 X11.8561 Y6.401
G1 X11.9614 Y6.5489
G1 X12.0928 Y6.6741
G1 X12.2455 Y6.7723
G1 X12.414 Y6.8397
G1 X12.5922 Y6.8741
G1 X13.5283 Y6.8741
G1 X13.6637 Y6.8612
G1 X13.8379 Y6.81
G1 X13.9992 Y6.7268
G1 X14.1419 Y6.6146
G1 X14.2608 Y6.4775
G1 X14.3515 Y6.3203
G1 X14.4109 Y6.1487
G1 X14.4367 Y5.969
G1 X14.4281 Y5.7877
G1 X14.3853 Y5.6113
G1 X14.3099 Y5.4462
G1 X14.2046 Y5.2983
G1 X14.0732 Y5.1731
G1 X13.9205 Y5.0749
G1 X13.752 Y5.0075
G1 X13.5738 Y4.9731
G1 X12.6377 Y4.9731
G1 X12.5023 Y4.986
G1 X12.3281 Y5.0372
G1 X12.1668 Y5.1204
G1 X12.0241 Y5.2326
G1 X11.9052 Y5.3698
G1 X11.8145 Y5.5269
G1 X11.7551 Y5.6985
G1 X11.7293 Y5.8782
G0 Z1
( ---------- cut-here ---------- )
G0 X12.6168 Y4.1305
G01 F25.00
G1 Z-0.1
G01 F70.00
G1 X12.6022 Y4.1291
G1 X12.5439 Y4.1204
G1 X12.5295 Y4.1176
G1 X12.4653 Y4.1013
G1 X12.396 Y4.0765
G1 X12.3295 Y4.045
G1 X12.2725 Y4.0111
G1 X12.2603 Y4.003
G1 X12.2072 Y3.9634
G1 X12.158 Y3.919
G1 X12.1476 Y3.9086
G1 X12.1032 Y3.8594
G1 X12.0594 Y3.8003
G1 X12.0252 Y3.7436
G1 X12.0182 Y3.7306
G1 X11.9901 Y3.6706
G1 X11.9653 Y3.6013
G1 X11.9474 Y3.5299
G1 X11.9375 Y3.4644
G1 X11.9361 Y3.4498
G1 X11.933 Y3.3836
G1 X11.9366 Y3.3101
G1 X11.9462 Y3.2445
G1 X11.949 Y3.2301
G1 X11.9653 Y3.1659
G1 X11.9901 Y3.0966
G1 X12.0182 Y3.0366
G1 X12.0252 Y3.0236
G1 X12.0594 Y2.9669
G1 X12.0987 Y2.9136
G1 X12.1081 Y2.9022
G1 X12.1527 Y2.8533
G1 X12.2044 Y2.8062
G1 X12.213 Y2.7993
G1 X12.2603 Y2.7642
G1 X12.2725 Y2.7561
G1 X12.3295 Y2.7222
G1 X12.396 Y2.6907
G1 X12.4583 Y2.6682
G1 X12.4724 Y2.6639
G1 X12.5367 Y2.648
G1 X12.6058 Y2.6376
G1 X12.6168 Y2.6367
G1 X12.683 Y2.6336
G1 X13.483 Y2.6336
G1 X13.5492 Y2.6367
G1 X13.5638 Y2.6381
G1 X13.6293 Y2.648
G1 X13.7007 Y2.6659
G1 X13.77 Y2.6907
G1 X13.8365 Y2.7222
G1 X13.8997 Y2.76
G1 X13.9588 Y2.8038
G1 X14.0133 Y2.8533
G1 X14.0604 Y2.905
G1 X14.0673 Y2.9136
G1 X14.1066 Y2.9669
G1 X14.1444 Y3.0301
G1 X14.1759 Y3.0966
G1 X14.2007 Y3.1659
G1 X14.2186 Y3.2373
G1 X14.2294 Y3.3101
G1 X14.233 Y3.3836
G1 X14.2294 Y3.4571
G1 X14.2186 Y3.5299
G1 X14.2007 Y3.6013
G1 X14.1759 Y3.6706
G1 X14.1444 Y3.7371
G1 X14.1066 Y3.8003
G1 X14.0628 Y3.8594
G1 X14.0133 Y3.9139
G1 X13.9616 Y3.961
G1 X13.953 Y3.9679
G1 X13.9057 Y4.003
G1 X13.8935 Y4.0111
G1 X13.8365 Y4.045
G1 X13.77 Y4.0765
G1 X13.7077 Y4.099
G1 X13.6936 Y4.1033
G1 X13.6293 Y4.1192
G1 X13.5602 Y4.1296
G1 X13.5492 Y4.1305
G1 X13.483 Y4.1336
G1 X12.683 Y4.1336
G1 X12.6168 Y4.1305
G0 Z1
( ---------- cut-here ---------- )
G0 X11.7293 Y3.3382
G01 F25.00
G1 Z-0.1
G01 F70.00
G1 X11.7379 Y3.5195
G1 X11.7807 Y3.6959
G1 X11.8561 Y3.861
G1 X11.9614 Y4.0089
G1 X12.0928 Y4.1341
G1 X12.2455 Y4.2323
G1 X12.414 Y4.2997
G1 X12.5922 Y4.3341
G1 X13.5283 Y4.3341
G1 X13.6637 Y4.3212
G1 X13.8379 Y4.27
G1 X13.9992 Y4.1868
G1 X14.1419 Y4.0746
G1 X14.2608 Y3.9374
G1 X14.3515 Y3.7803
G1 X14.4109 Y3.6087
G1 X14.4367 Y3.429
G1 X14.4281 Y3.2477
G1 X14.3853 Y3.0713
G1 X14.3099 Y2.9062
G1 X14.2046 Y2.7583
G1 X14.0732 Y2.6331
G1 X13.9205 Y2.5349
G1 X13.752 Y2.4675
G1 X13.5738 Y2.4331
G1 X12.6377 Y2.4331
G1 X12.5023 Y2.446
G1 X12.3281 Y2.4972
G1 X12.1668 Y2.5804
G1 X12.0241 Y2.6926
G1 X11.9052 Y2.8298
G1 X11.8145 Y2.9869
G1 X11.7551 Y3.1585
G1 X11.7293 Y3.3382
G0 Z1
( ---------- cut-here ---------- )
G0 X11.8213 Y1.2436
G01 F25.00
G1 Z-0.1
G01 F70.00
G1 X11.8565 Y1.3208
G1 X11.9618 Y1.4685
G1 X12.0931 Y1.5937
G1 X12.2457 Y1.6918
G1 X12.4141 Y1.7593
G1 X12.5923 Y1.7936
G1 X12.683 Y1.7936
G1 X12.683 Y1.5936
G1 X12.6168 Y1.5905
G1 X12.6022 Y1.5891
G1 X12.5367 Y1.5792
G1 X12.4724 Y1.5633
G1 X12.4583 Y1.559
G1 X12.396 Y1.5365
G1 X12.336 Y1.5084
G1 X12.3262 Y1.5033
G1 X12.2725 Y1.4711
G1 X12.2603 Y1.463
G1 X12.2072 Y1.4234
G1 X12.1553 Y1.3765
G1 X12.1476 Y1.3686
G1 X12.1081 Y1.325
G1 X12.1009 Y1.3165
G1 X12.0615 Y1.2633
G1 X12.0492 Y1.2436
G1 X11.8213 Y1.2436
G0 Z1
( ---------- cut-here ---------- )
G0 X11.817 Y0.4436
G01 F25.00
G1 Z-0.1
G01 F70.00
G1 X12.0492 Y0.4436
G1 X12.0615 Y0.4239
G1 X12.1009 Y0.3707
G1 X12.1081 Y0.3622
G1 X12.1476 Y0.3186
G1 X12.1553 Y0.3107
G1 X12.2016 Y0.2687
G1 X12.213 Y0.2593
G1 X12.2663 Y0.22
G1 X12.3262 Y0.1839
G1 X12.336 Y0.1788
G1 X12.396 Y0.1507
G1 X12.4583 Y0.1282
G1 X12.4724 Y0.1239
G1 X12.5367 Y0.108
G1 X12.6022 Y0.0981
G1 X12.6168 Y0.0967
G1 X12.683 Y0.0936
G1 X12.683 Y-0.1064
G1 X12.6377 Y-0.1064
G1 X12.5024 Y-0.0935
G1 X12.3283 Y-0.0424
G1 X12.167 Y0.0408
G1 X12.0244 Y0.1529
G1 X11.9056 Y0.29
G1 X11.817 Y0.4436
G0 Z1
( ---------- cut-here ---------- )
G0 X12.6168 Y-0.9495
G01 F25.00
G1 Z-0.1
G01 F70.00
G1 X12.6022 Y-0.9509
G1 X12.5439 Y-0.9596
G1 X12.5295 Y-0.9624
G1 X12.4653 Y-0.9787
G1 X12.396 Y-1.0035
G1 X12.3295 Y-1.035
G1 X12.2725 Y-1.0689
G1 X12.2603 Y-1.077
G1 X12.2072 Y-1.1166
G1 X12.158 Y-1.161
G1 X12.1476 Y-1.1714
G1 X12.1032 Y-1.2206
G1 X12.0594 Y-1.2797
G1 X12.0252 Y-1.3364
G1 X12.0182 Y-1.3494
G1 X11.9901 Y-1.4094
G1 X11.9653 Y-1.4787
G1 X11.9474 Y-1.5501
G1 X11.9375 Y-1.6156
G1 X11.9361 Y-1.6302
G1 X11.933 Y-1.6964
G1 X11.9366 Y-1.7699
G1 X11.9462 Y-1.8355
G1 X11.949 Y-1.8499
G1 X11.9653 Y-1.9141
G1 X11.9901 Y-1.9834
G1 X12.0182 Y-2.0434
G1 X12.0252 Y-2.0564
G1 X12.0594 Y-2.1131
G1 X12.0987 Y-2.1664
G1 X12.1081 Y-2.1778
G1 X12.1527 Y-2.2267
G1 X12.2044 Y-2.2738
G1 X12.213 Y-2.2807
G1 X12.2603 Y-2.3158
G1 X12.2725 Y-2.3239
G1 X12.3295 Y-2.3578
G1 X12.396 Y-2.3893
G1 X12.4583 Y-2.4118
G1 X12.4724 Y-2.4161
G1 X12.5367 Y-2.432
G1 X12.6058 Y-2.4424
G1 X12.6168 Y-2.4433
G1 X12.683 Y-2.4464
G1 X13.483 Y-2.4464
G1 X13.5492 Y-2.4433
G1 X13.5638 Y-2.4419
G1 X13.6293 Y-2.432
G1 X13.7007 Y-2.4141
G1 X13.77 Y-2.3893
G1 X13.8365 Y-2.3578
G1 X13.8997 Y-2.32
G1 X13.9588 Y-2.2762
G1 X14.0133 Y-2.2267
G1 X14.0604 Y-2.175
G1 X14.0673 Y-2.1664
G1 X14.1066 Y-2.1131
G1 X14.1444 Y-2.0499
G1 X14.1759 Y-1.9834
G1 X14.2007 Y-1.9141
G1 X14.2186 Y-1.8427
G1 X14.2294 Y-1.7699
G1 X14.233 Y-1.6964
G1 X14.2294 Y-1.6229
G1 X14.2186 Y-1.5501
G1 X14.2007 Y-1.4787
G1 X14.1759 Y-1.4094
G1 X14.1444 Y-1.3429
G1 X14.1066 Y-1.2797
G1 X14.0628 Y-1.2206
G1 X14.0133 Y-1.1661
G1 X13.9616 Y-1.119
G1 X13.953 Y-1.1121
G1 X13.9057 Y-1.077
G1 X13.8935 Y-1.0689
G1 X13.8365 Y-1.035
G1 X13.77 Y-1.0035
G1 X13.7077 Y-0.981
G1 X13.6936 Y-0.9767
G1 X13.6293 Y-0.9608
G1 X13.5602 Y-0.9504
G1 X13.5492 Y-0.9495
G1 X13.483 Y-0.9464
G1 X12.683 Y-0.9464
G1 X12.6168 Y-0.9495
G0 Z1
( ---------- cut-here ---------- )
G0 X11.7293 Y-1.7418
G01 F25.00
G1 Z-0.1
G01 F70.00
G1 X11.7379 Y-1.5605
G1 X11.7807 Y-1.3841
G1 X11.8561 Y-1.219
G1 X11.9614 Y-1.0711
G1 X12.0928 Y-0.9459
G1 X12.2455 Y-0.8477
G1 X12.414 Y-0.7803
G1 X12.5922 Y-0.7459
G1 X13.5283 Y-0.7459
G1 X13.6637 Y-0.7588
G1 X13.8379 Y-0.81
G1 X13.9992 Y-0.8932
G1 X14.0074 Y-0.8996
G1 X14.1419 Y-1.0054
G1 X14.2608 Y-1.1425
G1 X14.3515 Y-1.2997
G1 X14.4109 Y-1.4713
G1 X14.4367 Y-1.651
G1 X14.4281 Y-1.8323
G1 X14.3853 Y-2.0087
G1 X14.3099 Y-2.1738
G1 X14.2046 Y-2.3217
G1 X14.0732 Y-2.4469
G1 X13.9205 Y-2.5451
G1 X13.752 Y-2.6125
G1 X13.5738 Y-2.6469
G1 X12.6377 Y-2.6469
G1 X12.5023 Y-2.634
G1 X12.3281 Y-2.5828
G1 X12.1668 Y-2.4996
G1 X12.0241 Y-2.3874
G1 X11.9052 Y-2.2502
G1 X11.8145 Y-2.0931
G1 X11.7551 Y-1.9215
G1 X11.7293 Y-1.7418
G0 Z1
( ---------- cut-here ---------- )
G0 X12.6168 Y-3.4895
G01 F25.00
G1 Z-0.1
G01 F70.00
G1 X12.6022 Y-3.4909
G1 X12.5439 Y-3.4996
G1 X12.5295 Y-3.5024
G1 X12.4653 Y-3.5187
G1 X12.396 Y-3.5435
G1 X12.3295 Y-3.575
G1 X12.2725 Y-3.6089
G1 X12.2603 Y-3.617
G1 X12.2072 Y-3.6566
G1 X12.158 Y-3.701
G1 X12.1476 Y-3.7114
G1 X12.1032 Y-3.7606
G1 X12.0594 Y-3.8197
G1 X12.0252 Y-3.8764
G1 X12.0182 Y-3.8894
G1 X11.9901 Y-3.9494
G1 X11.9653 Y-4.0187
G1 X11.9474 Y-4.0901
G1 X11.9375 Y-4.1556
G1 X11.9361 Y-4.1702
G1 X11.933 Y-4.2364
G1 X11.9366 Y-4.3099
G1 X11.9462 Y-4.3755
G1 X11.949 Y-4.3899
G1 X11.9653 Y-4.4541
G1 X11.9901 Y-4.5234
G1 X12.0182 Y-4.5834
G1 X12.0252 Y-4.5964
G1 X12.0594 Y-4.6531
G1 X12.0987 Y-4.7064
G1 X12.1081 Y-4.7178
G1 X12.1527 Y-4.7667
G1 X12.2044 Y-4.8138
G1 X12.213 Y-4.8207
G1 X12.2603 Y-4.8558
G1 X12.2725 Y-4.8639
G1 X12.3295 Y-4.8978
G1 X12.396 Y-4.9293
G1 X12.4583 Y-4.9518
G1 X12.4724 Y-4.9561
G1 X12.5367 Y-4.972
G1 X12.6058 Y-4.9824
G1 X12.6168 Y-4.9833
G1 X12.683 Y-4.9864
G1 X13.483 Y-4.9864
G1 X13.5492 Y-4.9833
G1 X13.5638 Y-4.9819
G1 X13.6293 Y-4.972
G1 X13.7007 Y-4.9541
G1 X13.77 Y-4.9293
G1 X13.8365 Y-4.8978
G1 X13.8997 Y-4.86
G1 X13.9588 Y-4.8162
G1 X14.0133 Y-4.7667
G1 X14.0604 Y-4.715
G1 X14.0673 Y-4.7064
G1 X14.1066 Y-4.6531
G1 X14.1444 Y-4.5899
G1 X14.1759 Y-4.5234
G1 X14.2007 Y-4.4541
G1 X14.2186 Y-4.3827
G1 X14.2294 Y-4.3099
G1 X14.233 Y-4.2364
G1 X14.2294 Y-4.1629
G1 X14.2186 Y-4.0901
G1 X14.2007 Y-4.0187
G1 X14.1759 Y-3.9494
G1 X14.1444 Y-3.8829
G1 X14.1066 Y-3.8197
G1 X14.0628 Y-3.7606
G1 X14.0133 Y-3.7061
G1 X13.9616 Y-3.659
G1 X13.953 Y-3.6521
G1 X13.9057 Y-3.617
G1 X13.8935 Y-3.6089
G1 X13.8365 Y-3.575
G1 X13.77 Y-3.5435
G1 X13.7077 Y-3.521
G1 X13.6936 Y-3.5167
G1 X13.6293 Y-3.5008
G1 X13.5602 Y-3.4904
G1 X13.5492 Y-3.4895
G1 X13.483 Y-3.4864
G1 X12.683 Y-3.4864
G1 X12.6168 Y-3.4895
G0 Z1
( ---------- cut-here ---------- )
G0 X12.4378 Y-5.4766
G01 F25.00
G1 Z-0.1
G01 F70.00
G1 X12.4496 Y-5.4524
G1 X12.4552 Y-5.4393
G1 X12.4605 Y-5.4254
G1 X12.465 Y-5.412
G1 X12.4693 Y-5.3977
G1 X12.4757 Y-5.3709
G1 X12.4794 Y-5.3497
G1 X12.4911 Y-5.2672
G1 X12.4924 Y-5.2524
G1 X12.4932 Y-5.2382
G1 X12.4934 Y-5.2233
G1 X12.4931 Y-5.208
G1 X12.5546 Y-5.2174
G1 X12.542 Y-5.2416
G1 X12.5361 Y-5.2545
G1 X12.5305 Y-5.2683
G1 X12.5256 Y-5.2816
G1 X12.521 Y-5.2958
G1 X12.5139 Y-5.3224
G1 X12.511 Y-5.3363
G1 X12.5085 Y-5.3509
G1 X12.4972 Y-5.4297
G1 X12.4948 Y-5.4549
G1 X12.4941 Y-5.4803
G1 X12.4733 Y-5.4783
G1 X12.4378 Y-5.4766
G1 X12.6695 Y-5.6584
G1 X12.6563 Y-5.6517
G1 X12.6234 Y-5.6364
G1 X12.6097 Y-5.6311
G1 X12.5754 Y-5.6191
G1 X12.5612 Y-5.6151
G1 X12.5259 Y-5.6066
G1 X12.5114 Y-5.604
G1 X12.4791 Y-5.5993
G1 X12.4622 Y-5.5979
G1 X12.4245 Y-5.5963
G1 X12.1496 Y-5.5963
G1 X12.1628 Y-5.5905
G1 X12.178 Y-5.5827
G1 X12.1896 Y-5.5759
G1 X12.2033 Y-5.5669
G1 X12.217 Y-5.5566
G1 X12.2294 Y-5.5459
G1 X12.2391 Y-5.5367
G1 X12.2508 Y-5.5241
G1 X12.3028 Y-5.4639
G1 X12.311 Y-5.4533
G1 X12.3207 Y-5.4392
G1 X12.331 Y-5.4219
G1 X12.3411 Y-5.4011
G1 X12.3484 Y-5.3824
G1 X12.3543 Y-5.3632
G1 X12.3575 Y-5.3502
G1 X12.36 Y-5.337
G1 X12.3707 Y-5.2627
G1 X12.3724 Y-5.2479
G1 X12.3733 Y-5.2345
G1 X12.3734 Y-5.2174
G1 X12.3724 Y-5.201
G1 X12.3704 Y-5.184
G1 X12.3675 Y-5.1679
G1 X12.3634 Y-5.1512
G1 X12.3594 Y-5.1384
G1 X12.3538 Y-5.123
G1 X12.3179 Y-5.044
G1 X12.3107 Y-5.03
G1 X12.3041 Y-5.0188
G1 X12.3393 Y-5.0354
G1 X12.3514 Y-5.0407
G1 X12.4227 Y-5.0665
G1 X12.4432 Y-5.0725
G1 X12.5018 Y-5.0871
G1 X12.5212 Y-5.0911
G1 X12.5963 Y-5.1021
G1 X12.6109 Y-5.1032
G1 X12.6698 Y-5.1061
G1 X12.683 Y-5.1064
G1 X12.8383 Y-5.1064
G1 X12.8248 Y-5.1123
G1 X12.8095 Y-5.1201
G1 X12.7954 Y-5.1284
G1 X12.7842 Y-5.1359
G1 X12.7706 Y-5.1462
G1 X12.7603 Y-5.1549
G1 X12.7484 Y-5.1661
G1 X12.7392 Y-5.1759
G1 X12.6866 Y-5.2366
G1 X12.6765 Y-5.2495
G1 X12.6688 Y-5.2605
G1 X12.6584 Y-5.2776
G1 X12.6505 Y-5.2928
G1 X12.6425 Y-5.3113
G1 X12.6359 Y-5.3303
G1 X12.6316 Y-5.3461
G1 X12.6281 Y-5.3629
G1 X12.6158 Y-5.4482
G1 X12.6146 Y-5.4616
G1 X12.6141 Y-5.4787
G1 X12.6144 Y-5.4921
G1 X12.6155 Y-5.5055
G1 X12.6176 Y-5.5218
G1 X12.6209 Y-5.5386
G1 X12.6242 Y-5.5516
G1 X12.6291 Y-5.5672
G1 X12.6327 Y-5.577
G1 X12.6379 Y-5.5893
G1 X12.6695 Y-5.6584
G0 Z1
( ---------- cut-here ---------- )
G0 X11.6439 Y-6.6365
G01 F25.00
G1 Z-0.1
G01 F70.00
G1 X11.6577 Y-6.6448
G1 X11.7233 Y-6.6871
G1 X11.7371 Y-6.6972
G1 X11.7524 Y-6.7102
G1 X11.7688 Y-6.7265
G1 X11.7776 Y-6.7366
G1 X11.786 Y-6.7471
G1 X11.7938 Y-6.758
G1 X11.8011 Y-6.7693
G1 X11.8077 Y-6.7809
G1 X11.8134 Y-6.792
G1 X11.8131 Y-6.7683
G1 X11.8167 Y-6.6963
G1 X11.8186 Y-6.6794
G1 X11.825 Y-6.6365
G1 X11.6439 Y-6.6365
G1 X10.148 Y-6.6525
G1 X10.163 Y-6.6445
G1 X10.1808 Y-6.6365
G1 X10.1576 Y-6.6365
G1 X10.148 Y-6.6525
G0 Z1
( ---------- cut-here ---------- )
G0 X10.1783 Y-5.5963
G01 F25.00
G1 Z-0.1
G01 F70.00
G1 X10.1576 Y-5.5963
G1 X10.1456 Y-5.5763
G1 X10.1618 Y-5.587
G1 X10.1783 Y-5.5963
G0 Z1
( ---------- cut-here ---------- )
G0 X8.9472 Y-5.0834
G01 F25.00
G1 Z-0.1
G01 F70.00
G1 X8.9299 Y-5.0877
G1 X8.9142 Y-5.072
G1 X8.9301 Y-5.0781
G1 X8.9472 Y-5.0834
G0 Z1
( ---------- cut-here ---------- )
G0 X8.178 Y-5.807
G01 F25.00
G1 Z-0.1
G01 F70.00
G1 X8.1943 Y-5.8233
G1 X8.1876 Y-5.8503
G1 X8.182 Y-5.8229
G1 X8.178 Y-5.807
G0 Z1
( ---------- cut-here ---------- )
G0 X4.493 Y-6.0964
G01 F25.00
G1 Z-0.1
G01 F70.00
G1 X4.818 Y-6.0964
G1 X4.8499 Y-6.095
G1 X4.8609 Y-6.0941
G1 X4.8924 Y-6.0894
G1 X4.9032 Y-6.0871
G1 X4.9341 Y-6.0792
G1 X4.9642 Y-6.0686
G1 X4.9745 Y-6.0645
G1 X5.0033 Y-6.0509
G1 X5.013 Y-6.0455
G1 X5.0371 Y-6.031
G1 X5.0462 Y-6.0247
G1 X5.0689 Y-6.0079
G1 X5.0773 Y-6.0008
G1 X5.0955 Y-5.9843
G1 X5.1059 Y-5.9739
G1 X5.1248 Y-5.953
G1 X5.1317 Y-5.9444
G1 X5.1506 Y-5.9186
G1 X5.1708 Y-5.885
G1 X5.1876 Y-5.8495
G1 X5.1997 Y-5.816
G1 X5.2027 Y-5.8054
G1 X5.2103 Y-5.7744
G1 X5.2152 Y-5.7429
G1 X5.2166 Y-5.7283
G1 X5.218 Y-5.6964
G1 X5.218 Y-5.4964
G1 X5.418 Y-5.4964
G1 X5.418 Y-5.7387
G1 X5.41 Y-5.8175
G1 X5.3655 Y-5.9517
G1 X5.2919 Y-6.0711
G1 X5.1927 Y-6.1703
G1 X5.0733 Y-6.2439
G1 X4.9391 Y-6.2884
G1 X4.8603 Y-6.2964
G1 X4.493 Y-6.2964
G1 X4.493 Y-6.0964
G0 Z1
( ---------- cut-here ---------- )
G0 X2.968 Y-5.4964
G01 F25.00
G1 Z-0.1
G01 F70.00
G1 X2.968 Y-5.7001
G1 X2.9699 Y-5.7356
G1 X2.9757 Y-5.7744
G1 X2.9833 Y-5.8054
G1 X2.9875 Y-5.8195
G1 X2.9984 Y-5.8495
G1 X3.0119 Y-5.8784
G1 X3.0189 Y-5.8914
G1 X3.0354 Y-5.9186
G1 X3.0543 Y-5.9444
G1 X3.0636 Y-5.9557
G1 X3.0852 Y-5.9792
G1 X3.1142 Y-6.0056
G1 X3.1458 Y-6.029
G1 X3.173 Y-6.0455
G1 X3.186 Y-6.0525
G1 X3.2082 Y-6.063
G1 X3.2183 Y-6.0673
G1 X3.2519 Y-6.0792
G1 X3.2864 Y-6.088
G1 X3.2972 Y-6.09
G1 X3.3288 Y-6.0945
G1 X3.3643 Y-6.0964
G1 X3.693 Y-6.0964
G1 X3.693 Y-6.2964
G1 X3.3257 Y-6.2964
G1 X3.2469 Y-6.2884
G1 X3.1127 Y-6.2439
G1 X2.9933 Y-6.1703
G1 X2.8941 Y-6.0711
G1 X2.8205 Y-5.9517
G1 X2.776 Y-5.8175
G1 X2.768 Y-5.7387
G1 X2.768 Y-5.4964
G1 X2.968 Y-5.4964
G0 Z1
( ---------- cut-here ---------- )
G0 X3.4983 Y-3.744
G01 F25.00
G1 Z-0.1
G01 F70.00
G1 X3.5927 Y-3.778
G1 X3.6095 Y-3.7834
G1 X3.6265 Y-3.7881
G1 X3.7081 Y-3.8086
G1 X3.7275 Y-3.8129
G1 X3.7449 Y-3.8158
G1 X3.8355 Y-3.8292
G1 X3.8633 Y-3.8317
G1 X3.9599 Y-3.8363
G1 X4.218 Y-3.8364
G1 X4.2371 Y-3.8359
G1 X4.3212 Y-3.8318
G1 X4.3381 Y-3.8306
G1 X4.3585 Y-3.8281
G1 X4.4418 Y-3.8157
G1 X4.4585 Y-3.8129
G1 X4.4786 Y-3.8084
G1 X4.5602 Y-3.7879
G1 X4.5765 Y-3.7834
G1 X4.5961 Y-3.777
G1 X4.6754 Y-3.7486
G1 X4.6892 Y-3.7434
G1 X4.6921 Y-3.7824
G1 X4.6948 Y-3.8046
G1 X4.6995 Y-3.8302
G1 X4.7063 Y-3.8564
G1 X3.4782 Y-3.8564
G1 X3.4819 Y-3.8412
G1 X3.485 Y-3.8259
G1 X3.4983 Y-3.744
G1 X3.3335 Y-3.519
G1 X3.3445 Y-3.5268
G1 X3.3557 Y-3.534
G1 X3.4387 Y-3.5834
G1 X3.4519 Y-3.5901
G1 X3.538 Y-3.6306
G1 X3.5518 Y-3.6359
G1 X3.6415 Y-3.6677
G1 X3.6557 Y-3.6717
G1 X3.7445 Y-3.6938
G1 X3.7626 Y-3.6971
G1 X3.8568 Y-3.7109
G1 X3.8714 Y-3.712
G1 X3.9548 Y-3.7161
G1 X3.968 Y-3.7164
G1 X4.218 Y-3.7164
G1 X4.2312 Y-3.7161
G1 X4.3263 Y-3.7111
G1 X4.3409 Y-3.7094
G1 X4.4234 Y-3.6971
G1 X4.4351 Y-3.6952
G1 X4.448 Y-3.6923
G1 X4.5303 Y-3.6717
G1 X4.5445 Y-3.6677
G1 X4.5557 Y-3.664
G1 X4.6452 Y-3.6317
G1 X4.6587 Y-3.6258
G1 X4.7355 Y-3.5895
G1 X4.7447 Y-3.5848
G1 X4.7562 Y-3.5784
G1 X4.829 Y-3.5347
G1 X4.8415 Y-3.5268
G1 X4.8549 Y-3.5172
G1 X4.8347 Y-3.5545
G1 X4.8289 Y-3.5666
G1 X4.8237 Y-3.579
G1 X4.8192 Y-3.5916
G1 X4.8153 Y-3.6045
G1 X4.8112 Y-3.6211
G1 X4.8088 Y-3.6343
G1 X4.807 Y-3.6476
G1 X4.8059 Y-3.661
G1 X4.8056 Y-3.684
G1 X4.8111 Y-3.7656
G1 X4.8135 Y-3.7871
G1 X4.8159 Y-3.8003
G1 X4.8189 Y-3.8134
G1 X4.8217 Y-3.8234
G1 X4.8258 Y-3.8362
G1 X4.8344 Y-3.8576
G1 X4.8389 Y-3.867
G1 X4.8452 Y-3.8789
G1 X4.8537 Y-3.8929
G1 X4.8643 Y-3.9082
G1 X4.9094 Y-3.9684
G1 X4.9181 Y-3.979
G1 X4.9261 Y-3.9878
G1 X4.9078 Y-3.9844
G1 X4.8704 Y-3.9791
G1 X4.8558 Y-3.9779
G1 X4.8195 Y-3.9764
G1 X3.368 Y-3.9764
G1 X3.3302 Y-3.9779
G1 X3.3156 Y-3.9791
G1 X3.2745 Y-3.9849
G1 X3.2555 Y-3.9888
G1 X3.3097 Y-3.9282
G1 X3.3219 Y-3.9122
G1 X3.3329 Y-3.8953
G1 X3.3439 Y-3.875
G1 X3.3495 Y-3.8628
G1 X3.3544 Y-3.8504
G1 X3.3588 Y-3.8377
G1 X3.3625 Y-3.8248
G1 X3.3655 Y-3.8117
G1 X3.3677 Y-3.8
G1 X3.3792 Y-3.7296
G1 X3.3813 Y-3.7126
G1 X3.3823 Y-3.6962
G1 X3.3824 Y-3.6828
G1 X3.3818 Y-3.6694
G1 X3.3806 Y-3.6561
G1 X3.378 Y-3.6391
G1 X3.3753 Y-3.626
G1 X3.3719 Y-3.613
G1 X3.3679 Y-3.6002
G1 X3.3607 Y-3.5814
G1 X3.3335 Y-3.519
G0 Z1
( ---------- cut-here ---------- )
G0 X2.8356 Y-2.1842
G01 F25.00
G1 Z-0.1
G01 F70.00
G1 X2.9244 Y-1.9939
G1 X3.0449 Y-1.8218
G1 X3.1934 Y-1.6733
G1 X3.3396 Y-1.5708
G1 X3.3482 Y-1.5644
G1 X3.3536 Y-1.5598
G1 X3.3613 Y-1.5523
G1 X3.3685 Y-1.5444
G1 X3.4189 Y-1.4811
G1 X3.427 Y-1.4686
G1 X3.4338 Y-1.4554
G1 X3.4393 Y-1.4415
G1 X3.4434 Y-1.4272
G1 X3.4455 Y-1.4162
G1 X3.4464 Y-1.4088
G1 X3.454 Y-1.3356
G1 X3.4544 Y-1.3207
G1 X3.4537 Y-1.3096
G1 X3.4528 Y-1.3022
G1 X3.45 Y-1.2876
G1 X3.448 Y-1.2804
G1 X3.4443 Y-1.2698
G1 X3.4383 Y-1.2562
G1 X3.4051 Y-1.1906
G1 X3.3976 Y-1.1781
G1 X3.3889 Y-1.1664
G1 X3.3817 Y-1.1582
G1 X3.3738 Y-1.1506
G1 X3.3518 Y-1.1315
G1 X3.3428 Y-1.1242
G1 X3.1934 Y-1.0195
G1 X3.0449 Y-0.871
G1 X2.9244 Y-0.6989
G1 X2.8356 Y-0.5086
G1 X2.7812 Y-0.3057
G1 X2.7629 Y-0.0964
G1 X2.7812 Y0.1129
G1 X2.8356 Y0.3158
G1 X2.9244 Y0.5061
G1 X3.0449 Y0.6782
G1 X3.1934 Y0.8267
G1 X3.3655 Y0.9472
G1 X3.5558 Y1.036
G1 X3.7587 Y1.0904
G1 X3.9156 Y1.1041
G1 X4.2704 Y1.1041
G1 X4.303 Y1.1012
G1 X4.3137 Y1.1007
G1 X4.328 Y1.1011
G1 X4.3386 Y1.1024
G1 X4.4177 Y1.1181
G1 X4.4282 Y1.1209
G1 X4.4419 Y1.1258
G1 X4.4551 Y1.132
G1 X4.4675 Y1.1395
G1 X4.5035 Y1.1657
G1 X4.5123 Y1.1728
G1 X4.5206 Y1.1805
G1 X9.5622 Y6.2221
G1 X9.5695 Y6.2299
G1 X9.5741 Y6.2354
G1 X9.5784 Y6.2411
G1 X9.5843 Y6.2501
G1 X9.6213 Y6.3176
G1 X9.6277 Y6.3308
G1 X9.6317 Y6.3411
G1 X9.6348 Y6.3517
G1 X9.6372 Y6.3625
G1 X9.6388 Y6.3734
G1 X9.6416 Y6.3998
G1 X9.6425 Y6.4158
G1 X9.6425 Y11.8299
G1 X9.6423 Y11.8372
G1 X9.6408 Y11.8588
G1 X9.6387 Y11.876
G1 X9.6419 Y11.9139
G1 X9.6425 Y11.9285
G1 X9.6457 Y11.9568
G1 X9.6517 Y12.0248
G1 X9.675 Y12.0887
G1 X9.6978 Y12.1573
G1 X9.7376 Y12.2181
G1 X9.7733 Y12.276
G1 X9.8261 Y12.3259
G1 X10.135 Y12.6349
G1 X10.1399 Y12.64
G1 X10.1469 Y12.6482
G1 X10.1532 Y12.6568
G1 X10.1589 Y12.6659
G1 X10.1941 Y12.7304
G1 X10.1991 Y12.7404
G1 X10.2033 Y12.7507
G1 X10.2057 Y12.7578
G1 X10.2086 Y12.7685
G1 X10.2101 Y12.7758
G1 X10.212 Y12.7906
G1 X10.2124 Y12.7981
G1 X10.2123 Y12.8092
G1 X10.2068 Y12.8864
G1 X10.2058 Y12.8938
G1 X10.2038 Y12.9049
G1 X10.2009 Y12.9157
G1 X10.1972 Y12.9264
G1 X10.1928 Y12.9367
G1 X10.1875 Y12.9466
G1 X10.1532 Y13.0004
G1 X10.1469 Y13.009
G1 X10.1375 Y13.0198
G1 X8.6734 Y14.4839
G1 X8.6682 Y14.489
G1 X8.6518 Y14.5031
G1 X8.6381 Y14.5138
G1 X8.6137 Y14.5429
G1 X8.6037 Y14.5537
G1 X8.586 Y14.576
G1 X8.5421 Y14.6283
G1 X8.5134 Y14.6899
G1 X8.4809 Y14.7549
G1 X8.4671 Y14.8215
G1 X8.4505 Y14.8922
G1 X8.4525 Y14.9645
G1 X8.4525 Y16.0484
G1 X8.4521 Y16.0591
G1 X8.4514 Y16.0662
G1 X8.4498 Y16.0768
G1 X8.4474 Y16.0872
G1 X8.4267 Y16.1577
G1 X8.422 Y16.1712
G1 X8.4177 Y16.1811
G1 X8.4144 Y16.1875
G1 X8.4089 Y16.1967
G1 X8.4005 Y16.2084
G1 X8.3936 Y16.2166
G1 X8.3604 Y16.2526
G1 X8.3551 Y16.2576
G1 X8.3468 Y16.2646
G1 X8.1675 Y16.4042
G1 X8.0212 Y16.563
G1 X8.0059 Y16.5858
G1 X8.0015 Y16.5914
G1 X7.9943 Y16.5993
G1 X7.9839 Y16.6091
G1 X7.9307 Y16.6544
G1 X7.922 Y16.6614
G1 X7.9095 Y16.6696
G1 X7.8963 Y16.6765
G1 X7.8825 Y16.6821
G1 X7.8754 Y16.6843
G1 X7.8646 Y16.6871
G1 X7.8536 Y16.689
G1 X7.7807 Y16.6989
G1 X7.7658 Y16.6998
G1 X7.7509 Y16.6992
G1 X7.7398 Y16.6978
G1 X7.7253 Y16.6946
G1 X7.7146 Y16.6913
G1 X7.7042 Y16.6873
G1 X7.6308 Y16.6529
G1 X7.618 Y16.6454
G1 X7.6061 Y16.6366
G1 X7.5977 Y16.6292
G1 X7.5899 Y16.6213
G1 X7.5633 Y16.5906
G1 X7.5552 Y16.5798
G1 X7.5444 Y16.5633
G1 X7.3982 Y16.4045
G1 X7.2278 Y16.272
G1 X7.038 Y16.1692
G1 X6.913 Y16.1263
G1 X6.913 Y16.3395
G1 X6.9315 Y16.3462
G1 X6.9416 Y16.3505
G1 X7.0261 Y16.3905
G1 X7.0391 Y16.3974
G1 X7.1255 Y16.4494
G1 X7.2066 Y16.5093
G1 X7.218 Y16.5187
G1 X7.2926 Y16.5865
G1 X7.3652 Y16.6667
G1 X7.4297 Y16.7536
G1 X7.4853 Y16.8464
G1 X7.5286 Y16.9375
G1 X7.5342 Y16.9511
G1 X7.568 Y17.0461
G1 X7.5936 Y17.1474
G1 X7.5956 Y17.1583
G1 X7.6093 Y17.2507
G1 X7.6105 Y17.2617
G1 X7.6155 Y17.3624
G1 X7.6155 Y17.4611
G1 X7.6107 Y17.5618
G1 X7.6093 Y17.5765
G1 X7.5943 Y17.6762
G1 X7.57 Y17.774
G1 X7.5657 Y17.7881
G1 X7.5316 Y17.883
G1 X7.4886 Y17.9742
G1 X7.4835 Y17.984
G1 X7.4297 Y18.0736
G1 X7.3652 Y18.1605
G1 X7.2926 Y18.2407
G1 X7.2152 Y18.311
G1 X7.2066 Y18.3179
G1 X7.1255 Y18.3778
G1 X7.0391 Y18.4298
G1 X7.0261 Y18.4367
G1 X6.9416 Y18.4767
G1 X6.9315 Y18.481
G1 X6.913 Y18.4877
G1 X6.913 Y18.7009
G1 X7.038 Y18.658
G1 X7.2278 Y18.5552
G1 X7.3982 Y18.4227
G1 X7.5444 Y18.2639
G1 X7.5553 Y18.2472
G1 X7.5617 Y18.2386
G1 X7.5711 Y18.2279
G1 X7.5815 Y18.2181
G1 X7.6375 Y18.1704
G1 X7.6434 Y18.1658
G1 X7.6527 Y18.1596
G1 X7.6591 Y18.1558
G1 X7.6691 Y18.1507
G1 X7.6829 Y18.1451
G1 X7.6972 Y18.141
G1 X7.7118 Y18.1382
G1 X7.781 Y18.1288
G1 X7.7922 Y18.1277
G1 X7.8033 Y18.1274
G1 X7.8108 Y18.1277
G1 X7.8219 Y18.1289
G1 X7.8292 Y18.1301
G1 X7.8437 Y18.1336
G1 X7.8508 Y18.1358
G1 X7.8612 Y18.1399
G1 X7.9279 Y18.171
G1 X7.9346 Y18.1743
G1 X7.9442 Y18.1798
G1 X7.9535 Y18.1861
G1 X7.9622 Y18.193
G1 X7.9677 Y18.198
G1 X7.9755 Y18.2059
G1 X8.0042 Y18.2392
G1 X8.0102 Y18.2474
G1 X8.0212 Y18.2642
G1 X8.1675 Y18.423
G1 X8.3374 Y18.5553
G1 X8.527 Y18.658
G1 X8.732 Y18.7286
G1 X8.945 Y18.7641
G1 X9.161 Y18.7641
G1 X9.374 Y18.7286
G1 X9.5782 Y18.6584
G1 X9.7681 Y18.5557
G1 X9.9385 Y18.423
G1 X10.0848 Y18.2642
G1 X10.2029 Y18.0834
G1 X10.2896 Y17.8856
G1 X10.3426 Y17.6763
G1 X10.356 Y17.515
G1 X10.356 Y17.3122
G1 X10.3426 Y17.1509
G1 X10.2896 Y16.9416
G1 X10.2029 Y16.7438
G1 X10.0848 Y16.563
G1 X9.9385 Y16.4042
G1 X9.7592 Y16.2646
G1 X9.751 Y16.2577
G1 X9.7433 Y16.2503
G1 X9.7362 Y16.2423
G1 X9.7317 Y16.2367
G1 X9.6867 Y16.1742
G1 X9.6828 Y16.1682
G1 X9.6775 Y16.1588
G1 X9.6743 Y16.1524
G1 X9.6702 Y16.1424
G1 X9.6667 Y16.1322
G1 X9.6633 Y16.1183
G1 X9.6551 Y16.07
G1 X9.6542 Y16.0628
G1 X9.6535 Y16.052
G1 X9.6535 Y15.3158
G1 X9.6539 Y15.3051
G1 X9.6546 Y15.298
G1 X9.6562 Y15.2874
G1 X9.6577 Y15.2805
G1 X9.6803 Y15.203
G1 X9.6841 Y15.1926
G1 X9.6886 Y15.1825
G1 X9.6957 Y15.1697
G1 X9.7019 Y15.1605
G1 X9.7256 Y15.1309
G1 X9.7337 Y15.1221
G1 X10.9868 Y13.8691
G1 X10.9976 Y13.8597
G1 X11.0062 Y13.8534
G1 X11.0123 Y13.8496
G1 X11.083 Y13.8108
G1 X11.0966 Y13.8046
G1 X11.1072 Y13.8009
G1 X11.1179 Y13.798
G1 X11.1289 Y13.7959
G1 X11.1437 Y13.7944
G1 X11.1586 Y13.7943
G1 X11.2395 Y13.8003
G1 X11.2543 Y13.8028
G1 X11.2651 Y13.8057
G1 X11.2758 Y13.8094
G1 X11.2894 Y13.8155
G1 X11.3024 Y13.823
G1 X11.3468 Y13.8515
G1 X11.3556 Y13.8576
G1 X11.3639 Y13.8643
G1 X11.3717 Y13.8716
G1 X11.4259 Y13.9258
G1 X11.4449 Y13.9476
G1 X11.4532 Y13.9585
G1 X11.4823 Y13.9829
G1 X11.4931 Y13.9929
G1 X11.5154 Y14.0106
G1 X11.5677 Y14.0545
G1 X11.6293 Y14.0832
G1 X11.6943 Y14.1157
G1 X11.7609 Y14.1295
G1 X11.8313 Y14.1461
G1 X11.8547 Y14.1484
G1 X11.8692 Y14.1511
G1 X11.8833 Y14.1552
G1 X11.8953 Y14.1599
G1 X11.9372 Y14.1711
G1 X11.9477 Y14.1748
G1 X11.9578 Y14.1793
G1 X11.9676 Y14.1846
G1 X11.977 Y14.1905
G1 X12.0111 Y14.2165
G1 X12.0928 Y14.2941
G1 X12.2455 Y14.3923
G1 X12.4141 Y14.4598
G1 X12.4299 Y14.4639
G1 X12.4367 Y14.4662
G1 X12.4466 Y14.4703
G1 X12.5215 Y14.509
G1 X12.5308 Y14.5148
G1 X12.5367 Y14.5191
G1 X12.5424 Y14.5236
G1 X12.5506 Y14.5309
G1 X12.5606 Y14.5416
G1 X12.5876 Y14.5751
G1 X12.594 Y14.5847
G1 X12.6135 Y14.6162
G1 X12.6661 Y14.6659
G1 X14.4123 Y16.4122
G1 X14.4219 Y16.4227
G1 X14.4305 Y16.4342
G1 X14.4362 Y16.4432
G1 X14.4747 Y16.5142
G1 X14.4791 Y16.5241
G1 X14.4839 Y16.5379
G1 X14.4865 Y16.5485
G1 X14.4884 Y16.5592
G1 X14.4895 Y16.5701
G1 X14.4918 Y16.6072
G1 X14.492 Y16.6223
G1 X14.4781 Y16.7836
G1 X14.4956 Y16.9841
G1 X14.5478 Y17.1786
G1 X14.6328 Y17.361
G1 X14.7483 Y17.526
G1 X14.8906 Y17.6683
G1 X15.0556 Y17.7838
G1 X15.24 Y17.8698
G1 X15.2468 Y17.8723
G1 X15.2566 Y17.8766
G1 X15.266 Y17.8816
G1 X15.2931 Y17.8973
G1 X15.3572 Y17.8745
G1 X15.4477 Y17.8519
G1 X15.5399 Y17.8382
G1 X15.633 Y17.8336
G1 X15.7261 Y17.8382
G1 X15.8183 Y17.8519
G1 X15.9088 Y17.8745
G1 X15.9729 Y17.8973
G1 X16 Y17.8816
G1 X16.0094 Y17.8766
G1 X16.0192 Y17.8723
G1 X16.026 Y17.8698
G1 X16.2104 Y17.7838
G1 X16.3754 Y17.6683
G1 X16.5177 Y17.526
G1 X16.5395 Y17.4952
G1 X16.5463 Y17.487
G1 X16.5537 Y17.4792
G1 X16.5644 Y17.4698
G1 X16.619 Y17.4262
G1 X16.6307 Y17.4177
G1 X16.6431 Y17.4105
G1 X16.6528 Y17.4058
G1 X16.6629 Y17.4019
G1 X16.6732 Y17.3986
G1 X16.6837 Y17.3962
G1 X16.7343 Y17.3863
G1 X16.7451 Y17.3848
G1 X16.756 Y17.3841
G1 X41.0593 Y17.3841
G1 X41.0666 Y17.3843
G1 X41.0882 Y17.3858
G1 X41.1054 Y17.3879
G1 X41.1433 Y17.3847
G1 X41.1579 Y17.3841
G1 X41.1862 Y17.3809
G1 X41.2542 Y17.3749
G1 X41.3181 Y17.3516
G1 X41.387 Y17.3287
G1 X41.4439 Y17.2913
G1 X41.5056 Y17.2531
G1 X41.5553 Y17.2005
G1 X44.8794 Y13.8764
G1 X44.8872 Y13.8691
G1 X44.8928 Y13.8646
G1 X44.9014 Y13.8583
G1 X44.9105 Y13.8526
G1 X44.9749 Y13.8174
G1 X44.985 Y13.8123
G1 X44.9989 Y13.8068
G1 X45.0097 Y13.8037
G1 X45.0244 Y13.8007
G1 X45.0394 Y13.7992
G1 X45.0934 Y13.7979
G1 X45.1041 Y13.7982
G1 X45.1112 Y13.7989
G1 X45.2932 Y13.8291
G1 X45.5128 Y13.8291
G1 X45.7295 Y13.7929
G1 X45.9373 Y13.7216
G1 X46.1305 Y13.6171
G1 X46.3038 Y13.4821
G1 X46.4526 Y13.3205
G1 X46.5727 Y13.1366
G1 X46.661 Y12.9355
G1 X46.7149 Y12.7225
G1 X46.733 Y12.5036
G1 X46.7149 Y12.2847
G1 X46.661 Y12.0717
G1 X46.5727 Y11.8706
G1 X46.4526 Y11.6867
G1 X46.3038 Y11.5251
G1 X46.1252 Y11.3861
G1 X46.1161 Y11.3793
G1 X46.1053 Y11.3699
G1 X46.0956 Y11.3595
G1 X46.0455 Y11.3005
G1 X46.037 Y11.2883
G1 X46.0298 Y11.2753
G1 X46.0239 Y11.2617
G1 X46.0214 Y11.2546
G1 X46.0184 Y11.2439
G1 X46.0061 Y11.1862
G1 X46.0042 Y11.1723
G1 X46.0035 Y11.1583
G1 X46.0035 Y6.1873
G1 X46.0037 Y6.18
G1 X46.0052 Y6.1584
G1 X46.0073 Y6.1412
G1 X46.0041 Y6.1033
G1 X46.0035 Y6.0887
G1 X46.0003 Y6.0604
G1 X45.9943 Y5.9927
G1 X45.9696 Y5.9243
G1 X45.9481 Y5.8595
G1 X45.9107 Y5.8027
G1 X45.8725 Y5.741
G1 X45.8199 Y5.6913
G1 X45.2988 Y5.1699
G1 X45.2919 Y5.1618
G1 X45.2876 Y5.1561
G1 X45.2836 Y5.1501
G1 X45.2782 Y5.1409
G1 X45.243 Y5.0764
G1 X45.2369 Y5.063
G1 X45.2321 Y5.049
G1 X45.2295 Y5.0383
G1 X45.2276 Y5.0274
G1 X45.224 Y4.9934
G1 X45.2235 Y4.9814
G1 X45.2235 Y3.3538
G1 X45.22 Y3.3209
G1 X45.1838 Y3.2239
G1 X45.1234 Y3.1432
G1 X45.0427 Y3.0828
G1 X44.9457 Y3.0466
G1 X44.9128 Y3.0431
G1 X42.6332 Y3.0431
G1 X42.6003 Y3.0466
G1 X42.5033 Y3.0828
G1 X42.4226 Y3.1432
G1 X42.3622 Y3.2239
G1 X42.326 Y3.3209
G1 X42.3225 Y3.3538
G1 X42.3225 Y5.6334
G1 X42.326 Y5.6663
G1 X42.3622 Y5.7633
G1 X42.4226 Y5.844
G1 X42.5033 Y5.9044
G1 X42.6003 Y5.9406
G1 X42.6332 Y5.9441
G1 X44.2608 Y5.9441
G1 X44.2679 Y5.9443
G1 X44.2786 Y5.9452
G1 X44.2892 Y5.9468
G1 X44.2996 Y5.9492
G1 X44.3736 Y5.9709
G1 X44.384 Y5.9747
G1 X44.3907 Y5.9776
G1 X44.4038 Y5.9844
G1 X44.4161 Y5.9925
G1 X44.4426 Y6.0136
G1 X44.4516 Y6.0216
G1 X44.7222 Y6.2921
G1 X44.7295 Y6.2999
G1 X44.7384 Y6.3111
G1 X44.7461 Y6.3231
G1 X44.7813 Y6.3876
G1 X44.7847 Y6.3941
G1 X44.7891 Y6.4042
G1 X44.7928 Y6.4146
G1 X44.7948 Y6.4217
G1 X44.7972 Y6.4325
G1 X44.7988 Y6.4434
G1 X44.802 Y6.4738
G1 X44.8025 Y6.4858
G1 X44.8025 Y11.1583
G1 X44.8021 Y11.169
G1 X44.801 Y11.1796
G1 X44.7991 Y11.1902
G1 X44.7964 Y11.2005
G1 X44.7767 Y11.2676
G1 X44.7732 Y11.2782
G1 X44.7689 Y11.2885
G1 X44.762 Y11.3016
G1 X44.7538 Y11.314
G1 X44.7444 Y11.3256
G1 X44.7028 Y11.3678
G1 X44.6925 Y11.3772
G1 X44.5022 Y11.5251
G1 X44.3534 Y11.6867
G1 X44.2333 Y11.8706
G1 X44.145 Y12.0717
G1 X44.0911 Y12.2847
G1 X44.073 Y12.5036
G1 X44.0911 Y12.7225
G1 X44.103 Y12.7696
G1 X44.105 Y12.7801
G1 X44.1062 Y12.7907
G1 X44.1066 Y12.7978
G1 X44.1066 Y12.8086
G1 X44.104 Y12.8784
G1 X44.1032 Y12.8894
G1 X44.1015 Y12.9004
G1 X44.0981 Y12.9147
G1 X44.0946 Y12.9252
G1 X44.0888 Y12.9388
G1 X44.0816 Y12.9517
G1 X44.0517 Y13
G1 X44.043 Y13.0126
G1 X44.0356 Y13.0215
G1 X44.0303 Y13.0271
G1 X40.9545 Y16.1028
G1 X40.9467 Y16.1101
G1 X40.9412 Y16.1147
G1 X40.9355 Y16.119
G1 X40.9265 Y16.1249
G1 X40.8558 Y16.1636
G1 X40.8491 Y16.1668
G1 X40.8389 Y16.171
G1 X40.8284 Y16.1745
G1 X40.8177 Y16.1771
G1 X40.8068 Y16.179
G1 X40.7768 Y16.1822
G1 X40.7608 Y16.1831
G1 X16.7597 Y16.1831
G1 X16.749 Y16.1827
G1 X16.7419 Y16.182
G1 X16.7348 Y16.181
G1 X16.7243 Y16.1789
G1 X16.6435 Y16.1551
G1 X16.6368 Y16.1526
G1 X16.6269 Y16.1482
G1 X16.6143 Y16.1413
G1 X16.6082 Y16.1374
G1 X16.5995 Y16.131
G1 X16.5887 Y16.1216
G1 X16.5541 Y16.0884
G1 X16.5465 Y16.0805
G1 X16.5373 Y16.0692
G1 X16.5177 Y16.0412
G1 X16.3754 Y15.8989
G1 X16.2104 Y15.7834
G1 X16.028 Y15.6984
G1 X15.8336 Y15.6463
G1 X15.633 Y15.6287
G1 X15.4792 Y15.6422
G1 X15.4685 Y15.6427
G1 X15.4542 Y15.6423
G1 X15.4436 Y15.641
G1 X15.4366 Y15.6398
G1 X15.3681 Y15.626
G1 X15.3575 Y15.6235
G1 X15.3471 Y15.6202
G1 X15.3336 Y15.6146
G1 X15.324 Y15.6096
G1 X15.3147 Y15.6039
G1 X15.2757 Y15.5754
G1 X15.2699 Y15.5706
G1 X15.2616 Y15.5629
G1 X14.2254 Y14.5268
G1 X14.2181 Y14.519
G1 X14.2114 Y14.5106
G1 X14.2073 Y14.5048
G1 X14.2016 Y14.4957
G1 X14.1646 Y14.428
G1 X14.1599 Y14.4179
G1 X14.1571 Y14.411
G1 X14.1537 Y14.4003
G1 X14.1519 Y14.3931
G1 X14.1504 Y14.3858
G1 X14.1488 Y14.3747
G1 X14.1481 Y14.3636
G1 X14.1481 Y14.3562
G1 X14.1534 Y14.279
G1 X14.1541 Y14.2717
G1 X14.1558 Y14.2609
G1 X14.1583 Y14.2502
G1 X14.1604 Y14.2432
G1 X14.1629 Y14.2362
G1 X14.1671 Y14.2261
G1 X14.174 Y14.2132
G1 X14.1965 Y14.1753
G1 X14.2027 Y14.1657
G1 X14.2096 Y14.1565
G1 X14.2608 Y14.0974
G1 X14.3515 Y13.9403
G1 X14.4109 Y13.7687
G1 X14.4367 Y13.589
G1 X14.4281 Y13.4077
G1 X14.3853 Y13.2313
G1 X14.3099 Y13.0662
G1 X14.2046 Y12.9183
G1 X14.0732 Y12.7931
G1 X13.9205 Y12.6949
G1 X13.752 Y12.6275
G1 X13.5738 Y12.5931
G1 X12.6377 Y12.5931
G1 X12.5023 Y12.606
G1 X12.3281 Y12.6572
G1 X12.1911 Y12.7278
G1 X12.1813 Y12.7321
G1 X12.1678 Y12.7368
G1 X12.154 Y12.7401
G1 X12.0853 Y12.7533
G1 X12.0743 Y12.7551
G1 X12.0669 Y12.7557
G1 X12.052 Y12.756
G1 X12.0372 Y12.7547
G1 X12.0225 Y12.752
G1 X12.0082 Y12.7479
G1 X11.9363 Y12.7193
G1 X11.9229 Y12.7132
G1 X11.9101 Y12.7057
G1 X11.9011 Y12.6993
G1 X11.8925 Y12.6923
G1 X11.8782 Y12.6795
G1 X11.6193 Y12.4207
G1 X11.6109 Y12.4117
G1 X11.5794 Y12.3764
G1 X11.5582 Y12.3587
G1 X11.5485 Y12.3499
G1 X10.9238 Y11.7251
G1 X10.9142 Y11.7146
G1 X10.9056 Y11.7031
G1 X10.8982 Y11.6909
G1 X10.8647 Y11.6296
G1 X10.8598 Y11.6197
G1 X10.8556 Y11.6095
G1 X10.8512 Y11.5955
G1 X10.8482 Y11.5811
G1 X10.8444 Y11.5474
G1 X10.8436 Y11.5354
G1 X10.8435 Y6.1173
G1 X10.8437 Y6.11
G1 X10.8452 Y6.0884
G1 X10.8473 Y6.0712
G1 X10.8441 Y6.0333
G1 X10.8435 Y6.0187
G1 X10.8403 Y5.9904
G1 X10.8343 Y5.9227
G1 X10.8096 Y5.8544
G1 X10.7881 Y5.7895
G1 X10.7507 Y5.7327
G1 X10.7125 Y5.671
G1 X10.6599 Y5.6213
G1 X5.4631 Y0.4245
G1 X5.4558 Y0.4166
G1 X5.447 Y0.4054
G1 X5.4393 Y0.3934
G1 X5.4006 Y0.3223
G1 X5.3948 Y0.3086
G1 X5.3913 Y0.2979
G1 X5.3887 Y0.287
G1 X5.3869 Y0.2759
G1 X5.3859 Y0.2647
G1 X5.3857 Y0.2573
G1 X5.3871 Y0.1951
G1 X5.3878 Y0.1844
G1 X5.3892 Y0.1738
G1 X5.3913 Y0.1633
G1 X5.4048 Y0.1129
G1 X5.4231 Y-0.0964
G1 X5.4048 Y-0.3057
G1 X5.3504 Y-0.5086
G1 X5.2616 Y-0.6989
G1 X5.1411 Y-0.871
G1 X4.9926 Y-1.0195
G1 X4.8435 Y-1.124
G1 X4.8351 Y-1.1307
G1 X4.8247 Y-1.1405
G1 X4.8152 Y-1.1512
G1 X4.7716 Y-1.2057
G1 X4.765 Y-1.2147
G1 X4.759 Y-1.2242
G1 X4.7522 Y-1.2374
G1 X4.7479 Y-1.2478
G1 X4.7456 Y-1.2548
G1 X4.7418 Y-1.2692
G1 X4.7396 Y-1.284
G1 X4.7324 Y-1.3535
G1 X4.7316 Y-1.3646
G1 X4.7317 Y-1.3758
G1 X4.7323 Y-1.3832
G1 X4.7337 Y-1.3943
G1 X4.7352 Y-1.4016
G1 X4.7392 Y-1.4159
G1 X4.7431 Y-1.4264
G1 X4.7461 Y-1.4332
G1 X4.7809 Y-1.5022
G1 X4.7864 Y-1.5116
G1 X4.7948 Y-1.5235
G1 X4.8043 Y-1.5346
G1 X4.8122 Y-1.5422
G1 X4.8342 Y-1.5613
G1 X4.8432 Y-1.5686
G1 X4.9926 Y-1.6733
G1 X5.1411 Y-1.8218
G1 X5.1833 Y-1.882
G1 X5.19 Y-1.8904
G1 X5.1972 Y-1.8982
G1 X5.2077 Y-1.9079
G1 X5.265 Y-1.9538
G1 X5.2737 Y-1.9603
G1 X5.2797 Y-1.9642
G1 X5.2891 Y-1.9695
G1 X5.2989 Y-1.9742
G1 X5.3089 Y-1.9781
G1 X5.3192 Y-1.9814
G1 X5.3297 Y-1.9838
G1 X5.3767 Y-1.9931
G1 X5.3875 Y-1.9948
G1 X5.3948 Y-1.9955
G1 X5.4057 Y-1.9959
G1 X5.6393 Y-1.9959
G1 X5.6466 Y-1.9957
G1 X5.6682 Y-1.9942
G1 X5.6854 Y-1.9921
G1 X5.7233 Y-1.9953
G1 X5.7379 Y-1.9959
G1 X5.7662 Y-1.9991
G1 X5.8339 Y-2.0051
G1 X5.9022 Y-2.0298
G1 X5.967 Y-2.0513
G1 X6.0239 Y-2.0887
G1 X6.0856 Y-2.1269
G1 X6.1353 Y-2.1795
G1 X8.8516 Y-4.8958
G1 X8.8594 Y-4.903
G1 X8.8678 Y-4.9098
G1 X8.8766 Y-4.9159
G1 X8.8827 Y-4.9196
G1 X8.9536 Y-4.9582
G1 X8.9635 Y-4.9625
G1 X8.9738 Y-4.9662
G1 X8.9843 Y-4.9691
G1 X8.995 Y-4.9712
G1 X9.0058 Y-4.9726
G1 X9.0466 Y-4.9752
G1 X9.0617 Y-4.9754
G1 X9.223 Y-4.9615
G1 X9.4235 Y-4.9791
G1 X9.618 Y-5.0312
G1 X9.8004 Y-5.1162
G1 X9.9654 Y-5.2317
G1 X10.1077 Y-5.374
G1 X10.1252 Y-5.3991
G1 X10.1317 Y-5.4076
G1 X10.1412 Y-5.4182
G1 X10.149 Y-5.4256
G1 X10.209 Y-5.4738
G1 X10.2207 Y-5.4823
G1 X10.2331 Y-5.4895
G1 X10.2461 Y-5.4956
G1 X10.2563 Y-5.4993
G1 X10.2702 Y-5.5031
G1 X10.3243 Y-5.5137
G1 X10.3387 Y-5.5155
G1 X10.3497 Y-5.5159
G1 X11.9843 Y-5.5159
G1 X11.9914 Y-5.5155
G1 X12.0021 Y-5.5144
G1 X12.0126 Y-5.5125
G1 X12.0195 Y-5.5108
G1 X12.09 Y-5.4901
G1 X12.1041 Y-5.4852
G1 X12.1176 Y-5.479
G1 X12.1273 Y-5.4734
G1 X12.1335 Y-5.4693
G1 X12.1424 Y-5.4626
G1 X12.1481 Y-5.4577
G1 X12.1586 Y-5.4472
G1 X12.2069 Y-5.3916
G1 X12.2161 Y-5.3799
G1 X12.2222 Y-5.3706
G1 X12.2275 Y-5.3608
G1 X12.2336 Y-5.3471
G1 X12.2372 Y-5.3366
G1 X12.24 Y-5.3258
G1 X12.242 Y-5.3148
G1 X12.2519 Y-5.2456
G1 X12.2533 Y-5.2308
G1 X12.2532 Y-5.2159
G1 X12.2516 Y-5.2011
G1 X12.2486 Y-5.1865
G1 X12.2442 Y-5.1723
G1 X12.2399 Y-5.1619
G1 X12.2078 Y-5.092
G1 X12.2043 Y-5.0857
G1 X12.1986 Y-5.0766
G1 X12.1945 Y-5.0708
G1 X12.1878 Y-5.0625
G1 X12.1779 Y-5.0521
G1 X12.1609 Y-5.0359
G1 X12.1529 Y-5.0288
G1 X12.0241 Y-4.9274
G1 X11.9052 Y-4.7902
G1 X11.8145 Y-4.6331
G1 X11.7551 Y-4.4615
G1 X11.7293 Y-4.2818
G1 X11.7379 Y-4.1005
G1 X11.7807 Y-3.9241
G1 X11.8561 Y-3.759
G1 X11.9614 Y-3.6111
G1 X12.0928 Y-3.4859
G1 X12.2455 Y-3.3877
G1 X12.414 Y-3.3203
G1 X12.5922 Y-3.2859
G1 X13.5283 Y-3.2859
G1 X13.6637 Y-3.2988
G1 X13.8379 Y-3.35
G1 X13.9992 Y-3.4332
G1 X14.1419 Y-3.5454
G1 X14.2608 Y-3.6825
G1 X14.3515 Y-3.8397
G1 X14.4109 Y-4.0113
G1 X14.4367 Y-4.191
G1 X14.4281 Y-4.3723
G1 X14.3853 Y-4.5487
G1 X14.3099 Y-4.7138
G1 X14.2046 Y-4.8617
G1 X14.0732 Y-4.9869
G1 X13.9205 Y-5.0851
G1 X13.752 Y-5.1525
G1 X13.5738 Y-5.1869
G1 X13.0068 Y-5.1869
G1 X12.9961 Y-5.1873
G1 X12.982 Y-5.189
G1 X12.9715 Y-5.1911
G1 X12.9646 Y-5.193
G1 X12.894 Y-5.2138
G1 X12.8835 Y-5.2176
G1 X12.8733 Y-5.2221
G1 X12.8603 Y-5.2294
G1 X12.851 Y-5.2357
G1 X12.8423 Y-5.2426
G1 X12.8315 Y-5.2528
G1 X12.7783 Y-5.314
G1 X12.7694 Y-5.326
G1 X12.7617 Y-5.3387
G1 X12.7568 Y-5.3488
G1 X12.7527 Y-5.3592
G1 X12.7494 Y-5.3698
G1 X12.7468 Y-5.3807
G1 X12.7351 Y-5.4609
G1 X12.7342 Y-5.472
G1 X12.7343 Y-5.4869
G1 X12.7354 Y-5.498
G1 X12.738 Y-5.5127
G1 X12.741 Y-5.5235
G1 X12.7461 Y-5.5375
G1 X12.78 Y-5.6113
G1 X12.7878 Y-5.6245
G1 X12.7922 Y-5.6308
G1 X12.7993 Y-5.6398
G1 X12.8553 Y-5.6995
G1 X12.9015 Y-5.7456
G1 X12.912 Y-5.7553
G1 X12.9235 Y-5.7638
G1 X12.9326 Y-5.7695
G1 X13.0035 Y-5.8081
G1 X13.0102 Y-5.8111
G1 X13.0206 Y-5.8151
G1 X13.0311 Y-5.8182
G1 X13.0383 Y-5.8199
G1 X13.0528 Y-5.8222
G1 X13.0872 Y-5.8257
G1 X13.5283 Y-5.8259
G1 X13.6637 Y-5.8388
G1 X13.8379 Y-5.89
G1 X13.9992 Y-5.9732
G1 X14.1419 Y-6.0854
G1 X14.2608 Y-6.2225
G1 X14.3515 Y-6.3798
G1 X14.4109 Y-6.5513
G1 X14.4367 Y-6.731
G1 X14.4281 Y-6.9123
G1 X14.3853 Y-7.0887
G1 X14.3099 Y-7.2538
G1 X14.2046 Y-7.4017
G1 X14.0732 Y-7.5269
G1 X13.9205 Y-7.6251
G1 X13.752 Y-7.6925
G1 X13.5738 Y-7.7269
G1 X12.6377 Y-7.7269
G1 X12.5023 Y-7.714
G1 X12.3281 Y-7.6628
G1 X12.1668 Y-7.5796
G1 X12.0241 Y-7.4674
G1 X11.9052 Y-7.3302
G1 X11.8145 Y-7.1731
G1 X11.7551 Y-7.0015
G1 X11.7474 Y-6.9484
G1 X11.7444 Y-6.9344
G1 X11.7412 Y-6.9242
G1 X11.7359 Y-6.9109
G1 X11.7053 Y-6.844
G1 X11.7001 Y-6.8342
G1 X11.6919 Y-6.8217
G1 X11.685 Y-6.8129
G1 X11.6775 Y-6.8046
G1 X11.6694 Y-6.7969
G1 X11.6607 Y-6.7899
G1 X11.6516 Y-6.7835
G1 X11.5928 Y-6.7457
G1 X11.5797 Y-6.7382
G1 X11.5694 Y-6.7335
G1 X11.5623 Y-6.7307
G1 X11.5552 Y-6.7284
G1 X11.5442 Y-6.7255
G1 X11.533 Y-6.7234
G1 X11.4981 Y-6.7184
G1 X11.4839 Y-6.7171
G1 X10.3497 Y-6.7169
G1 X10.339 Y-6.7173
G1 X10.3283 Y-6.7184
G1 X10.3213 Y-6.7196
G1 X10.3108 Y-6.722
G1 X10.2404 Y-6.7427
G1 X10.2301 Y-6.7461
G1 X10.2201 Y-6.7502
G1 X10.2105 Y-6.7551
G1 X10.1982 Y-6.7626
G1 X10.1895 Y-6.769
G1 X10.1787 Y-6.7784
G1 X10.1441 Y-6.8116
G1 X10.1365 Y-6.8195
G1 X10.1273 Y-6.8308
G1 X10.1077 Y-6.8588
G1 X9.9654 Y-7.0011
G1 X9.8004 Y-7.1166
G1 X9.618 Y-7.2016
G1 X9.4236 Y-7.2537
G1 X9.223 Y-7.2713
G1 X9.0225 Y-7.2538
G1 X8.828 Y-7.2016
G1 X8.6456 Y-7.1166
G1 X8.4806 Y-7.0011
G1 X8.3383 Y-6.8588
G1 X8.2228 Y-6.6938
G1 X8.1378 Y-6.5114
G1 X8.0857 Y-6.317
G1 X8.0681 Y-6.1164
G1 X8.0818 Y-5.9591
G1 X8.0821 Y-5.9483
G1 X8.0819 Y-5.9412
G1 X8.0809 Y-5.9305
G1 X8.0798 Y-5.9235
G1 X8.0647 Y-5.8479
G1 X8.0619 Y-5.8374
G1 X8.057 Y-5.8237
G1 X8.0508 Y-5.8105
G1 X8.0433 Y-5.7981
G1 X8.0125 Y-5.7562
G1 X8.0023 Y-5.745
G1 X5.5727 Y-3.3153
G1 X5.5649 Y-3.308
G1 X5.5565 Y-3.3013
G1 X5.5477 Y-3.2952
G1 X5.5385 Y-3.2898
G1 X5.4706 Y-3.2529
G1 X5.4603 Y-3.2484
G1 X5.4534 Y-3.2458
G1 X5.439 Y-3.2418
G1 X5.428 Y-3.2397
G1 X5.4207 Y-3.2387
G1 X5.4095 Y-3.238
G1 X5.3983 Y-3.2381
G1 X5.3212 Y-3.2436
G1 X5.3065 Y-3.2458
G1 X5.292 Y-3.2494
G1 X5.2815 Y-3.253
G1 X5.2746 Y-3.2559
G1 X5.2646 Y-3.2608
G1 X5.2549 Y-3.2665
G1 X5.2457 Y-3.2728
G1 X5.1839 Y-3.3194
G1 X5.1728 Y-3.3296
G1 X5.1652 Y-3.3379
G1 X5.1582 Y-3.3468
G1 X5.1411 Y-3.371
G1 X5.0029 Y-3.5093
G1 X4.9956 Y-3.5171
G1 X4.9867 Y-3.5284
G1 X4.9827 Y-3.5343
G1 X4.9773 Y-3.5435
G1 X4.9438 Y-3.6048
G1 X4.9373 Y-3.6182
G1 X4.9322 Y-3.6322
G1 X4.9285 Y-3.6466
G1 X4.9262 Y-3.6613
G1 X4.9254 Y-3.6762
G1 X4.9258 Y-3.6874
G1 X4.9315 Y-3.7645
G1 X4.9333 Y-3.7755
G1 X4.9349 Y-3.7828
G1 X4.9392 Y-3.7971
G1 X4.9434 Y-3.8074
G1 X4.9466 Y-3.8141
G1 X4.9501 Y-3.8207
G1 X4.956 Y-3.8302
G1 X5.0045 Y-3.8952
G1 X5.012 Y-3.9039
G1 X5.0229 Y-3.9146
G1 X5.0317 Y-3.9219
G1 X5.0471 Y-3.9326
G1 X5.1927 Y-4.0225
G1 X5.2919 Y-4.1217
G1 X5.3655 Y-4.2411
G1 X5.41 Y-4.3753
G1 X5.418 Y-4.4541
G1 X5.418 Y-4.6964
G1 X5.218 Y-4.6964
G1 X5.218 Y-4.4964
G1 X5.2166 Y-4.4645
G1 X5.2157 Y-4.4535
G1 X5.2103 Y-4.4184
G1 X5.2008 Y-4.3803
G1 X5.1876 Y-4.3433
G1 X5.1741 Y-4.3144
G1 X5.1671 Y-4.3014
G1 X5.1506 Y-4.2742
G1 X5.1272 Y-4.2426
G1 X5.1008 Y-4.2136
G1 X5.0718 Y-4.1872
G1 X5.0402 Y-4.1638
G1 X5.0066 Y-4.1436
G1 X4.9711 Y-4.1268
G1 X4.9341 Y-4.1136
G1 X4.896 Y-4.1041
G1 X4.8645 Y-4.0992
G1 X4.8499 Y-4.0978
G1 X4.818 Y-4.0964
G1 X3.368 Y-4.0964
G1 X3.3288 Y-4.0983
G1 X3.2972 Y-4.1028
G1 X3.2828 Y-4.1057
G1 X3.2519 Y-4.1136
G1 X3.2218 Y-4.1242
G1 X3.2082 Y-4.1298
G1 X3.1794 Y-4.1436
G1 X3.152 Y-4.1599
G1 X3.1398 Y-4.1681
G1 X3.1142 Y-4.1872
G1 X3.0905 Y-4.2085
G1 X3.0801 Y-4.2189
G1 X3.0588 Y-4.2426
G1 X3.0354 Y-4.2742
G1 X3.0152 Y-4.3078
G1 X2.9984 Y-4.3433
G1 X2.9852 Y-4.3803
G1 X2.9773 Y-4.4112
G1 X2.9744 Y-4.4256
G1 X2.9699 Y-4.4572
G1 X2.968 Y-4.4927
G1 X2.968 Y-4.6964
G1 X2.768 Y-4.6964
G1 X2.768 Y-4.4541
G1 X2.776 Y-4.3753
G1 X2.8205 Y-4.2411
G1 X2.8941 Y-4.1217
G1 X2.9933 Y-4.0225
G1 X3.1332 Y-3.9363
G1 X3.145 Y-3.9282
G1 X3.156 Y-3.919
G1 X3.1636 Y-3.9115
G1 X3.2176 Y-3.8513
G1 X3.2264 Y-3.8393
G1 X3.234 Y-3.8265
G1 X3.2402 Y-3.8129
G1 X3.2451 Y-3.7989
G1 X3.2486 Y-3.7844
G1 X3.2605 Y-3.7118
G1 X3.2619 Y-3.7007
G1 X3.2623 Y-3.6932
G1 X3.2621 Y-3.6784
G1 X3.2605 Y-3.6635
G1 X3.2583 Y-3.6526
G1 X3.2541 Y-3.6383
G1 X3.25 Y-3.6279
G1 X3.2206 Y-3.5603
G1 X3.2154 Y-3.5502
G1 X3.2115 Y-3.5436
G1 X3.2073 Y-3.5373
G1 X3.2003 Y-3.5282
G1 X3.1855 Y-3.5117
G1 X3.0448 Y-3.371
G1 X2.9244 Y-3.1989
G1 X2.8362 Y-3.0098
G1 X2.7812 Y-2.8056
G1 X2.7629 Y-2.5964
G1 X2.7812 Y-2.3871
G1 X2.8356 Y-2.1842
G1 X3.6898 Y-1.3888
G1 X3.6926 Y-1.3611
G1 X3.6939 Y-1.3433
G1 X3.6944 Y-1.3239
G1 X3.6939 Y-1.305
G1 X3.7196 Y-1.3112
G1 X3.742 Y-1.3154
G1 X3.834 Y-1.329
G1 X3.8479 Y-1.3306
G1 X3.8626 Y-1.3317
G1 X3.9614 Y-1.3363
G1 X4.218 Y-1.3364
G1 X4.2364 Y-1.336
G1 X4.3205 Y-1.3318
G1 X4.3461 Y-1.3297
G1 X4.449 Y-1.3146
G1 X4.4707 Y-1.3103
G1 X4.4962 Y-1.304
G1 X4.4934 Y-1.3317
G1 X4.4921 Y-1.3495
G1 X4.4916 Y-1.3689
G1 X4.492 Y-1.3878
G1 X4.4664 Y-1.3816
G1 X4.444 Y-1.3774
G1 X4.352 Y-1.3638
G1 X4.3381 Y-1.3622
G1 X4.3234 Y-1.3611
G1 X4.2246 Y-1.3565
G1 X3.968 Y-1.3564
G1 X3.9496 Y-1.3568
G1 X3.8655 Y-1.361
G1 X3.8399 Y-1.3631
G1 X3.737 Y-1.3782
G1 X3.7153 Y-1.3825
G1 X3.6898 Y-1.3888
G1 X3.8773 Y-1.6007
G1 X3.8627 Y-1.6021
G1 X3.7729 Y-1.6156
G1 X3.6777 Y-1.6395
G1 X3.5853 Y-1.6725
G1 X3.5032 Y-1.7112
G1 X3.4902 Y-1.7181
G1 X3.4186 Y-1.761
G1 X3.4064 Y-1.7692
G1 X3.3336 Y-1.8234
G1 X3.2662 Y-1.8842
G1 X3.2558 Y-1.8946
G1 X3.195 Y-1.962
G1 X3.1365 Y-2.0408
G1 X3.0897 Y-2.1186
G1 X3.0828 Y-2.1316
G1 X3.0441 Y-2.2137
G1 X3.0111 Y-2.3061
G1 X2.9872 Y-2.4013
G1 X2.9737 Y-2.4911
G1 X2.9723 Y-2.5057
G1 X2.9682 Y-2.589
G1 X2.9682 Y-2.6038
G1 X2.9728 Y-2.6944
G1 X2.986 Y-2.7842
G1 X2.9888 Y-2.7987
G1 X3.0091 Y-2.8796
G1 X3.0134 Y-2.8937
G1 X3.0441 Y-2.9791
G1 X3.0861 Y-3.0678
G1 X3.1365 Y-3.152
G1 X3.1905 Y-3.225
G1 X3.1998 Y-3.2364
G1 X3.2558 Y-3.2982
G1 X3.2662 Y-3.3086
G1 X3.3336 Y-3.3694
G1 X3.4124 Y-3.4279
G1 X3.4902 Y-3.4747
G1 X3.5032 Y-3.4816
G1 X3.5853 Y-3.5203
G1 X3.6742 Y-3.5522
G1 X3.6848 Y-3.5553
G1 X3.7729 Y-3.5772
G1 X3.8627 Y-3.5907
G1 X3.8773 Y-3.5921
G1 X3.9643 Y-3.5964
G1 X4.218 Y-3.5964
G1 X4.316 Y-3.5916
G1 X4.4058 Y-3.5784
G1 X4.4203 Y-3.5756
G1 X4.5083 Y-3.5533
G1 X4.5938 Y-3.5229
G1 X4.6074 Y-3.5173
G1 X4.6894 Y-3.4783
G1 X4.7674 Y-3.4318
G1 X4.7796 Y-3.4236
G1 X4.8524 Y-3.3694
G1 X4.9198 Y-3.3086
G1 X4.9302 Y-3.2982
G1 X4.991 Y-3.2308
G1 X5.0452 Y-3.158
G1 X5.0534 Y-3.1458
G1 X5.0999 Y-3.0678
G1 X5.1338 Y-2.9965
G1 X5.5373 Y-2.9965
G1 X8.3315 Y-5.7908
G1 X8.3162 Y-5.8336
G1 X8.3129 Y-5.8442
G1 X8.2929 Y-5.9239
G1 X8.2906 Y-5.9347
G1 X8.2776 Y-6.0233
G1 X8.2732 Y-6.109
G1 X8.273 Y-6.1201
G1 X8.2776 Y-6.2095
G1 X8.2913 Y-6.3017
G1 X8.3139 Y-6.3922
G1 X8.3439 Y-6.4765
G1 X8.3483 Y-6.4867
G1 X8.3852 Y-6.5642
G1 X8.4292 Y-6.638
G1 X8.4373 Y-6.6502
G1 X8.4841 Y-6.7133
G1 X8.4934 Y-6.7246
G1 X8.5512 Y-6.7882
G1 X8.6203 Y-6.8508
G1 X8.6952 Y-6.9063
G1 X8.7688 Y-6.9506
G1 X8.7817 Y-6.9575
G1 X8.8595 Y-6.9941
G1 X8.9472 Y-7.0255
G1 X9.0377 Y-7.0481
G1 X9.1299 Y-7.0618
G1 X9.223 Y-7.0664
G1 X9.3161 Y-7.0618
G1 X9.4083 Y-7.0481
G1 X9.4917 Y-7.0275
G1 X9.5023 Y-7.0244
G1 X9.5865 Y-6.9941
G1 X9.6708 Y-6.9542
G1 X9.7508 Y-6.9063
G1 X9.8199 Y-6.8553
G1 X9.8285 Y-6.8484
G1 X9.8948 Y-6.7882
G1 X9.9526 Y-6.7246
G1 X9.9597 Y-6.7162
G1 X10.0087 Y-6.6502
G1 X10.0149 Y-6.6411
G1 X10.0591 Y-6.5675
G1 X10.0641 Y-6.5577
G1 X10.0836 Y-6.5165
G1 X11.9802 Y-6.5165
G1 X11.9653 Y-6.5587
G1 X11.9482 Y-6.6265
G1 X11.9462 Y-6.6373
G1 X11.937 Y-6.6992
G1 X11.9361 Y-6.7102
G1 X11.933 Y-6.7764
G1 X11.9361 Y-6.8426
G1 X11.937 Y-6.8536
G1 X11.9462 Y-6.9155
G1 X11.949 Y-6.9299
G1 X11.9653 Y-6.9941
G1 X11.9874 Y-7.0565
G1 X11.9931 Y-7.0701
G1 X12.0216 Y-7.1299
G1 X12.0555 Y-7.1869
G1 X12.0615 Y-7.1961
G1 X12.0987 Y-7.2464
G1 X12.1081 Y-7.2578
G1 X12.1527 Y-7.3067
G1 X12.2016 Y-7.3513
G1 X12.213 Y-7.3607
G1 X12.2663 Y-7.4
G1 X12.3295 Y-7.4378
G1 X12.396 Y-7.4693
G1 X12.4583 Y-7.4918
G1 X12.4724 Y-7.4961
G1 X12.5367 Y-7.512
G1 X12.6022 Y-7.5219
G1 X12.6168 Y-7.5233
G1 X12.6793 Y-7.5264
G1 X13.4867 Y-7.5264
G1 X13.5565 Y-7.5228
G1 X13.6221 Y-7.5132
G1 X13.6365 Y-7.5104
G1 X13.7007 Y-7.4941
G1 X13.77 Y-7.4693
G1 X13.83 Y-7.4412
G1 X13.843 Y-7.4342
G1 X13.8935 Y-7.4039
G1 X13.9057 Y-7.3958
G1 X13.9588 Y-7.3562
G1 X14.008 Y-7.3118
G1 X14.0184 Y-7.3014
G1 X14.0628 Y-7.2522
G1 X14.1066 Y-7.1931
G1 X14.1444 Y-7.1299
G1 X14.1729 Y-7.0701
G1 X14.1786 Y-7.0565
G1 X14.1984 Y-7.0011
G1 X14.2027 Y-6.987
G1 X14.2186 Y-6.9227
G1 X14.2285 Y-6.8572
G1 X14.2299 Y-6.8426
G1 X14.233 Y-6.7764
G1 X14.2299 Y-6.7102
G1 X14.2285 Y-6.6956
G1 X14.2186 Y-6.6301
G1 X14.2007 Y-6.5587
G1 X14.1759 Y-6.4894
G1 X14.1478 Y-6.4294
G1 X14.1408 Y-6.4164
G1 X14.1066 Y-6.3597
G1 X14.0628 Y-6.3006
G1 X14.0133 Y-6.2461
G1 X13.9588 Y-6.1966
G1 X13.8997 Y-6.1528
G1 X13.8365 Y-6.115
G1 X13.77 Y-6.0835
G1 X13.7077 Y-6.061
G1 X13.6936 Y-6.0567
G1 X13.6365 Y-6.0424
G1 X13.6221 Y-6.0396
G1 X13.5565 Y-6.03
G1 X13.4904 Y-6.0266
G1 X12.8989 Y-6.0264
G1 X12.7033 Y-5.8309
G1 X12.6768 Y-5.8071
G1 X12.6483 Y-5.7858
G1 X12.6391 Y-5.7798
G1 X12.6116 Y-5.7635
G1 X12.5829 Y-5.7497
G1 X12.5693 Y-5.7441
G1 X12.5392 Y-5.7335
G1 X12.5082 Y-5.7256
G1 X12.4938 Y-5.7227
G1 X12.4622 Y-5.7182
G1 X12.423 Y-5.7163
G1 X10.0836 Y-5.7163
G1 X10.0641 Y-5.6751
G1 X10.0591 Y-5.6653
G1 X10.0168 Y-5.5948
G1 X10.0108 Y-5.5856
G1 X9.9574 Y-5.5137
G1 X9.8998 Y-5.45
G1 X9.8921 Y-5.4421
G1 X9.8257 Y-5.382
G1 X9.7508 Y-5.3265
G1 X9.6708 Y-5.2786
G1 X9.5865 Y-5.2387
G1 X9.4988 Y-5.2073
G1 X9.4083 Y-5.1847
G1 X9.3161 Y-5.171
G1 X9.2267 Y-5.1664
G1 X9.2156 Y-5.1666
G1 X9.1299 Y-5.171
G1 X9.0413 Y-5.184
G1 X9.0305 Y-5.1863
G1 X8.9508 Y-5.2063
G1 X8.9402 Y-5.2096
G1 X8.8974 Y-5.2249
G1 X5.9859 Y-2.3135
G1 X5.9568 Y-2.2871
G1 X5.9283 Y-2.2658
G1 X5.9191 Y-2.2598
G1 X5.8916 Y-2.2435
G1 X5.8629 Y-2.2297
G1 X5.8493 Y-2.2241
G1 X5.8192 Y-2.2135
G1 X5.7882 Y-2.2056
G1 X5.7738 Y-2.2027
G1 X5.7422 Y-2.1982
G1 X5.703 Y-2.1963
G1 X5.1338 Y-2.1963
G1 X5.0999 Y-2.125
G1 X5.0495 Y-2.0408
G1 X4.991 Y-1.962
G1 X4.9277 Y-1.8919
G1 X4.9198 Y-1.8842
G1 X4.8524 Y-1.8234
G1 X4.7796 Y-1.7692
G1 X4.7674 Y-1.761
G1 X4.6958 Y-1.7181
G1 X4.6828 Y-1.7112
G1 X4.6007 Y-1.6725
G1 X4.5083 Y-1.6395
G1 X4.4131 Y-1.6156
G1 X4.3233 Y-1.6021
G1 X4.3087 Y-1.6007
G1 X4.218 Y-1.5964
G1 X3.9643 Y-1.5964
G1 X3.8773 Y-1.6007
G0 Z1
( ---------- cut-here ---------- )
G0 X4.6885 Y-1.5811
G01 F25.00
G1 Z-0.1
G01 F70.00
G1 X4.654 Y-1.5649
G1 X4.6391 Y-1.5587
G1 X4.5557 Y-1.5288
G1 X4.5382 Y-1.5232
G1 X4.4379 Y-1.4982
G1 X4.4234 Y-1.4957
G1 X4.3409 Y-1.4834
G1 X4.3292 Y-1.4819
G1 X4.316 Y-1.4809
G1 X4.2232 Y-1.4765
G1 X3.968 Y-1.4764
G1 X3.9548 Y-1.4767
G1 X3.8714 Y-1.4808
G1 X3.8568 Y-1.4819
G1 X3.7626 Y-1.4957
G1 X3.7416 Y-1.4996
G1 X3.6542 Y-1.5215
G1 X3.6352 Y-1.5271
G1 X3.5442 Y-1.5597
G1 X3.5286 Y-1.5664
G1 X3.49 Y-1.5847
G1 X3.5131 Y-1.5555
G1 X3.5209 Y-1.5446
G1 X3.5281 Y-1.5333
G1 X3.5366 Y-1.5184
G1 X3.5425 Y-1.5063
G1 X3.5478 Y-1.494
G1 X3.5534 Y-1.4786
G1 X3.5573 Y-1.4658
G1 X3.5599 Y-1.4557
G1 X3.5627 Y-1.4426
G1 X3.5648 Y-1.4293
G1 X3.5731 Y-1.3502
G1 X3.5741 Y-1.3368
G1 X3.5744 Y-1.3264
G1 X3.5742 Y-1.313
G1 X3.5733 Y-1.2996
G1 X3.5703 Y-1.2767
G1 X3.5676 Y-1.2636
G1 X3.5651 Y-1.2535
G1 X3.5581 Y-1.2315
G1 X3.5532 Y-1.219
G1 X3.5477 Y-1.2068
G1 X3.5138 Y-1.1397
G1 X3.5069 Y-1.1269
G1 X3.4975 Y-1.1117
G1 X3.532 Y-1.1279
G1 X3.5469 Y-1.1341
G1 X3.6303 Y-1.164
G1 X3.6478 Y-1.1696
G1 X3.7481 Y-1.1946
G1 X3.7626 Y-1.1971
G1 X3.8451 Y-1.2094
G1 X3.8568 Y-1.2109
G1 X3.87 Y-1.2119
G1 X3.9628 Y-1.2163
G1 X4.218 Y-1.2164
G1 X4.2312 Y-1.2161
G1 X4.3146 Y-1.212
G1 X4.3292 Y-1.2109
G1 X4.4234 Y-1.1971
G1 X4.4444 Y-1.1932
G1 X4.5318 Y-1.1713
G1 X4.5508 Y-1.1657
G1 X4.6418 Y-1.1331
G1 X4.6574 Y-1.1264
G1 X4.696 Y-1.1081
G1 X4.6729 Y-1.1373
G1 X4.6651 Y-1.1482
G1 X4.6578 Y-1.1595
G1 X4.6494 Y-1.1744
G1 X4.6435 Y-1.1865
G1 X4.6371 Y-1.2016
G1 X4.6326 Y-1.2142
G1 X4.6295 Y-1.2241
G1 X4.6261 Y-1.2371
G1 X4.6217 Y-1.2598
G1 X4.613 Y-1.3411
G1 X4.6117 Y-1.3597
G1 X4.6119 Y-1.3828
G1 X4.6127 Y-1.3932
G1 X4.6142 Y-1.4065
G1 X4.6184 Y-1.4292
G1 X4.6217 Y-1.4422
G1 X4.6248 Y-1.4522
G1 X4.6317 Y-1.4711
G1 X4.6383 Y-1.486
G1 X4.6776 Y-1.5634
G1 X4.6885 Y-1.5811
G1 X5.2343 Y-2.0763
G1 X5.2098 Y-2.0763
G1 X5.2033 Y-2.0639
G1 X5.1966 Y-2.0526
G1 X5.2154 Y-2.0655
G1 X5.2343 Y-2.0763
G0 Z1
( ---------- cut-here ---------- )
G0 X5.1754 Y-3.1756
G01 F25.00
G1 Z-0.1
G01 F70.00
G1 X5.2018 Y-3.1314
G1 X5.2098 Y-3.1165
G1 X5.4876 Y-3.1165
G1 X5.5101 Y-3.1391
G1 X5.4904 Y-3.1317
G1 X5.4804 Y-3.1286
G1 X5.4674 Y-3.1252
G1 X5.4477 Y-3.1213
G1 X5.4248 Y-3.1186
G1 X5.4076 Y-3.1179
G1 X5.3913 Y-3.1183
G1 X5.3082 Y-3.1243
G1 X5.2883 Y-3.1271
G1 X5.2715 Y-3.1306
G1 X5.2557 Y-3.135
G1 X5.2395 Y-3.1406
G1 X5.2244 Y-3.1469
G1 X5.2064 Y-3.1559
G1 X5.1916 Y-3.1645
G1 X5.1754 Y-3.1756
G0 Z1
( ---------- cut-here ---------- )
G0 X5.2678 Y0.291
G01 F25.00
G1 Z-0.1
G01 F70.00
G1 X5.254 Y0.329
G1 X5.2869 Y0.3619
G1 X5.2803 Y0.3448
G1 X5.2745 Y0.3255
G1 X5.2708 Y0.3094
G1 X5.2678 Y0.291
G0 Z1
( ---------- cut-here ---------- )
G0 X4.4586 Y1.0048
G01 F25.00
G1 Z-0.1
G01 F70.00
G1 X4.4523 Y0.9985
G1 X4.4427 Y1.0008
G1 X4.4586 Y1.0048
G1 X3.8773 Y0.8993
G1 X3.8627 Y0.8979
G1 X3.7802 Y0.8856
G1 X3.7693 Y0.8836
G1 X3.6777 Y0.8605
G1 X3.5922 Y0.8301
G1 X3.5786 Y0.8245
G1 X3.4999 Y0.7872
G1 X3.4902 Y0.7819
G1 X3.4124 Y0.7351
G1 X3.3394 Y0.6811
G1 X3.328 Y0.6718
G1 X3.2662 Y0.6158
G1 X3.2558 Y0.6054
G1 X3.195 Y0.538
G1 X3.1365 Y0.4592
G1 X3.0861 Y0.375
G1 X3.0456 Y0.2897
G1 X3.0415 Y0.2794
G1 X3.0111 Y0.1939
G1 X2.9872 Y0.0987
G1 X2.9728 Y0.0016
G1 X2.968 Y-0.0964
G1 X2.9728 Y-0.1944
G1 X2.9872 Y-0.2915
G1 X3.0111 Y-0.3867
G1 X3.0441 Y-0.4791
G1 X3.0861 Y-0.5678
G1 X3.1365 Y-0.652
G1 X3.195 Y-0.7308
G1 X3.2609 Y-0.8035
G1 X3.3336 Y-0.8694
G1 X3.4124 Y-0.9279
G1 X3.4966 Y-0.9783
G1 X3.5819 Y-1.0188
G1 X3.5922 Y-1.0229
G1 X3.6777 Y-1.0533
G1 X3.7657 Y-1.0756
G1 X3.7802 Y-1.0784
G1 X3.8627 Y-1.0907
G1 X3.8737 Y-1.0919
G1 X3.9643 Y-1.0964
G1 X4.2217 Y-1.0964
G1 X4.316 Y-1.0916
G1 X4.4058 Y-1.0784
G1 X4.4203 Y-1.0756
G1 X4.5012 Y-1.0553
G1 X4.5153 Y-1.051
G1 X4.6007 Y-1.0203
G1 X4.6894 Y-0.9783
G1 X4.7674 Y-0.9318
G1 X4.7796 Y-0.9236
G1 X4.8524 Y-0.8694
G1 X4.9251 Y-0.8035
G1 X4.991 Y-0.7308
G1 X5.0452 Y-0.658
G1 X5.0534 Y-0.6458
G1 X5.0999 Y-0.5678
G1 X5.1419 Y-0.4791
G1 X5.1726 Y-0.3937
G1 X5.1769 Y-0.3796
G1 X5.1972 Y-0.2987
G1 X5.2 Y-0.2842
G1 X5.2132 Y-0.1944
G1 X5.2178 Y-0.1038
G1 X5.2178 Y-0.089
G1 X5.2137 Y-0.0057
G1 X5.2123 Y0.0089
G1 X5.1988 Y0.0987
G1 X5.1749 Y0.1939
G1 X5.1419 Y0.2863
G1 X5.1098 Y0.3545
G1 X10.5259 Y5.7707
G1 X10.5475 Y5.7942
G1 X10.5568 Y5.8056
G1 X10.5757 Y5.8313
G1 X10.5941 Y5.8618
G1 X10.5992 Y5.8716
G1 X10.6127 Y5.9005
G1 X10.6236 Y5.9305
G1 X10.6279 Y5.9445
G1 X10.6354 Y5.9755
G1 X10.6403 Y6.0071
G1 X10.6417 Y6.0217
G1 X10.6431 Y6.0536
G1 X10.6431 Y11.7279
G1 X12.0528 Y13.1376
G1 X12.0574 Y13.13
G1 X12.0636 Y13.1209
G1 X12.1032 Y13.0678
G1 X12.1527 Y13.0133
G1 X12.2072 Y12.9638
G1 X12.2603 Y12.9242
G1 X12.2725 Y12.9161
G1 X12.323 Y12.8858
G1 X12.336 Y12.8788
G1 X12.396 Y12.8507
G1 X12.4583 Y12.8282
G1 X12.4724 Y12.8239
G1 X12.5367 Y12.808
G1 X12.6095 Y12.7972
G1 X12.683 Y12.7936
G1 X13.483 Y12.7936
G1 X13.5492 Y12.7967
G1 X13.5602 Y12.7976
G1 X13.6293 Y12.808
G1 X13.6936 Y12.8239
G1 X13.7077 Y12.8282
G1 X13.77 Y12.8507
G1 X13.83 Y12.8788
G1 X13.843 Y12.8858
G1 X13.8997 Y12.92
G1 X13.9559 Y12.9615
G1 X13.9644 Y12.9687
G1 X14.008 Y13.0082
G1 X14.0184 Y13.0186
G1 X14.0628 Y13.0678
G1 X14.1024 Y13.1209
G1 X14.1105 Y13.1331
G1 X14.1444 Y13.1901
G1 X14.1729 Y13.2499
G1 X14.1786 Y13.2635
G1 X14.2007 Y13.3259
G1 X14.217 Y13.3901
G1 X14.2198 Y13.4045
G1 X14.2294 Y13.4701
G1 X14.233 Y13.5436
G1 X14.2299 Y13.6098
G1 X14.2285 Y13.6244
G1 X14.2186 Y13.6899
G1 X14.2027 Y13.7542
G1 X14.1984 Y13.7683
G1 X14.1759 Y13.8306
G1 X14.1444 Y13.8971
G1 X14.1105 Y13.9541
G1 X14.1024 Y13.9663
G1 X14.0628 Y14.0194
G1 X14.0159 Y14.0713
G1 X14.008 Y14.079
G1 X13.9644 Y14.1185
G1 X13.953 Y14.1279
G1 X13.8997 Y14.1672
G1 X13.843 Y14.2014
G1 X13.83 Y14.2084
G1 X13.77 Y14.2365
G1 X13.7042 Y14.2602
G1 X13.6816 Y14.2663
G1 X15.3074 Y15.8921
G1 X15.3502 Y15.8768
G1 X15.3608 Y15.8735
G1 X15.4405 Y15.8535
G1 X15.4513 Y15.8512
G1 X15.5399 Y15.8382
G1 X15.6256 Y15.8338
G1 X15.6367 Y15.8336
G1 X15.7261 Y15.8382
G1 X15.8183 Y15.8519
G1 X15.9088 Y15.8745
G1 X15.9965 Y15.9059
G1 X16.0808 Y15.9458
G1 X16.1608 Y15.9937
G1 X16.2357 Y16.0492
G1 X16.3021 Y16.1093
G1 X16.3098 Y16.1172
G1 X16.3674 Y16.1809
G1 X16.4208 Y16.2528
G1 X16.4268 Y16.262
G1 X16.4691 Y16.3325
G1 X16.4741 Y16.3423
G1 X16.4936 Y16.3835
G1 X40.9573 Y16.3835
G1 X44.3773 Y12.9634
G1 X44.3666 Y12.9408
G1 X44.3623 Y12.9307
G1 X44.3276 Y12.8337
G1 X44.3245 Y12.8231
G1 X44.3004 Y12.7267
G1 X44.2984 Y12.7158
G1 X44.2834 Y12.6139
G1 X44.278 Y12.5073
G1 X44.2782 Y12.4962
G1 X44.2834 Y12.3933
G1 X44.2996 Y12.2841
G1 X44.3264 Y12.177
G1 X44.3636 Y12.0731
G1 X44.4108 Y11.9733
G1 X44.4676 Y11.8786
G1 X44.5334 Y11.7899
G1 X44.6024 Y11.7134
G1 X44.6101 Y11.7055
G1 X44.6893 Y11.634
G1 X44.772 Y11.5724
G1 X44.7811 Y11.5662
G1 X44.8663 Y11.5151
G1 X44.8759 Y11.5097
G1 X44.9691 Y11.4657
G1 X44.9794 Y11.4616
G1 X45.0029 Y11.4532
G1 X45.0029 Y6.2893
G1 X44.4571 Y5.7436
G1 X42.6693 Y5.7436
G1 X42.6546 Y5.7425
G1 X42.6437 Y5.7407
G1 X42.6366 Y5.7391
G1 X42.6225 Y5.7348
G1 X42.6122 Y5.7307
G1 X42.6056 Y5.7276
G1 X42.5959 Y5.7223
G1 X42.5897 Y5.7183
G1 X42.5778 Y5.7096
G1 X42.5696 Y5.7022
G1 X42.5644 Y5.697
G1 X42.5547 Y5.6859
G1 X42.5483 Y5.6769
G1 X42.5407 Y5.6643
G1 X42.5359 Y5.6544
G1 X42.5318 Y5.6441
G1 X42.5284 Y5.6336
G1 X42.5259 Y5.6229
G1 X42.5241 Y5.612
G1 X42.523 Y5.5973
G1 X42.5232 Y3.3862
G1 X42.5241 Y3.3752
G1 X42.5266 Y3.3607
G1 X42.5306 Y3.3465
G1 X42.5344 Y3.3362
G1 X42.539 Y3.3262
G1 X42.5463 Y3.3134
G1 X42.5547 Y3.3013
G1 X42.5644 Y3.2902
G1 X42.575 Y3.28
G1 X42.5836 Y3.2731
G1 X42.5928 Y3.2669
G1 X42.6056 Y3.2596
G1 X42.619 Y3.2537
G1 X42.6295 Y3.2501
G1 X42.6437 Y3.2465
G1 X42.6546 Y3.2447
G1 X42.662 Y3.244
G1 X42.673 Y3.2436
G1 X44.8804 Y3.2438
G1 X44.8914 Y3.2447
G1 X44.9023 Y3.2465
G1 X44.913 Y3.249
G1 X44.9235 Y3.2524
G1 X44.9338 Y3.2565
G1 X44.9437 Y3.2613
G1 X44.9532 Y3.2669
G1 X44.9624 Y3.2731
G1 X44.971 Y3.28
G1 X44.9791 Y3.2875
G1 X44.9841 Y3.2929
G1 X44.9913 Y3.3013
G1 X44.9977 Y3.3103
G1 X45.0035 Y3.3197
G1 X45.0086 Y3.3295
G1 X45.0129 Y3.3396
G1 X45.0176 Y3.3536
G1 X45.0208 Y3.368
G1 X45.0226 Y3.3826
G1 X45.023 Y3.3936
G1 X45.023 Y5.1777
G1 X45.6859 Y5.8407
G1 X45.7099 Y5.8669
G1 X45.7168 Y5.8756
G1 X45.7315 Y5.8953
G1 X45.7396 Y5.9075
G1 X45.7559 Y5.935
G1 X45.7727 Y5.9705
G1 X45.7859 Y6.0074
G1 X45.7938 Y6.0384
G1 X45.7967 Y6.0528
G1 X45.8012 Y6.0844
G1 X45.8031 Y6.1236
G1 X45.8031 Y11.4532
G1 X45.8266 Y11.4616
G1 X45.8369 Y11.4657
G1 X45.9267 Y11.5081
G1 X45.9365 Y11.5132
G1 X46.028 Y11.5682
G1 X46.1109 Y11.6294
G1 X46.1195 Y11.6363
G1 X46.1985 Y11.7081
G1 X46.2726 Y11.7899
G1 X46.3384 Y11.8786
G1 X46.3915 Y11.9669
G1 X46.3969 Y11.9765
G1 X46.4424 Y12.0731
G1 X46.4796 Y12.177
G1 X46.5064 Y12.2841
G1 X46.5226 Y12.3933
G1 X46.528 Y12.5036
G1 X46.5226 Y12.6139
G1 X46.5064 Y12.7231
G1 X46.4806 Y12.8266
G1 X46.4772 Y12.8372
G1 X46.4424 Y12.9341
G1 X46.3952 Y13.0339
G1 X46.3384 Y13.1286
G1 X46.2772 Y13.2115
G1 X46.2678 Y13.2229
G1 X46.2036 Y13.2938
G1 X46.1932 Y13.3042
G1 X46.1167 Y13.3732
G1 X46.034 Y13.4348
G1 X46.0218 Y13.4429
G1 X45.9333 Y13.4958
G1 X45.8369 Y13.5415
G1 X45.8266 Y13.5456
G1 X45.7296 Y13.5802
G1 X45.6225 Y13.607
G1 X45.5133 Y13.6232
G1 X45.4104 Y13.6284
G1 X45.3993 Y13.6286
G1 X45.2927 Y13.6232
G1 X45.1908 Y13.6082
G1 X45.1799 Y13.6062
G1 X45.0835 Y13.5821
G1 X45.0729 Y13.579
G1 X44.9759 Y13.5443
G1 X44.9658 Y13.54
G1 X44.9432 Y13.5293
G1 X41.4033 Y17.0691
G1 X41.3768 Y17.0929
G1 X41.3513 Y17.1121
G1 X41.3391 Y17.1202
G1 X41.318 Y17.1328
G1 X41.3083 Y17.1382
G1 X41.2761 Y17.1533
G1 X41.2427 Y17.1654
G1 X41.2321 Y17.1685
G1 X41.2082 Y17.1744
G1 X41.1938 Y17.1773
G1 X41.1622 Y17.1818
G1 X41.123 Y17.1837
G1 X16.4936 Y17.1837
G1 X16.4741 Y17.2249
G1 X16.4691 Y17.2347
G1 X16.4249 Y17.3083
G1 X16.4187 Y17.3174
G1 X16.3719 Y17.3805
G1 X16.365 Y17.3891
G1 X16.3048 Y17.4554
G1 X16.2412 Y17.5132
G1 X16.2299 Y17.5225
G1 X16.1668 Y17.5693
G1 X16.1577 Y17.5755
G1 X16.0808 Y17.6214
G1 X16.0033 Y17.6583
G1 X15.9897 Y17.6639
G1 X15.9088 Y17.6927
G1 X15.8255 Y17.7137
G1 X15.8111 Y17.7166
G1 X15.7261 Y17.729
G1 X15.6367 Y17.7336
G1 X15.6256 Y17.7334
G1 X15.5399 Y17.729
G1 X15.4477 Y17.7153
G1 X15.3572 Y17.6927
G1 X15.2763 Y17.6639
G1 X15.2627 Y17.6583
G1 X15.1917 Y17.6247
G1 X15.1788 Y17.6178
G1 X15.1052 Y17.5735
G1 X15.0361 Y17.5225
G1 X15.0248 Y17.5132
G1 X14.9612 Y17.4554
G1 X14.901 Y17.3891
G1 X14.8941 Y17.3805
G1 X14.8431 Y17.3114
G1 X14.7988 Y17.2378
G1 X14.7919 Y17.2249
G1 X14.7553 Y17.1471
G1 X14.7262 Y17.0664
G1 X14.7219 Y17.0523
G1 X14.7029 Y16.9761
G1 X14.7006 Y16.9653
G1 X14.6876 Y16.8767
G1 X14.6832 Y16.791
G1 X14.6832 Y16.7762
G1 X14.6873 Y16.6942
G1 X14.6885 Y16.6832
G1 X14.7 Y16.6055
G1 X14.702 Y16.5947
G1 X14.7229 Y16.5114
G1 X14.7262 Y16.5008
G1 X14.7415 Y16.458
G1 X12.7975 Y14.5139
G1 X12.7737 Y14.4874
G1 X12.7545 Y14.4619
G1 X12.7464 Y14.4497
G1 X12.7338 Y14.4286
G1 X12.7284 Y14.4189
G1 X12.7133 Y14.3867
G1 X12.7012 Y14.3533
G1 X12.6981 Y14.3427
G1 X12.6913 Y14.3153
G1 X12.6877 Y14.2936
G1 X12.6756 Y14.2934
G1 X12.6095 Y14.29
G1 X12.5439 Y14.2804
G1 X12.5295 Y14.2776
G1 X12.4653 Y14.2613
G1 X12.4029 Y14.2392
G1 X12.3893 Y14.2335
G1 X12.3295 Y14.205
G1 X12.2725 Y14.1711
G1 X12.2603 Y14.163
G1 X12.2072 Y14.1234
G1 X12.1553 Y14.0765
G1 X12.1476 Y14.0686
G1 X12.1081 Y14.025
G1 X12.1009 Y14.0165
G1 X12.0615 Y13.9633
G1 X12.0493 Y13.9437
G1 X11.8893 Y13.9437
G1 X11.8574 Y13.9421
G1 X11.8465 Y13.9409
G1 X11.8222 Y13.9373
G1 X11.8113 Y13.9353
G1 X11.7839 Y13.9285
G1 X11.7733 Y13.9254
G1 X11.7467 Y13.9159
G1 X11.7365 Y13.9118
G1 X11.7077 Y13.8982
G1 X11.698 Y13.8928
G1 X11.6707 Y13.8763
G1 X11.645 Y13.8574
G1 X11.6363 Y13.8505
G1 X11.6127 Y13.8291
G1 X11.178 Y13.3945
G1 X9.4531 Y15.1193
G1 X9.4531 Y16.3395
G1 X9.4715 Y16.3462
G1 X9.4783 Y16.349
G1 X9.5727 Y16.3938
G1 X9.6593 Y16.4455
G1 X9.6715 Y16.4536
G1 X9.7524 Y16.5139
G1 X9.8273 Y16.5814
G1 X9.8377 Y16.5918
G1 X9.9052 Y16.6667
G1 X9.9697 Y16.7536
G1 X10.0217 Y16.84
G1 X10.0286 Y16.853
G1 X10.0716 Y16.9442
G1 X10.1057 Y17.0391
G1 X10.11 Y17.0532
G1 X10.1343 Y17.151
G1 X10.1502 Y17.258
G1 X10.1555 Y17.3624
G1 X10.1555 Y17.4648
G1 X10.1507 Y17.5618
G1 X10.1498 Y17.5728
G1 X10.1343 Y17.6762
G1 X10.108 Y17.7811
G1 X10.0716 Y17.883
G1 X10.0286 Y17.9742
G1 X10.0217 Y17.9872
G1 X9.9736 Y18.0674
G1 X9.9655 Y18.0796
G1 X9.9052 Y18.1605
G1 X9.8377 Y18.2354
G1 X9.8273 Y18.2458
G1 X9.7524 Y18.3133
G1 X9.6655 Y18.3778
G1 X9.5727 Y18.4334
G1 X9.4749 Y18.4797
G1 X9.373 Y18.5161
G1 X9.2753 Y18.5408
G1 X9.2608 Y18.5437
G1 X9.1684 Y18.5574
G1 X9.1537 Y18.5588
G1 X9.053 Y18.5636
G1 X8.9449 Y18.5583
G1 X8.8379 Y18.5424
G1 X8.7365 Y18.5172
G1 X8.726 Y18.5138
G1 X8.638 Y18.4823
G1 X8.6244 Y18.4767
G1 X8.5333 Y18.4334
G1 X8.4405 Y18.3778
G1 X8.3536 Y18.3133
G1 X8.2787 Y18.2458
G1 X8.2683 Y18.2354
G1 X8.2056 Y18.1661
G1 X8.1962 Y18.1547
G1 X8.1363 Y18.0736
G1 X8.0807 Y17.9808
G1 X8.0344 Y17.883
G1 X8.0003 Y17.7881
G1 X7.996 Y17.774
G1 X7.9733 Y17.6834
G1 X7.9704 Y17.6689
G1 X7.9558 Y17.5692
G1 X7.9505 Y17.4648
G1 X7.9505 Y17.3624
G1 X7.9558 Y17.258
G1 X7.9717 Y17.151
G1 X7.996 Y17.0532
G1 X8.0003 Y17.0391
G1 X8.0318 Y16.9511
G1 X8.0374 Y16.9375
G1 X8.0807 Y16.8464
G1 X8.1343 Y16.7567
G1 X8.1405 Y16.7476
G1 X8.1962 Y16.6725
G1 X8.2056 Y16.6611
G1 X8.2734 Y16.5865
G1 X8.3536 Y16.5139
G1 X8.4405 Y16.4494
G1 X8.5301 Y16.3956
G1 X8.5399 Y16.3905
G1 X8.6277 Y16.349
G1 X8.6345 Y16.3462
G1 X8.6529 Y16.3395
G1 X8.6529 Y14.9536
G1 X8.6548 Y14.9144
G1 X8.6593 Y14.8828
G1 X8.6622 Y14.8684
G1 X8.6681 Y14.8445
G1 X8.6712 Y14.8339
G1 X8.682 Y14.8039
G1 X8.6863 Y14.7937
G1 X8.7001 Y14.765
G1 X8.7164 Y14.7375
G1 X8.7224 Y14.7283
G1 X8.7414 Y14.7026
G1 X8.7485 Y14.6942
G1 X8.7675 Y14.6733
G1 X10.6121 Y12.8286
G1 X9.9601 Y12.1765
G1 X9.9361 Y12.1503
G1 X9.9292 Y12.1416
G1 X9.9145 Y12.1219
G1 X9.9064 Y12.1097
G1 X9.8901 Y12.0822
G1 X9.8733 Y12.0467
G1 X9.8624 Y12.0167
G1 X9.8581 Y12.0027
G1 X9.8506 Y11.9717
G1 X9.8452 Y11.9365
G1 X9.8443 Y11.9255
G1 X9.8429 Y11.8936
G1 X9.8429 Y6.2193
G1 X4.4891 Y0.8655
G1 X4.4131 Y0.8844
G1 X4.3233 Y0.8979
G1 X4.3087 Y0.8993
G1 X4.218 Y0.9036
G1 X3.9643 Y0.9036
G1 X3.8773 Y0.8993
G0 Z1
( ---------- cut-here ---------- )
G0 X8.1406 Y1.1036
G01 F25.00
G1 Z-0.1
G01 F70.00
G1 X8.3624 Y1.1036
G1 X8.3819 Y1.0623
G1 X8.3869 Y1.0525
G1 X8.4292 Y0.982
G1 X8.4352 Y0.9728
G1 X8.4886 Y0.9009
G1 X8.5512 Y0.8318
G1 X8.6203 Y0.7692
G1 X8.6922 Y0.7158
G1 X8.7014 Y0.7098
G1 X8.7719 Y0.6675
G1 X8.7817 Y0.6625
G1 X8.823 Y0.643
G1 X8.823 Y0.4212
G1 X8.6458 Y0.5039
G1 X8.481 Y0.6193
G1 X8.3387 Y0.7616
G1 X8.2233 Y0.9264
G1 X8.1406 Y1.1036
G0 Z1
( ---------- cut-here ---------- )
G0 X8.1406 Y1.9036
G01 F25.00
G1 Z-0.1
G01 F70.00
G1 X8.2233 Y2.0808
G1 X8.3387 Y2.2456
G1 X8.481 Y2.3879
G1 X8.6458 Y2.5033
G1 X8.823 Y2.586
G1 X8.823 Y2.3642
G1 X8.7817 Y2.3447
G1 X8.7719 Y2.3397
G1 X8.7014 Y2.2974
G1 X8.6922 Y2.2914
G1 X8.6203 Y2.238
G1 X8.5512 Y2.1754
G1 X8.4886 Y2.1063
G1 X8.4352 Y2.0344
G1 X8.4292 Y2.0252
G1 X8.3869 Y1.9547
G1 X8.3819 Y1.9449
G1 X8.3624 Y1.9036
G1 X8.1406 Y1.9036
G0 Z1
( ---------- cut-here ---------- )
G0 X9.623 Y2.3642
G01 F25.00
G1 Z-0.1
G01 F70.00
G1 X9.623 Y2.586
G1 X9.8002 Y2.5033
G1 X9.965 Y2.3879
G1 X10.1073 Y2.2456
G1 X10.2227 Y2.0808
G1 X10.3054 Y1.9036
G1 X10.0836 Y1.9036
G1 X10.0641 Y1.9449
G1 X10.0591 Y1.9547
G1 X10.0168 Y2.0252
G1 X10.0108 Y2.0344
G1 X9.9574 Y2.1063
G1 X9.8948 Y2.1754
G1 X9.8257 Y2.238
G1 X9.7538 Y2.2914
G1 X9.7446 Y2.2974
G1 X9.6741 Y2.3397
G1 X9.6643 Y2.3447
G1 X9.623 Y2.3642
G0 Z1
( ---------- cut-here ---------- )
G0 X9.623 Y0.643
G01 F25.00
G1 Z-0.1
G01 F70.00
G1 X9.6643 Y0.6625
G1 X9.6741 Y0.6675
G1 X9.7446 Y0.7098
G1 X9.7538 Y0.7158
G1 X9.8257 Y0.7692
G1 X9.8948 Y0.8318
G1 X9.9574 Y0.9009
G1 X10.0108 Y0.9728
G1 X10.0168 Y0.982
G1 X10.0591 Y1.0525
G1 X10.0641 Y1.0623
G1 X10.0836 Y1.1036
G1 X10.3054 Y1.1036
G1 X10.2227 Y0.9264
G1 X10.1073 Y0.7616
G1 X9.965 Y0.6193
G1 X9.8002 Y0.5039
G1 X9.623 Y0.4212
G1 X9.623 Y0.643
G0 Z1
( ---------- cut-here ---------- )
G0 X13.483 Y0.0936
G01 F25.00
G1 Z-0.1
G01 F70.00
G1 X13.5492 Y0.0967
G1 X13.5638 Y0.0981
G1 X13.6293 Y0.108
G1 X13.6936 Y0.1239
G1 X13.7077 Y0.1282
G1 X13.77 Y0.1507
G1 X13.83 Y0.1788
G1 X13.8398 Y0.1839
G1 X13.8935 Y0.2161
G1 X13.9057 Y0.2242
G1 X13.9588 Y0.2638
G1 X14.0107 Y0.3107
G1 X14.0184 Y0.3186
G1 X14.0579 Y0.3622
G1 X14.0651 Y0.3707
G1 X14.1045 Y0.4239
G1 X14.1168 Y0.4436
G1 X14.3447 Y0.4436
G1 X14.3095 Y0.3664
G1 X14.2042 Y0.2187
G1 X14.0729 Y0.0935
G1 X13.9203 Y-0.0046
G1 X13.7519 Y-0.0721
G1 X13.5737 Y-0.1064
G1 X13.483 Y-0.1064
G1 X13.483 Y0.0936
G0 Z1
( ---------- cut-here ---------- )
G0 X13.483 Y1.5936
G01 F25.00
G1 Z-0.1
G01 F70.00
G1 X13.483 Y1.7936
G1 X13.5283 Y1.7936
G1 X13.6636 Y1.7807
G1 X13.8377 Y1.7296
G1 X13.9989 Y1.6464
G1 X14.1416 Y1.5343
G1 X14.2604 Y1.3972
G1 X14.349 Y1.2436
G1 X14.1168 Y1.2436
G1 X14.1045 Y1.2633
G1 X14.0651 Y1.3165
G1 X14.0579 Y1.325
G1 X14.0184 Y1.3686
G1 X14.0107 Y1.3765
G1 X13.9644 Y1.4185
G1 X13.953 Y1.4279
G1 X13.8997 Y1.4672
G1 X13.8398 Y1.5033
G1 X13.83 Y1.5084
G1 X13.77 Y1.5365
G1 X13.7077 Y1.559
G1 X13.6936 Y1.5633
G1 X13.6293 Y1.5792
G1 X13.5638 Y1.5891
G1 X13.5492 Y1.5905
G1 X13.483 Y1.5936
G0 Z1
( ---------- cut-here ---------- )
G0 X12.6168 Y-8.5695
G01 F25.00
G1 Z-0.1
G01 F70.00
G1 X12.6022 Y-8.5709
G1 X12.5439 Y-8.5796
G1 X12.5295 Y-8.5824
G1 X12.4653 Y-8.5987
G1 X12.396 Y-8.6235
G1 X12.3295 Y-8.655
G1 X12.2725 Y-8.6889
G1 X12.2603 Y-8.697
G1 X12.2072 Y-8.7366
G1 X12.158 Y-8.781
G1 X12.1476 Y-8.7914
G1 X12.1032 Y-8.8406
G1 X12.0594 Y-8.8997
G1 X12.0252 Y-8.9564
G1 X12.0182 Y-8.9694
G1 X11.9901 Y-9.0294
G1 X11.9653 Y-9.0987
G1 X11.9474 Y-9.1701
G1 X11.9375 Y-9.2356
G1 X11.9361 Y-9.2502
G1 X11.933 Y-9.3164
G1 X11.9366 Y-9.3899
G1 X11.9462 Y-9.4555
G1 X11.949 Y-9.4699
G1 X11.9653 Y-9.5341
G1 X11.9901 Y-9.6034
G1 X12.0182 Y-9.6634
G1 X12.0252 Y-9.6764
G1 X12.0594 Y-9.7331
G1 X12.0987 Y-9.7864
G1 X12.1081 Y-9.7978
G1 X12.1527 Y-9.8467
G1 X12.2044 Y-9.8938
G1 X12.213 Y-9.9007
G1 X12.2603 Y-9.9358
G1 X12.2725 Y-9.9439
G1 X12.3295 Y-9.9778
G1 X12.396 Y-10.0093
G1 X12.4583 Y-10.0318
G1 X12.4724 Y-10.0361
G1 X12.5367 Y-10.052
G1 X12.6058 Y-10.0624
G1 X12.6168 Y-10.0633
G1 X12.683 Y-10.0664
G1 X13.483 Y-10.0664
G1 X13.5492 Y-10.0633
G1 X13.5638 Y-10.0619
G1 X13.6293 Y-10.052
G1 X13.7007 Y-10.0341
G1 X13.77 Y-10.0093
G1 X13.8365 Y-9.9778
G1 X13.8997 Y-9.94
G1 X13.9588 Y-9.8962
G1 X14.0133 Y-9.8467
G1 X14.0604 Y-9.795
G1 X14.0673 Y-9.7864
G1 X14.1066 Y-9.7331
G1 X14.1444 Y-9.6699
G1 X14.1759 Y-9.6034
G1 X14.2007 Y-9.5341
G1 X14.2186 Y-9.4627
G1 X14.2294 Y-9.3899
G1 X14.233 Y-9.3164
G1 X14.2294 Y-9.2429
G1 X14.2186 Y-9.1701
G1 X14.2007 Y-9.0987
G1 X14.1759 Y-9.0294
G1 X14.1444 Y-8.9629
G1 X14.1066 Y-8.8997
G1 X14.0628 Y-8.8406
G1 X14.0133 Y-8.7861
G1 X13.9616 Y-8.739
G1 X13.953 Y-8.7321
G1 X13.9057 Y-8.697
G1 X13.8935 Y-8.6889
G1 X13.8365 Y-8.655
G1 X13.77 Y-8.6235
G1 X13.7077 Y-8.601
G1 X13.6936 Y-8.5967
G1 X13.6293 Y-8.5808
G1 X13.5602 Y-8.5704
G1 X13.5492 Y-8.5695
G1 X13.483 Y-8.5664
G1 X12.683 Y-8.5664
G1 X12.6168 Y-8.5695
G0 Z1
( ---------- cut-here ---------- )
G0 X11.7293 Y-9.3618
G01 F25.00
G1 Z-0.1
G01 F70.00
G1 X11.7379 Y-9.1805
G1 X11.7807 Y-9.0041
G1 X11.8561 Y-8.839
G1 X11.9614 Y-8.6911
G1 X12.0928 Y-8.5659
G1 X12.2455 Y-8.4677
G1 X12.414 Y-8.4003
G1 X12.5922 Y-8.3659
G1 X13.5283 Y-8.3659
G1 X13.6637 Y-8.3788
G1 X13.8379 Y-8.43
G1 X13.9992 Y-8.5132
G1 X14.1419 Y-8.6254
G1 X14.2608 Y-8.7625
G1 X14.3515 Y-8.9197
G1 X14.4109 Y-9.0913
G1 X14.4367 Y-9.271
G1 X14.4281 Y-9.4523
G1 X14.3853 Y-9.6287
G1 X14.3099 Y-9.7938
G1 X14.2046 Y-9.9417
G1 X14.0732 Y-10.0669
G1 X13.9205 Y-10.1651
G1 X13.752 Y-10.2325
G1 X13.5738 Y-10.2669
G1 X12.6377 Y-10.2669
G1 X12.5023 Y-10.254
G1 X12.3281 Y-10.2028
G1 X12.1668 Y-10.1196
G1 X12.0241 Y-10.0074
G1 X11.9052 Y-9.8702
G1 X11.8145 Y-9.7131
G1 X11.7551 Y-9.5415
G1 X11.7293 Y-9.3618
G0 Z1
( ---------- cut-here ---------- )
G0 X8.0826 Y-11.3363
G01 F25.00
G1 Z-0.1
G01 F70.00
G1 X7.913 Y-11.3363
G1 X7.9129 Y-11.2583
G1 X7.9091 Y-11.1811
G1 X7.9321 Y-11.2186
G1 X7.9435 Y-11.2352
G1 X7.9518 Y-11.2457
G1 X7.9606 Y-11.2558
G1 X7.9699 Y-11.2655
G1 X7.9796 Y-11.2747
G1 X7.9898 Y-11.2834
G1 X8.0005 Y-11.2916
G1 X8.0197 Y-11.3044
G1 X8.0372 Y-11.3142
G1 X8.0826 Y-11.3363
G0 Z1
( ---------- cut-here ---------- )
G0 X6.7023 Y-10.2707
G01 F25.00
G1 Z-0.1
G01 F70.00
G1 X6.6877 Y-10.2721
G1 X6.5979 Y-10.2856
G1 X6.5027 Y-10.3095
G1 X6.4103 Y-10.3425
G1 X6.3282 Y-10.3812
G1 X6.3152 Y-10.3881
G1 X6.2436 Y-10.431
G1 X6.2314 Y-10.4392
G1 X6.1586 Y-10.4934
G1 X6.0912 Y-10.5542
G1 X6.0808 Y-10.5646
G1 X6.02 Y-10.632
G1 X5.9615 Y-10.7108
G1 X5.9111 Y-10.795
G1 X5.8691 Y-10.8837
G1 X5.8361 Y-10.9761
G1 X5.8122 Y-11.0713
G1 X5.7978 Y-11.1684
G1 X5.7932 Y-11.259
G1 X5.7932 Y-11.5738
G1 X5.7978 Y-11.6644
G1 X5.8122 Y-11.7615
G1 X5.8361 Y-11.8567
G1 X5.8691 Y-11.9491
G1 X5.9111 Y-12.0378
G1 X5.9595 Y-12.1189
G1 X5.9658 Y-12.128
G1 X6.02 Y-12.2008
G1 X6.0859 Y-12.2735
G1 X6.1586 Y-12.3394
G1 X6.2374 Y-12.3979
G1 X6.3216 Y-12.4483
G1 X6.4103 Y-12.4903
G1 X6.5027 Y-12.5233
G1 X6.5943 Y-12.5464
G1 X6.6052 Y-12.5484
G1 X6.695 Y-12.5616
G1 X6.7856 Y-12.5662
G1 X6.8004 Y-12.5662
G1 X6.891 Y-12.5616
G1 X6.9808 Y-12.5484
G1 X6.9953 Y-12.5456
G1 X7.0833 Y-12.5233
G1 X7.1688 Y-12.4929
G1 X7.1824 Y-12.4873
G1 X7.2644 Y-12.4483
G1 X7.3455 Y-12.3999
G1 X7.3546 Y-12.3936
G1 X7.4216 Y-12.3439
G1 X7.4302 Y-12.337
G1 X7.4975 Y-12.2761
G1 X7.5157 Y-12.2565
G1 X12.0493 Y-12.2565
G1 X12.0615 Y-12.2761
G1 X12.1009 Y-12.3293
G1 X12.1081 Y-12.3378
G1 X12.1501 Y-12.3841
G1 X12.158 Y-12.3918
G1 X12.2072 Y-12.4362
G1 X12.2633 Y-12.4779
G1 X12.2725 Y-12.4839
G1 X12.3295 Y-12.5178
G1 X12.396 Y-12.5493
G1 X12.4653 Y-12.5741
G1 X12.5331 Y-12.5912
G1 X12.5439 Y-12.5932
G1 X12.6095 Y-12.6028
G1 X12.683 Y-12.6064
G1 X13.483 Y-12.6064
G1 X13.5528 Y-12.6031
G1 X13.5638 Y-12.6019
G1 X13.6221 Y-12.5932
G1 X13.6365 Y-12.5904
G1 X13.7007 Y-12.5741
G1 X13.77 Y-12.5493
G1 X13.8365 Y-12.5178
G1 X13.8935 Y-12.4839
G1 X13.9057 Y-12.4758
G1 X13.953 Y-12.4407
G1 X13.9644 Y-12.4313
G1 X14.0133 Y-12.3867
G1 X14.0628 Y-12.3322
G1 X14.1066 Y-12.2731
G1 X14.1408 Y-12.2164
G1 X14.1478 Y-12.2034
G1 X14.1729 Y-12.1501
G1 X14.1786 Y-12.1365
G1 X14.2007 Y-12.0741
G1 X14.2178 Y-12.0063
G1 X14.2198 Y-11.9955
G1 X14.2294 Y-11.9299
G1 X14.233 Y-11.8564
G1 X14.2294 Y-11.7829
G1 X14.2198 Y-11.7173
G1 X14.217 Y-11.7029
G1 X14.2027 Y-11.6458
G1 X14.1984 Y-11.6317
G1 X14.1759 Y-11.5694
G1 X14.1478 Y-11.5094
G1 X14.1408 Y-11.4964
G1 X14.1066 Y-11.4397
G1 X14.0673 Y-11.3864
G1 X14.0579 Y-11.375
G1 X14.0133 Y-11.3261
G1 X13.9588 Y-11.2766
G1 X13.8997 Y-11.2328
G1 X13.8365 Y-11.195
G1 X13.77 Y-11.1635
G1 X13.7007 Y-11.1387
G1 X13.6293 Y-11.1208
G1 X13.5638 Y-11.1109
G1 X13.5528 Y-11.1097
G1 X13.483 Y-11.1064
G1 X12.683 Y-11.1064
G1 X12.6095 Y-11.11
G1 X12.5439 Y-11.1196
G1 X12.5331 Y-11.1216
G1 X12.4653 Y-11.1387
G1 X12.396 Y-11.1635
G1 X12.3295 Y-11.195
G1 X12.2725 Y-11.2289
G1 X12.2633 Y-11.2349
G1 X12.2072 Y-11.2766
G1 X12.158 Y-11.321
G1 X12.1501 Y-11.3287
G1 X12.1081 Y-11.375
G1 X12.1009 Y-11.3835
G1 X12.0615 Y-11.4367
G1 X12.0493 Y-11.4563
G1 X7.793 Y-11.4563
G1 X7.793 Y-11.2627
G1 X7.7882 Y-11.1684
G1 X7.7738 Y-11.0713
G1 X7.7519 Y-10.9832
G1 X7.7488 Y-10.9726
G1 X7.7169 Y-10.8837
G1 X7.6782 Y-10.8016
G1 X7.6713 Y-10.7886
G1 X7.6284 Y-10.717
G1 X7.6202 Y-10.7048
G1 X7.566 Y-10.632
G1 X7.5052 Y-10.5646
G1 X7.4948 Y-10.5542
G1 X7.4274 Y-10.4934
G1 X7.3486 Y-10.4349
G1 X7.2644 Y-10.3845
G1 X7.1824 Y-10.3455
G1 X7.1688 Y-10.3399
G1 X7.0903 Y-10.3118
G1 X7.0762 Y-10.3075
G1 X6.9881 Y-10.2856
G1 X6.8983 Y-10.2721
G1 X6.8837 Y-10.2707
G1 X6.793 Y-10.2664
G1 X6.7023 Y-10.2707
G0 Z1
( ---------- cut-here ---------- )
G0 X5.533 Y-12.0547
G01 F25.00
G1 Z-0.1
G01 F70.00
G1 X5.5592 Y-12.0479
G1 X5.5848 Y-12.0432
G1 X5.607 Y-12.0405
G1 X5.646 Y-12.0376
G1 X5.6408 Y-12.0238
G1 X5.6124 Y-11.9445
G1 X5.606 Y-11.9249
G1 X5.6015 Y-11.9086
G1 X5.581 Y-11.827
G1 X5.5765 Y-11.8069
G1 X5.5737 Y-11.7902
G1 X5.5613 Y-11.7069
G1 X5.5588 Y-11.6865
G1 X5.5576 Y-11.6696
G1 X5.5535 Y-11.5855
G1 X5.553 Y-11.5664
G1 X5.5531 Y-11.2598
G1 X5.5576 Y-11.1632
G1 X5.5599 Y-11.1368
G1 X5.5736 Y-11.0433
G1 X5.5765 Y-11.0259
G1 X5.5808 Y-11.0065
G1 X5.6013 Y-10.9249
G1 X5.606 Y-10.9079
G1 X5.6114 Y-10.8911
G1 X5.6454 Y-10.7967
G1 X5.5635 Y-10.7834
G1 X5.5482 Y-10.7803
G1 X5.533 Y-10.7766
G1 X5.533 Y-12.0547
G1 X5.4016 Y-12.2745
G1 X5.4104 Y-12.2665
G1 X5.421 Y-12.2578
G1 X5.4812 Y-12.2127
G1 X5.4965 Y-12.2021
G1 X5.5105 Y-12.1936
G1 X5.5197 Y-12.1886
G1 X5.5318 Y-12.1828
G1 X5.5532 Y-12.1742
G1 X5.5631 Y-12.1709
G1 X5.576 Y-12.1673
G1 X5.5891 Y-12.1643
G1 X5.6023 Y-12.1619
G1 X5.6238 Y-12.1595
G1 X5.7054 Y-12.154
G1 X5.7188 Y-12.1539
G1 X5.7322 Y-12.1546
G1 X5.7551 Y-12.1572
G1 X5.7683 Y-12.1596
G1 X5.7849 Y-12.1637
G1 X5.7978 Y-12.1676
G1 X5.8104 Y-12.1721
G1 X5.8228 Y-12.1773
G1 X5.8349 Y-12.1831
G1 X5.8722 Y-12.2033
G1 X5.8626 Y-12.1899
G1 X5.8547 Y-12.1774
G1 X5.811 Y-12.1046
G1 X5.8046 Y-12.0931
G1 X5.7999 Y-12.0839
G1 X5.7636 Y-12.0071
G1 X5.7577 Y-11.9936
G1 X5.7254 Y-11.9041
G1 X5.7217 Y-11.8929
G1 X5.7177 Y-11.8787
G1 X5.6971 Y-11.7964
G1 X5.6942 Y-11.7835
G1 X5.6923 Y-11.7718
G1 X5.68 Y-11.6893
G1 X5.6783 Y-11.6747
G1 X5.6733 Y-11.5796
G1 X5.673 Y-11.5664
G1 X5.673 Y-11.2664
G1 X5.6733 Y-11.2546
G1 X5.6774 Y-11.1698
G1 X5.6785 Y-11.1552
G1 X5.6923 Y-11.061
G1 X5.6948 Y-11.0465
G1 X5.7177 Y-10.9541
G1 X5.7217 Y-10.9399
G1 X5.7535 Y-10.8502
G1 X5.7588 Y-10.8364
G1 X5.7993 Y-10.7503
G1 X5.806 Y-10.7371
G1 X5.8554 Y-10.6541
G1 X5.8626 Y-10.6429
G1 X5.8704 Y-10.6319
G1 X5.808 Y-10.6591
G1 X5.7892 Y-10.6663
G1 X5.7764 Y-10.6703
G1 X5.7598 Y-10.6745
G1 X5.7466 Y-10.6771
G1 X5.7333 Y-10.679
G1 X5.72 Y-10.6802
G1 X5.7066 Y-10.6808
G1 X5.6932 Y-10.6807
G1 X5.6768 Y-10.6797
G1 X5.6598 Y-10.6776
G1 X5.5894 Y-10.6661
G1 X5.5777 Y-10.6639
G1 X5.5646 Y-10.6609
G1 X5.5517 Y-10.6572
G1 X5.539 Y-10.6528
G1 X5.5266 Y-10.6479
G1 X5.5144 Y-10.6423
G1 X5.4941 Y-10.6313
G1 X5.4772 Y-10.6203
G1 X5.4612 Y-10.6081
G1 X5.4006 Y-10.5539
G1 X5.4045 Y-10.5729
G1 X5.4103 Y-10.614
G1 X5.4115 Y-10.6286
G1 X5.413 Y-10.6664
G1 X5.413 Y-12.1679
G1 X5.4115 Y-12.2042
G1 X5.4103 Y-12.2188
G1 X5.405 Y-12.2562
G1 X5.4016 Y-12.2745
G0 Z1
( ---------- cut-here ---------- )
G0 X4.693 Y-12.5664
G01 F25.00
G1 Z-0.1
G01 F70.00
G1 X4.893 Y-12.5664
G1 X4.9249 Y-12.565
G1 X4.9359 Y-12.5641
G1 X4.971 Y-12.5587
G1 X5.0091 Y-12.5492
G1 X5.0461 Y-12.536
G1 X5.075 Y-12.5225
G1 X5.088 Y-12.5155
G1 X5.1152 Y-12.499
G1 X5.1468 Y-12.4756
G1 X5.1758 Y-12.4492
G1 X5.2022 Y-12.4202
G1 X5.2256 Y-12.3886
G1 X5.2458 Y-12.355
G1 X5.2626 Y-12.3195
G1 X5.2758 Y-12.2825
G1 X5.2853 Y-12.2444
G1 X5.2902 Y-12.2129
G1 X5.2916 Y-12.1983
G1 X5.293 Y-12.1664
G1 X5.293 Y-10.6664
G1 X5.2911 Y-10.6272
G1 X5.2866 Y-10.5956
G1 X5.2837 Y-10.5812
G1 X5.2758 Y-10.5503
G1 X5.2652 Y-10.5202
G1 X5.2596 Y-10.5066
G1 X5.2458 Y-10.4778
G1 X5.2256 Y-10.4442
G1 X5.2067 Y-10.4184
G1 X5.1974 Y-10.4071
G1 X5.1758 Y-10.3836
G1 X5.1523 Y-10.362
G1 X5.141 Y-10.3527
G1 X5.1152 Y-10.3338
G1 X5.0816 Y-10.3136
G1 X5.0461 Y-10.2968
G1 X5.0091 Y-10.2836
G1 X4.9782 Y-10.2757
G1 X4.9638 Y-10.2728
G1 X4.9322 Y-10.2683
G1 X4.8967 Y-10.2664
G1 X4.693 Y-10.2664
G1 X4.693 Y-10.0664
G1 X4.9353 Y-10.0664
G1 X5.0141 Y-10.0744
G1 X5.1483 Y-10.1189
G1 X5.2677 Y-10.1925
G1 X5.3669 Y-10.2917
G1 X5.4531 Y-10.4316
G1 X5.4612 Y-10.4434
G1 X5.468 Y-10.4517
G1 X5.4779 Y-10.462
G1 X5.5381 Y-10.516
G1 X5.5501 Y-10.5248
G1 X5.5629 Y-10.5324
G1 X5.5765 Y-10.5386
G1 X5.5905 Y-10.5435
G1 X5.605 Y-10.547
G1 X5.6776 Y-10.5589
G1 X5.685 Y-10.5599
G1 X5.6962 Y-10.5607
G1 X5.711 Y-10.5605
G1 X5.7259 Y-10.5589
G1 X5.7404 Y-10.5558
G1 X5.7511 Y-10.5525
G1 X5.7615 Y-10.5484
G1 X5.8291 Y-10.519
G1 X5.8359 Y-10.5156
G1 X5.8458 Y-10.5099
G1 X5.8521 Y-10.5057
G1 X5.8612 Y-10.4987
G1 X5.8777 Y-10.4839
G1 X6.0184 Y-10.3433
G1 X6.1905 Y-10.2228
G1 X6.3808 Y-10.134
G1 X6.5837 Y-10.0796
G1 X6.793 Y-10.0613
G1 X7.0023 Y-10.0796
G1 X7.2052 Y-10.134
G1 X7.3955 Y-10.2228
G1 X7.5676 Y-10.3433
G1 X7.7161 Y-10.4918
G1 X7.8366 Y-10.6639
G1 X7.9254 Y-10.8542
G1 X7.9786 Y-11.0528
G1 X7.9818 Y-11.0631
G1 X7.9843 Y-11.0697
G1 X7.9886 Y-11.0795
G1 X7.9936 Y-11.089
G1 X8.0338 Y-11.1549
G1 X8.0402 Y-11.164
G1 X8.0448 Y-11.1699
G1 X8.0523 Y-11.1782
G1 X8.0576 Y-11.1834
G1 X8.0632 Y-11.1883
G1 X8.072 Y-11.1952
G1 X8.0813 Y-11.2014
G1 X8.0877 Y-11.2052
G1 X8.1572 Y-11.2391
G1 X8.1673 Y-11.2436
G1 X8.1777 Y-11.2473
G1 X8.1884 Y-11.2502
G1 X8.1993 Y-11.2523
G1 X8.2102 Y-11.2537
G1 X8.235 Y-11.2557
G1 X8.2433 Y-11.2559
G1 X11.8257 Y-11.2559
G1 X11.8364 Y-11.2555
G1 X11.8506 Y-11.2538
G1 X11.8645 Y-11.2508
G1 X11.9384 Y-11.2291
G1 X11.9485 Y-11.2255
G1 X11.9551 Y-11.2227
G1 X11.9646 Y-11.2179
G1 X11.9708 Y-11.2143
G1 X11.9826 Y-11.2063
G1 X12.004 Y-11.1896
G1 X12.0122 Y-11.1826
G1 X12.0928 Y-11.1059
G1 X12.2455 Y-11.0077
G1 X12.414 Y-10.9403
G1 X12.5922 Y-10.9059
G1 X13.5283 Y-10.9059
G1 X13.6637 Y-10.9188
G1 X13.8379 Y-10.97
G1 X13.9992 Y-11.0532
G1 X14.1419 Y-11.1654
G1 X14.2608 Y-11.3025
G1 X14.3515 Y-11.4598
G1 X14.4109 Y-11.6313
G1 X14.4367 Y-11.811
G1 X14.4281 Y-11.9923
G1 X14.3853 Y-12.1687
G1 X14.3099 Y-12.3338
G1 X14.2046 Y-12.4817
G1 X14.0732 Y-12.6069
G1 X13.9205 Y-12.7051
G1 X13.752 Y-12.7725
G1 X13.5738 Y-12.8069
G1 X12.6377 Y-12.8069
G1 X12.5023 Y-12.794
G1 X12.3281 Y-12.7428
G1 X12.1668 Y-12.6596
G1 X12.0236 Y-12.547
G1 X12.0151 Y-12.5387
G1 X12.0041 Y-12.5296
G1 X11.9953 Y-12.5235
G1 X11.9301 Y-12.4818
G1 X11.92 Y-12.4765
G1 X11.9096 Y-12.4721
G1 X11.8989 Y-12.4684
G1 X11.8879 Y-12.4655
G1 X11.8768 Y-12.4634
G1 X11.8383 Y-12.458
G1 X11.8312 Y-12.4573
G1 X11.8205 Y-12.4569
G1 X7.7006 Y-12.4569
G1 X7.6899 Y-12.4573
G1 X7.6793 Y-12.4584
G1 X7.6722 Y-12.4596
G1 X7.6584 Y-12.463
G1 X7.5877 Y-12.4838
G1 X7.5769 Y-12.4877
G1 X7.5665 Y-12.4924
G1 X7.5565 Y-12.4979
G1 X7.5435 Y-12.5065
G1 X7.3955 Y-12.61
G1 X7.2052 Y-12.6988
G1 X7.0023 Y-12.7532
G1 X6.793 Y-12.7715
G1 X6.5837 Y-12.7532
G1 X6.3808 Y-12.6988
G1 X6.1905 Y-12.61
G1 X6.0184 Y-12.4895
G1 X5.8801 Y-12.3513
G1 X5.8723 Y-12.344
G1 X5.861 Y-12.3351
G1 X5.8551 Y-12.3311
G1 X5.8459 Y-12.3257
G1 X5.7846 Y-12.2922
G1 X5.7712 Y-12.2857
G1 X5.7607 Y-12.2817
G1 X5.7464 Y-12.2777
G1 X5.7318 Y-12.2751
G1 X5.7169 Y-12.2739
G1 X5.702 Y-12.2742
G1 X5.6323 Y-12.2792
G1 X5.6249 Y-12.2799
G1 X5.6139 Y-12.2817
G1 X5.5994 Y-12.2853
G1 X5.5854 Y-12.2903
G1 X5.572 Y-12.2967
G1 X5.5592 Y-12.3044
G1 X5.4942 Y-12.3529
G1 X5.4855 Y-12.3604
G1 X5.4748 Y-12.3713
G1 X5.4653 Y-12.3832
G1 X5.455 Y-12.3983
G1 X5.3669 Y-12.5411
G1 X5.2677 Y-12.6403
G1 X5.1483 Y-12.7139
G1 X5.0141 Y-12.7584
G1 X4.9353 Y-12.7664
G1 X4.693 Y-12.7664
G1 X4.693 Y-12.5664
G0 Z1
( ---------- cut-here ---------- )
G0 X3.093 Y-11.8164
G01 F25.00
G1 Z-0.1
G01 F70.00
G1 X3.293 Y-11.8164
G1 X3.293 Y-12.1701
G1 X3.2949 Y-12.2056
G1 X3.2994 Y-12.2372
G1 X3.3023 Y-12.2516
G1 X3.3102 Y-12.2825
G1 X3.3208 Y-12.3126
G1 X3.3264 Y-12.3262
G1 X3.3402 Y-12.355
G1 X3.3584 Y-12.3855
G1 X3.3647 Y-12.3946
G1 X3.3793 Y-12.4144
G1 X3.3862 Y-12.423
G1 X3.4102 Y-12.4492
G1 X3.4337 Y-12.4708
G1 X3.445 Y-12.4801
G1 X3.4708 Y-12.499
G1 X3.5044 Y-12.5192
G1 X3.5332 Y-12.533
G1 X3.5468 Y-12.5386
G1 X3.5699 Y-12.5469
G1 X3.5804 Y-12.5502
G1 X3.6078 Y-12.5571
G1 X3.6186 Y-12.5594
G1 X3.6501 Y-12.5641
G1 X3.6611 Y-12.565
G1 X3.693 Y-12.5664
G1 X3.893 Y-12.5664
G1 X3.893 Y-12.7664
G1 X3.6507 Y-12.7664
G1 X3.5719 Y-12.7584
G1 X3.4377 Y-12.7139
G1 X3.3183 Y-12.6403
G1 X3.2191 Y-12.5411
G1 X3.1455 Y-12.4217
G1 X3.101 Y-12.2875
G1 X3.093 Y-12.2087
G1 X3.093 Y-11.8164
G0 Z1
( ---------- cut-here ---------- )
G0 X3.893 Y-10.2664
G01 F25.00
G1 Z-0.1
G01 F70.00
G1 X3.6893 Y-10.2664
G1 X3.6611 Y-10.2678
G1 X3.6501 Y-10.2687
G1 X3.6186 Y-10.2734
G1 X3.6078 Y-10.2757
G1 X3.5769 Y-10.2836
G1 X3.5468 Y-10.2942
G1 X3.5332 Y-10.2998
G1 X3.5044 Y-10.3136
G1 X3.477 Y-10.3299
G1 X3.4648 Y-10.3381
G1 X3.4392 Y-10.3572
G1 X3.4128 Y-10.381
G1 X3.4051 Y-10.3889
G1 X3.3886 Y-10.4071
G1 X3.3793 Y-10.4184
G1 X3.3604 Y-10.4442
G1 X3.3402 Y-10.4778
G1 X3.3234 Y-10.5133
G1 X3.3125 Y-10.5433
G1 X3.3083 Y-10.5574
G1 X3.3007 Y-10.5884
G1 X3.2949 Y-10.6272
G1 X3.293 Y-10.6627
G1 X3.293 Y-11.0164
G1 X3.093 Y-11.0164
G1 X3.093 Y-10.6241
G1 X3.101 Y-10.5453
G1 X3.1455 Y-10.4111
G1 X3.2191 Y-10.2917
G1 X3.3183 Y-10.1925
G1 X3.4377 Y-10.1189
G1 X3.5719 Y-10.0744
G1 X3.6507 Y-10.0664
G1 X3.893 Y-10.0664
G1 X3.893 Y-10.2664
G0 Z1
( ---------- cut-here ---------- )
G0 X3.913 Y-15.4864
G01 F25.00
G1 Z-0.1
G01 F70.00
G1 X3.7093 Y-15.4864
G1 X3.6811 Y-15.4878
G1 X3.6701 Y-15.4887
G1 X3.6386 Y-15.4934
G1 X3.6278 Y-15.4957
G1 X3.5969 Y-15.5036
G1 X3.5668 Y-15.5142
G1 X3.5532 Y-15.5198
G1 X3.5244 Y-15.5336
G1 X3.497 Y-15.5499
G1 X3.4848 Y-15.5581
G1 X3.4592 Y-15.5772
G1 X3.4328 Y-15.601
G1 X3.4251 Y-15.6089
G1 X3.4086 Y-15.6271
G1 X3.3993 Y-15.6384
G1 X3.3804 Y-15.6642
G1 X3.3602 Y-15.6978
G1 X3.3434 Y-15.7333
G1 X3.3325 Y-15.7633
G1 X3.3283 Y-15.7774
G1 X3.3207 Y-15.8084
G1 X3.3149 Y-15.8472
G1 X3.313 Y-15.8827
G1 X3.313 Y-16.2364
G1 X3.113 Y-16.2364
G1 X3.113 Y-15.8441
G1 X3.121 Y-15.7653
G1 X3.1655 Y-15.6311
G1 X3.2391 Y-15.5117
G1 X3.3383 Y-15.4125
G1 X3.4577 Y-15.3389
G1 X3.5919 Y-15.2944
G1 X3.6707 Y-15.2864
G1 X3.913 Y-15.2864
G1 X3.913 Y-15.4864
G0 Z1
( ---------- cut-here ---------- )
G0 X3.113 Y-17.0364
G01 F25.00
G1 Z-0.1
G01 F70.00
G1 X3.313 Y-17.0364
G1 X3.313 Y-17.3901
G1 X3.3149 Y-17.4256
G1 X3.3194 Y-17.4572
G1 X3.3223 Y-17.4716
G1 X3.3302 Y-17.5025
G1 X3.3408 Y-17.5326
G1 X3.3464 Y-17.5462
G1 X3.3602 Y-17.575
G1 X3.3784 Y-17.6055
G1 X3.3847 Y-17.6146
G1 X3.3993 Y-17.6344
G1 X3.4062 Y-17.643
G1 X3.4302 Y-17.6692
G1 X3.4537 Y-17.6908
G1 X3.465 Y-17.7001
G1 X3.4908 Y-17.719
G1 X3.5244 Y-17.7392
G1 X3.5532 Y-17.753
G1 X3.5668 Y-17.7586
G1 X3.5899 Y-17.7669
G1 X3.6004 Y-17.7702
G1 X3.6278 Y-17.7771
G1 X3.6386 Y-17.7794
G1 X3.6701 Y-17.7841
G1 X3.6811 Y-17.785
G1 X3.713 Y-17.7864
G1 X3.913 Y-17.7864
G1 X3.913 Y-17.9864
G1 X3.6707 Y-17.9864
G1 X3.5919 Y-17.9784
G1 X3.4577 Y-17.9339
G1 X3.3383 Y-17.8603
G1 X3.2391 Y-17.7611
G1 X3.1655 Y-17.6417
G1 X3.121 Y-17.5075
G1 X3.113 Y-17.4287
G1 X3.113 Y-17.0364
G0 Z1
( ---------- cut-here ---------- )
G0 X4.713 Y-17.7864
G01 F25.00
G1 Z-0.1
G01 F70.00
G1 X4.913 Y-17.7864
G1 X4.9449 Y-17.785
G1 X4.9559 Y-17.7841
G1 X4.991 Y-17.7787
G1 X5.0291 Y-17.7692
G1 X5.0661 Y-17.756
G1 X5.095 Y-17.7425
G1 X5.108 Y-17.7355
G1 X5.1352 Y-17.719
G1 X5.1668 Y-17.6956
G1 X5.1958 Y-17.6692
G1 X5.2222 Y-17.6402
G1 X5.2456 Y-17.6086
G1 X5.2658 Y-17.575
G1 X5.2826 Y-17.5395
G1 X5.2958 Y-17.5025
G1 X5.3053 Y-17.4644
G1 X5.3102 Y-17.4329
G1 X5.3116 Y-17.4183
G1 X5.313 Y-17.3864
G1 X5.313 Y-15.8864
G1 X5.3111 Y-15.8472
G1 X5.3066 Y-15.8156
G1 X5.3037 Y-15.8012
G1 X5.2958 Y-15.7703
G1 X5.2852 Y-15.7402
G1 X5.2796 Y-15.7266
G1 X5.2658 Y-15.6978
G1 X5.2456 Y-15.6642
G1 X5.2267 Y-15.6384
G1 X5.2174 Y-15.6271
G1 X5.1958 Y-15.6036
G1 X5.1723 Y-15.582
G1 X5.161 Y-15.5727
G1 X5.1352 Y-15.5538
G1 X5.1016 Y-15.5336
G1 X5.0661 Y-15.5168
G1 X5.0291 Y-15.5036
G1 X4.9982 Y-15.4957
G1 X4.9838 Y-15.4928
G1 X4.9522 Y-15.4883
G1 X4.9167 Y-15.4864
G1 X4.713 Y-15.4864
G1 X4.713 Y-15.2864
G1 X4.9553 Y-15.2864
G1 X5.0341 Y-15.2944
G1 X5.1683 Y-15.3389
G1 X5.2877 Y-15.4125
G1 X5.3869 Y-15.5117
G1 X5.4731 Y-15.6516
G1 X5.4812 Y-15.6634
