(G-CODE GENERATED BY FLATCAM v8.994 - www.flatcam.org - Version Date: 2020/11/7)

(Name: TapBeerFlowControl_hardware-Edge_Cuts.gbr_cutout_cnc)
(Type: G-code from Geometry)
(Units: MM)

(Created on Monday, 27 November 2023 at 01:26)

(This preprocessor is used with a motion controller loaded with GRBL firmware.)
(It is configured to be compatible with almost any version of GRBL firmware.)

(TOOL DIAMETER: 1.0 mm)
(Feedrate_XY: 35.0 mm/min)
(Feedrate_Z: 25.0 mm/min)
(Feedrate rapids 1500.0 mm/min)

(Z_Cut: -3.0 mm)
(Z_Move: 1.0 mm)
(Z Start: None mm)
(Z End: 5.0 mm)
(X,Y End: 0.0000, 0.0000 mm)
(Steps per circle: 64)
(Steps per circle: 64)
(Preprocessor Geometry: GRBL_11_no_M6)

(X range:  109.8100 ...  169.3000  mm)
(Y range:  -89.9700 ...  -26.0900  mm)

(Spindle Speed: 1000.0 RPM)
G21
G90
G17
G94


G01 F35.00

M5             
G00 Z5.0000
G00 X0.0000 Y0.0000                
T1
(MSG, Change to Tool Dia = 1.0000)
M0
G00 Z5.0000
        
M03 S1000.0
G01 F35.00
G00 X138.1550 Y-26.0900
G01 F25.00
G01 Z-3.0000
G01 F35.00
G01 X110.4600 Y-26.0900 F35.00
G01 X110.4257 Y-26.0909 F35.00
G01 X110.3671 Y-26.0967 F35.00
G01 X110.2997 Y-26.1101 F35.00
G01 X110.2387 Y-26.1289 F35.00
G01 X110.1843 Y-26.1514 F35.00
G01 X110.1237 Y-26.1838 F35.00
G01 X110.0748 Y-26.2165 F35.00
G01 X110.0253 Y-26.2568 F35.00
G01 X109.9768 Y-26.3053 F35.00
G01 X109.9365 Y-26.3548 F35.00
G01 X109.9038 Y-26.4037 F35.00
G01 X109.8714 Y-26.4643 F35.00
G01 X109.8472 Y-26.5233 F35.00
G01 X109.8289 Y-26.5845 F35.00
G01 X109.8167 Y-26.6471 F35.00
G01 X109.8109 Y-26.7057 F35.00
G01 X109.8100 Y-26.7400 F35.00
G01 X109.8100 Y-89.3200 F35.00
G01 X109.8109 Y-89.3543 F35.00
G01 X109.8167 Y-89.4129 F35.00
G01 X109.8289 Y-89.4755 F35.00
G01 X109.8472 Y-89.5367 F35.00
G01 X109.8714 Y-89.5957 F35.00
G01 X109.9012 Y-89.6520 F35.00
G01 X109.9365 Y-89.7052 F35.00
G01 X109.9768 Y-89.7547 F35.00
G01 X110.0217 Y-89.7999 F35.00
G01 X110.0708 Y-89.8406 F35.00
G01 X110.1237 Y-89.8762 F35.00
G01 X110.1799 Y-89.9065 F35.00
G01 X110.2387 Y-89.9311 F35.00
G01 X110.2997 Y-89.9499 F35.00
G01 X110.3622 Y-89.9626 F35.00
G01 X110.4257 Y-89.9691 F35.00
G01 X110.4600 Y-89.9700 F35.00
G01 X138.1550 Y-89.9700 F35.00
G00 Z1.0000
G00 X141.1550 Y-26.0900
G01 F25.00
G01 Z-3.0000
G01 F35.00
G01 X168.6500 Y-26.0900 F35.00
G01 X168.6843 Y-26.0909 F35.00
G01 X168.7478 Y-26.0974 F35.00
G01 X168.8103 Y-26.1101 F35.00
G01 X168.8713 Y-26.1289 F35.00
G01 X168.9301 Y-26.1535 F35.00
G01 X168.9863 Y-26.1838 F35.00
G01 X169.0392 Y-26.2194 F35.00
G01 X169.0883 Y-26.2601 F35.00
G01 X169.1332 Y-26.3053 F35.00
G01 X169.1735 Y-26.3548 F35.00
G01 X169.2088 Y-26.4080 F35.00
G01 X169.2386 Y-26.4643 F35.00
G01 X169.2628 Y-26.5233 F35.00
G01 X169.2811 Y-26.5845 F35.00
G01 X169.2933 Y-26.6471 F35.00
G01 X169.2991 Y-26.7057 F35.00
G01 X169.3000 Y-26.7400 F35.00
G01 X169.3000 Y-89.3200 F35.00
G01 X169.2991 Y-89.3543 F35.00
G01 X169.2933 Y-89.4129 F35.00
G01 X169.2811 Y-89.4755 F35.00
G01 X169.2628 Y-89.5367 F35.00
G01 X169.2386 Y-89.5957 F35.00
G01 X169.2062 Y-89.6563 F35.00
G01 X169.1735 Y-89.7052 F35.00
G01 X169.1332 Y-89.7547 F35.00
G01 X169.0847 Y-89.8032 F35.00
G01 X169.0352 Y-89.8435 F35.00
G01 X168.9863 Y-89.8762 F35.00
G01 X168.9257 Y-89.9086 F35.00
G01 X168.8713 Y-89.9311 F35.00
G01 X168.8103 Y-89.9499 F35.00
G01 X168.7429 Y-89.9633 F35.00
G01 X168.6843 Y-89.9691 F35.00
G01 X168.6500 Y-89.9700 F35.00
G01 X141.1550 Y-89.9700 F35.00
G00 Z1.0000
M05
G00 Z1.0000
G00 Z5.00
G00 X0.0 Y0.0


