(G-CODE GENERATED BY FLATCAM v8.994 - www.flatcam.org - Version Date: 2020/11/7)

(Name: TapBeerFlowControl_hardware-PTH.drl_cnc)
(Type: G-code from Geometry)
(Units: MM)

(Created on Monday, 27 November 2023 at 01:34)

(This preprocessor is the default preprocessor used by FlatCAM.)
(It is made to work with MACH3 compatible motion controllers.)


(TOOLS DIAMETER: )
(Tool: 1 -> Dia: 0.7493)
(Tool: 2 -> Dia: 0.8000999999999999)
(Tool: 3 -> Dia: 0.89916)
(Tool: 4 -> Dia: 0.94996)
(Tool: 5 -> Dia: 1.0007599999999999)
(Tool: 6 -> Dia: 1.0998199999999998)
(Tool: 7 -> Dia: 1.30048)
(Tool: 8 -> Dia: 1.39954)

(FEEDRATE Z: )
(Tool: 1 -> Feedrate: 25.0)
(Tool: 2 -> Feedrate: 25.0)
(Tool: 3 -> Feedrate: 25.0)
(Tool: 4 -> Feedrate: 25.0)
(Tool: 5 -> Feedrate: 25.0)
(Tool: 6 -> Feedrate: 25.0)
(Tool: 7 -> Feedrate: 25.0)
(Tool: 8 -> Feedrate: 25.0)

(FEEDRATE RAPIDS: )
(Tool: 1 -> Feedrate Rapids: 1500)
(Tool: 2 -> Feedrate Rapids: 1500)
(Tool: 3 -> Feedrate Rapids: 1500)
(Tool: 4 -> Feedrate Rapids: 1500)
(Tool: 5 -> Feedrate Rapids: 1500)
(Tool: 6 -> Feedrate Rapids: 1500)
(Tool: 7 -> Feedrate Rapids: 1500)
(Tool: 8 -> Feedrate Rapids: 1500)

(Z_CUT: )
(Tool: 1 -> Z_Cut: -2.5)
(Tool: 2 -> Z_Cut: -2.5)
(Tool: 3 -> Z_Cut: -2.5)
(Tool: 4 -> Z_Cut: -2.5)
(Tool: 5 -> Z_Cut: -2.5)
(Tool: 6 -> Z_Cut: -2.5)
(Tool: 7 -> Z_Cut: -2.5)
(Tool: 8 -> Z_Cut: -2.5)

(Tools Offset: )
(Tool: 4 -> Offset Z: 0.0)
(Tool: 5 -> Offset Z: 0.0)
(Tool: 6 -> Offset Z: 0.0)

(Z_MOVE: )
(Tool: 1 -> Z_Move: 1.0)
(Tool: 2 -> Z_Move: 1.0)
(Tool: 3 -> Z_Move: 1.0)
(Tool: 4 -> Z_Move: 1.0)
(Tool: 5 -> Z_Move: 1.0)
(Tool: 6 -> Z_Move: 1.0)
(Tool: 7 -> Z_Move: 1.0)
(Tool: 8 -> Z_Move: 1.0)

(Z Toolchange: 5.0 mm)
(X,Y Toolchange: 0.0000, 0.0000 mm)
(Z Start: None mm)
(Z End: 5.0 mm)
(X,Y End: 0.0000, 0.0000 mm)
(Steps per circle: 64)
(Preprocessor Excellon: default)

(X range:  112.6299 ...  167.2590  mm)
(Y range:  -88.4413 ...  -29.1806  mm)

(Spindle Speed: 1000 RPM)
G21
G90
G94

G01 F25.00

M5
G00 Z5.0000
T4
G00 X0.0000 Y0.0000                
M6
(MSG, Change to Tool Dia = 0.9500 ||| Total drills for tool T4 = 18)
M0
G00 Z5.0000

G01 F25.00
M03 S1000
G00 X113.2992 Y-60.9598
G01 Z-2.5000
G01 Z0
G00 Z1.0000
G00 X113.2992 Y-58.4604
G01 Z-2.5000
G01 Z0
G00 Z1.0000
G00 X113.2992 Y-55.9611
G01 Z-2.5000
G01 Z0
G00 Z1.0000
G00 X113.1799 Y-38.4503
G01 Z-2.5000
G01 Z0
G00 Z1.0000
G00 X115.7199 Y-38.4503
G01 Z-2.5000
G01 Z0
G00 Z1.0000
G00 X118.2599 Y-38.4503
G01 Z-2.5000
G01 Z0
G00 Z1.0000
G00 X152.9791 Y-51.3687
G01 Z-2.5000
G01 Z0
G00 Z1.0000
G00 X160.5991 Y-51.3687
G01 Z-2.5000
G01 Z0
G00 Z1.0000
G00 X152.6007 Y-72.8394
G01 Z-2.5000
G01 Z0
G00 Z1.0000
G00 X157.0990 Y-72.8394
G01 Z-2.5000
G01 Z0
G00 Z1.0000
G00 X157.0990 Y-79.3392
G01 Z-2.5000
G01 Z0
G00 Z1.0000
G00 X152.6007 Y-79.3392
G01 Z-2.5000
G01 Z0
G00 Z1.0000
G00 X116.0501 Y-77.5104
G01 Z-2.5000
G01 Z0
G00 Z1.0000
G00 X113.5507 Y-77.5104
G01 Z-2.5000
G01 Z0
G00 Z1.0000
G00 X113.5202 Y-72.4990
G01 Z-2.5000
G01 Z0
G00 Z1.0000
G00 X116.0196 Y-72.4990
G01 Z-2.5000
G01 Z0
G00 Z1.0000
G00 X113.4999 Y-67.2793
G01 Z-2.5000
G01 Z0
G00 Z1.0000
G00 X115.9993 Y-67.2793
G01 Z-2.5000
G01 Z0
G00 Z1.0000
M05
G00 Z5.00
G00 X0.0 Y0.0


