(G-CODE GENERATED BY FLATCAM v8.994 - www.flatcam.org - Version Date: 2020/11/7)

(Name: TapBeerFlowControl_hardware-NPTH.drl_mill_cnc)
(Type: G-code from Geometry)
(Units: MM)

(Created on Monday, 27 November 2023 at 01:33)

(This preprocessor is used with a motion controller loaded with GRBL firmware.)
(It is configured to be compatible with almost any version of GRBL firmware.)

(TOOL DIAMETER: 1.0 mm)
(Feedrate_XY: 50.0 mm/min)
(Feedrate_Z: 25.0 mm/min)
(Feedrate rapids 1500.0 mm/min)

(Z_Cut: -2.5 mm)
(Z_Move: 1.0 mm)
(Z Start: None mm)
(Z End: 5.0 mm)
(X,Y End: 0.0000, 0.0000 mm)
(Steps per circle: 64)
(Steps per circle: 64)
(Preprocessor Geometry: GRBL_11_no_M6)

(X range:  112.8886 ...  164.7003  mm)
(Y range:  -86.8999 ...  -45.4997  mm)

(Spindle Speed: 1000.0 RPM)
G21
G90
G17
G94


G01 F50.00

M5             
G00 Z5.0000
G00 X0.0000 Y0.0000                
T1
(MSG, Change to Tool Dia = 1.0000)
M0
G00 Z5.0000
        
M03 S1000.0
G01 F50.00
G00 X117.1414 Y-47.5003
G01 F25.00
G01 Z-2.5000
G01 F50.00
G01 X117.1317 Y-47.6964 F50.00
G01 X117.1029 Y-47.8906 F50.00
G01 X117.0552 Y-48.0811 F50.00
G01 X116.9891 Y-48.2659 F50.00
G01 X116.9051 Y-48.4434 F50.00
G01 X116.8042 Y-48.6118 F50.00
G01 X116.6872 Y-48.7695 F50.00
G01 X116.5554 Y-48.9150 F50.00
G01 X116.4099 Y-49.0468 F50.00
G01 X116.2522 Y-49.1638 F50.00
G01 X116.0838 Y-49.2647 F50.00
G01 X115.9063 Y-49.3487 F50.00
G01 X115.7215 Y-49.4148 F50.00
G01 X115.5310 Y-49.4625 F50.00
G01 X115.3368 Y-49.4913 F50.00
G01 X115.1407 Y-49.5010 F50.00
G01 X114.9446 Y-49.4913 F50.00
G01 X114.7504 Y-49.4625 F50.00
G01 X114.5600 Y-49.4148 F50.00
G01 X114.3751 Y-49.3487 F50.00
G01 X114.1976 Y-49.2647 F50.00
G01 X114.0292 Y-49.1638 F50.00
G01 X113.8716 Y-49.0468 F50.00
G01 X113.7261 Y-48.9150 F50.00
G01 X113.5942 Y-48.7695 F50.00
G01 X113.4773 Y-48.6118 F50.00
G01 X113.3763 Y-48.4434 F50.00
G01 X113.2924 Y-48.2659 F50.00
G01 X113.2263 Y-48.0811 F50.00
G01 X113.1786 Y-47.8906 F50.00
G01 X113.1497 Y-47.6964 F50.00
G01 X113.1401 Y-47.5003 F50.00
G01 X113.1497 Y-47.3042 F50.00
G01 X113.1786 Y-47.1100 F50.00
G01 X113.2263 Y-46.9196 F50.00
G01 X113.2924 Y-46.7347 F50.00
G01 X113.3763 Y-46.5572 F50.00
G01 X113.4773 Y-46.3888 F50.00
G01 X113.5942 Y-46.2311 F50.00
G01 X113.7261 Y-46.0857 F50.00
G01 X113.8716 Y-45.9538 F50.00
G01 X114.0292 Y-45.8369 F50.00
G01 X114.1976 Y-45.7359 F50.00
G01 X114.3751 Y-45.6520 F50.00
G01 X114.5600 Y-45.5858 F50.00
G01 X114.7504 Y-45.5381 F50.00
G01 X114.9446 Y-45.5093 F50.00
G01 X115.1407 Y-45.4997 F50.00
G01 X115.3368 Y-45.5093 F50.00
G01 X115.5310 Y-45.5381 F50.00
G01 X115.7215 Y-45.5858 F50.00
G01 X115.9063 Y-45.6520 F50.00
G01 X116.0838 Y-45.7359 F50.00
G01 X116.2522 Y-45.8369 F50.00
G01 X116.4099 Y-45.9538 F50.00
G01 X116.5554 Y-46.0857 F50.00
G01 X116.6872 Y-46.2311 F50.00
G01 X116.8042 Y-46.3888 F50.00
G01 X116.9051 Y-46.5572 F50.00
G01 X116.9891 Y-46.7347 F50.00
G01 X117.0552 Y-46.9196 F50.00
G01 X117.1029 Y-47.1100 F50.00
G01 X117.1317 Y-47.3042 F50.00
G01 X117.1414 Y-47.5003 F50.00
G00 Z1.0000
G00 X116.8899 Y-84.8993
G01 F25.00
G01 Z-2.5000
G01 F50.00
G01 X116.8803 Y-85.0954 F50.00
G01 X116.8515 Y-85.2896 F50.00
G01 X116.8038 Y-85.4800 F50.00
G01 X116.7376 Y-85.6649 F50.00
G01 X116.6537 Y-85.8424 F50.00
G01 X116.5527 Y-86.0108 F50.00
G01 X116.4358 Y-86.1685 F50.00
G01 X116.3039 Y-86.3139 F50.00
G01 X116.1585 Y-86.4458 F50.00
G01 X116.0008 Y-86.5627 F50.00
G01 X115.8324 Y-86.6637 F50.00
G01 X115.6549 Y-86.7476 F50.00
G01 X115.4700 Y-86.8138 F50.00
G01 X115.2796 Y-86.8615 F50.00
G01 X115.0854 Y-86.8903 F50.00
G01 X114.8893 Y-86.8999 F50.00
G01 X114.6932 Y-86.8903 F50.00
G01 X114.4990 Y-86.8615 F50.00
G01 X114.3085 Y-86.8138 F50.00
G01 X114.1237 Y-86.7476 F50.00
G01 X113.9462 Y-86.6637 F50.00
G01 X113.7778 Y-86.5627 F50.00
G01 X113.6201 Y-86.4458 F50.00
G01 X113.4746 Y-86.3139 F50.00
G01 X113.3428 Y-86.1685 F50.00
G01 X113.2258 Y-86.0108 F50.00
G01 X113.1249 Y-85.8424 F50.00
G01 X113.0409 Y-85.6649 F50.00
G01 X112.9748 Y-85.4800 F50.00
G01 X112.9271 Y-85.2896 F50.00
G01 X112.8983 Y-85.0954 F50.00
G01 X112.8886 Y-84.8993 F50.00
G01 X112.8983 Y-84.7032 F50.00
G01 X112.9271 Y-84.5090 F50.00
G01 X112.9748 Y-84.3185 F50.00
G01 X113.0409 Y-84.1337 F50.00
G01 X113.1249 Y-83.9562 F50.00
G01 X113.2258 Y-83.7878 F50.00
G01 X113.3428 Y-83.6301 F50.00
G01 X113.4746 Y-83.4846 F50.00
G01 X113.6201 Y-83.3528 F50.00
G01 X113.7778 Y-83.2358 F50.00
G01 X113.9462 Y-83.1349 F50.00
G01 X114.1237 Y-83.0509 F50.00
G01 X114.3085 Y-82.9848 F50.00
G01 X114.4990 Y-82.9371 F50.00
G01 X114.6932 Y-82.9083 F50.00
G01 X114.8893 Y-82.8987 F50.00
G01 X115.0854 Y-82.9083 F50.00
G01 X115.2796 Y-82.9371 F50.00
G01 X115.4700 Y-82.9848 F50.00
G01 X115.6549 Y-83.0509 F50.00
G01 X115.8324 Y-83.1349 F50.00
G01 X116.0008 Y-83.2358 F50.00
G01 X116.1585 Y-83.3528 F50.00
G01 X116.3039 Y-83.4846 F50.00
G01 X116.4358 Y-83.6301 F50.00
G01 X116.5527 Y-83.7878 F50.00
G01 X116.6537 Y-83.9562 F50.00
G01 X116.7376 Y-84.1337 F50.00
G01 X116.8038 Y-84.3185 F50.00
G01 X116.8515 Y-84.5090 F50.00
G01 X116.8803 Y-84.7032 F50.00
G01 X116.8899 Y-84.8993 F50.00
G00 Z1.0000
G00 X164.5606 Y-84.3887
G01 F25.00
G01 Z-2.5000
G01 F50.00
G01 X164.5510 Y-84.5848 F50.00
G01 X164.5222 Y-84.7790 F50.00
G01 X164.4745 Y-84.9695 F50.00
G01 X164.4083 Y-85.1543 F50.00
G01 X164.3244 Y-85.3318 F50.00
G01 X164.2235 Y-85.5002 F50.00
G01 X164.1065 Y-85.6579 F50.00
G01 X163.9747 Y-85.8034 F50.00
G01 X163.8292 Y-85.9352 F50.00
G01 X163.6715 Y-86.0522 F50.00
G01 X163.5031 Y-86.1531 F50.00
G01 X163.3256 Y-86.2371 F50.00
G01 X163.1408 Y-86.3032 F50.00
G01 X162.9503 Y-86.3509 F50.00
G01 X162.7561 Y-86.3797 F50.00
G01 X162.5600 Y-86.3894 F50.00
G01 X162.3639 Y-86.3797 F50.00
G01 X162.1697 Y-86.3509 F50.00
G01 X161.9792 Y-86.3032 F50.00
G01 X161.7944 Y-86.2371 F50.00
G01 X161.6169 Y-86.1531 F50.00
G01 X161.4485 Y-86.0522 F50.00
G01 X161.2908 Y-85.9352 F50.00
G01 X161.1453 Y-85.8034 F50.00
G01 X161.0135 Y-85.6579 F50.00
G01 X160.8965 Y-85.5002 F50.00
G01 X160.7956 Y-85.3318 F50.00
G01 X160.7117 Y-85.1543 F50.00
G01 X160.6455 Y-84.9695 F50.00
G01 X160.5978 Y-84.7790 F50.00
G01 X160.5690 Y-84.5848 F50.00
G01 X160.5594 Y-84.3887 F50.00
G01 X160.5690 Y-84.1926 F50.00
G01 X160.5978 Y-83.9984 F50.00
G01 X160.6455 Y-83.8080 F50.00
G01 X160.7117 Y-83.6231 F50.00
G01 X160.7956 Y-83.4456 F50.00
G01 X160.8965 Y-83.2772 F50.00
G01 X161.0135 Y-83.1196 F50.00
G01 X161.1453 Y-82.9741 F50.00
G01 X161.2908 Y-82.8422 F50.00
G01 X161.4485 Y-82.7253 F50.00
G01 X161.6169 Y-82.6243 F50.00
G01 X161.7944 Y-82.5404 F50.00
G01 X161.9792 Y-82.4743 F50.00
G01 X162.1697 Y-82.4266 F50.00
G01 X162.3639 Y-82.3977 F50.00
G01 X162.5600 Y-82.3881 F50.00
G01 X162.7561 Y-82.3977 F50.00
G01 X162.9503 Y-82.4266 F50.00
G01 X163.1408 Y-82.4743 F50.00
G01 X163.3256 Y-82.5404 F50.00
G01 X163.5031 Y-82.6243 F50.00
G01 X163.6715 Y-82.7253 F50.00
G01 X163.8292 Y-82.8422 F50.00
G01 X163.9747 Y-82.9741 F50.00
G01 X164.1065 Y-83.1196 F50.00
G01 X164.2235 Y-83.2772 F50.00
G01 X164.3244 Y-83.4456 F50.00
G01 X164.4083 Y-83.6231 F50.00
G01 X164.4745 Y-83.8080 F50.00
G01 X164.5222 Y-83.9984 F50.00
G01 X164.5510 Y-84.1926 F50.00
G01 X164.5606 Y-84.3887 F50.00
G00 Z1.0000
G00 X164.7003 Y-58.3893
G01 F25.00
G01 Z-2.5000
G01 F50.00
G01 X164.6907 Y-58.5854 F50.00
G01 X164.6619 Y-58.7796 F50.00
G01 X164.6142 Y-58.9701 F50.00
G01 X164.5480 Y-59.1549 F50.00
G01 X164.4641 Y-59.3324 F50.00
G01 X164.3632 Y-59.5008 F50.00
G01 X164.2462 Y-59.6585 F50.00
G01 X164.1144 Y-59.8040 F50.00
G01 X163.9689 Y-59.9358 F50.00
G01 X163.8112 Y-60.0528 F50.00
G01 X163.6428 Y-60.1537 F50.00
G01 X163.4653 Y-60.2376 F50.00
G01 X163.2805 Y-60.3038 F50.00
G01 X163.0900 Y-60.3515 F50.00
G01 X162.8958 Y-60.3803 F50.00
G01 X162.6997 Y-60.3899 F50.00
G01 X162.5036 Y-60.3803 F50.00
G01 X162.3094 Y-60.3515 F50.00
G01 X162.1189 Y-60.3038 F50.00
G01 X161.9341 Y-60.2376 F50.00
G01 X161.7566 Y-60.1537 F50.00
G01 X161.5882 Y-60.0528 F50.00
G01 X161.4305 Y-59.9358 F50.00
G01 X161.2850 Y-59.8040 F50.00
G01 X161.1532 Y-59.6585 F50.00
G01 X161.0362 Y-59.5008 F50.00
G01 X160.9353 Y-59.3324 F50.00
G01 X160.8514 Y-59.1549 F50.00
G01 X160.7852 Y-58.9701 F50.00
G01 X160.7375 Y-58.7796 F50.00
G01 X160.7087 Y-58.5854 F50.00
G01 X160.6991 Y-58.3893 F50.00
G01 X160.7087 Y-58.1932 F50.00
G01 X160.7375 Y-57.9990 F50.00
G01 X160.7852 Y-57.8085 F50.00
G01 X160.8514 Y-57.6237 F50.00
G01 X160.9353 Y-57.4462 F50.00
G01 X161.0362 Y-57.2778 F50.00
G01 X161.1532 Y-57.1201 F50.00
G01 X161.2850 Y-56.9746 F50.00
G01 X161.4305 Y-56.8428 F50.00
G01 X161.5882 Y-56.7258 F50.00
G01 X161.7566 Y-56.6249 F50.00
G01 X161.9341 Y-56.5410 F50.00
G01 X162.1189 Y-56.4748 F50.00
G01 X162.3094 Y-56.4271 F50.00
G01 X162.5036 Y-56.3983 F50.00
G01 X162.6997 Y-56.3887 F50.00
G01 X162.8958 Y-56.3983 F50.00
G01 X163.0900 Y-56.4271 F50.00
G01 X163.2805 Y-56.4748 F50.00
G01 X163.4653 Y-56.5410 F50.00
G01 X163.6428 Y-56.6249 F50.00
G01 X163.8112 Y-56.7258 F50.00
G01 X163.9689 Y-56.8428 F50.00
G01 X164.1144 Y-56.9746 F50.00
G01 X164.2462 Y-57.1201 F50.00
G01 X164.3632 Y-57.2778 F50.00
G01 X164.4641 Y-57.4462 F50.00
G01 X164.5480 Y-57.6237 F50.00
G01 X164.6142 Y-57.8085 F50.00
G01 X164.6619 Y-57.9990 F50.00
G01 X164.6907 Y-58.1932 F50.00
G01 X164.7003 Y-58.3893 F50.00
G00 Z1.0000
M05
G00 Z1.0000
G00 Z5.00
G00 X0.0 Y0.0


