(Block-name: Path_vbit)
(Block-expand: 0)
(Block-enable: 1)
(G-CODE GENERATED BY FLATCAM v8.994 - www.flatcam.org - Version Date: 2020/11/7)

(Name: TapBeerFlowControl_hardware-B_Cu.gbr_ncc_cnc)
(Type: G-code from Geometry)
(Units: MM)

(Created on Monday, 27 November 2023 at 01:25)

(This preprocessor is the default preprocessor used by FlatCAM.)
(It is made to work with MACH3 compatible motion controllers.)

(TOOL DIAMETER: 0.3 mm)
(Feedrate_XY: 70.0 mm/min)
(Feedrate_Z: 25.0 mm/min)
(Feedrate rapids 1500.0 mm/min)

(Z_Cut: -0.1 mm)
(Z_Move: 1.0 mm)
(Z Start: None mm)
(Z End: 15.0 mm)
(X,Y End: None mm)
(Steps per circle: 64)
(Preprocessor Geometry: default)

(X range:  111.8770 ...  167.9400  mm)
(Y range:  -89.1695 ...  -27.8757  mm)

(Spindle Speed: 1000.0 RPM)
G21
G90
G94

G01 F70.00

M5
G00 Z15.0000
( ---------- cut-here ---------- )
G00 X0.0000 Y0.0000
T2
M6    
(MSG, Change to Tool Dia = 0.3000)
M0
G00 Z15.0000

M03 S1000.0
G01 F70.00
G00 X112.6157 Y-31.3900
G01 F25.00
G01 Z-0.1000
G01 F70.00
G01 X112.6330 Y-31.1703
G01 X112.6844 Y-30.9560
G01 X112.7687 Y-30.7524
G01 X112.7870 Y-30.7227
G01 X112.9381 Y-30.8738
G01 X112.9143 Y-30.9240
G01 X112.9100 Y-30.9342
G01 X112.8728 Y-31.0381
G01 X112.8697 Y-31.0488
G01 X112.8438 Y-31.1523
G01 X112.8418 Y-31.1631
G01 X112.8258 Y-31.2724
G01 X112.8200 Y-31.3900
G01 X112.8258 Y-31.5076
G01 X112.8418 Y-31.6169
G01 X112.8438 Y-31.6277
G01 X112.8697 Y-31.7312
G01 X112.8728 Y-31.7419
G01 X112.9100 Y-31.8458
G01 X112.9143 Y-31.8560
G01 X112.9381 Y-31.9062
G01 X112.7870 Y-32.0573
G01 X112.7687 Y-32.0276
G01 X112.6844 Y-31.8240
G01 X112.6330 Y-31.6097
G01 X112.6157 Y-31.3900
G00 Z1.0000
( ---------- cut-here ---------- )
G00 X113.5038 Y-30.3081
G01 F25.00
G01 Z-0.1000
G01 F70.00
G01 X113.3527 Y-30.1570
G01 X113.3824 Y-30.1387
G01 X113.5860 Y-30.0544
G01 X113.8003 Y-30.0030
G01 X114.0200 Y-29.9857
G01 X114.2397 Y-30.0030
G01 X114.4540 Y-30.0544
G01 X114.6576 Y-30.1387
G01 X114.6873 Y-30.1570
G01 X114.5362 Y-30.3081
G01 X114.4860 Y-30.2843
G01 X114.4758 Y-30.2800
G01 X114.3719 Y-30.2428
G01 X114.3612 Y-30.2397
G01 X114.2577 Y-30.2138
G01 X114.2469 Y-30.2118
G01 X114.1376 Y-30.1958
G01 X114.0200 Y-30.1900
G01 X113.9024 Y-30.1958
G01 X113.7931 Y-30.2118
G01 X113.7823 Y-30.2138
G01 X113.6788 Y-30.2397
G01 X113.6681 Y-30.2428
G01 X113.5642 Y-30.2800
G01 X113.5540 Y-30.2843
G01 X113.5038 Y-30.3081
G00 Z1.0000
( ---------- cut-here ---------- )
G00 X115.1019 Y-30.8738
G01 F25.00
G01 Z-0.1000
G01 F70.00
G01 X115.2530 Y-30.7227
G01 X115.2713 Y-30.7524
G01 X115.3556 Y-30.9560
G01 X115.4070 Y-31.1703
G01 X115.4243 Y-31.3900
G01 X115.4070 Y-31.6097
G01 X115.3556 Y-31.8240
G01 X115.2713 Y-32.0276
G01 X115.2530 Y-32.0573
G01 X115.1019 Y-31.9062
G01 X115.1257 Y-31.8560
G01 X115.1300 Y-31.8458
G01 X115.1672 Y-31.7419
G01 X115.1703 Y-31.7312
G01 X115.1962 Y-31.6277
G01 X115.1982 Y-31.6169
G01 X115.2142 Y-31.5076
G01 X115.2200 Y-31.3900
G01 X115.2142 Y-31.2724
G01 X115.1982 Y-31.1631
G01 X115.1962 Y-31.1523
G01 X115.1703 Y-31.0488
G01 X115.1672 Y-31.0381
G01 X115.1300 Y-30.9342
G01 X115.1257 Y-30.9240
G01 X115.1019 Y-30.8738
G00 Z1.0000
( ---------- cut-here ---------- )
G00 X113.5038 Y-32.4719
G01 F25.00
G01 Z-0.1000
G01 F70.00
G01 X113.5540 Y-32.4957
G01 X113.5642 Y-32.5000
G01 X113.6681 Y-32.5372
G01 X113.6788 Y-32.5403
G01 X113.7823 Y-32.5662
G01 X113.7931 Y-32.5682
G01 X113.9024 Y-32.5842
G01 X114.0200 Y-32.5900
G01 X114.1376 Y-32.5842
G01 X114.2469 Y-32.5682
G01 X114.2577 Y-32.5662
G01 X114.3612 Y-32.5403
G01 X114.3719 Y-32.5372
G01 X114.4758 Y-32.5000
G01 X114.4860 Y-32.4957
G01 X114.5362 Y-32.4719
G01 X114.6873 Y-32.6230
G01 X114.6576 Y-32.6413
G01 X114.4540 Y-32.7256
G01 X114.2397 Y-32.7770
G01 X114.0200 Y-32.7943
G01 X113.8003 Y-32.7770
G01 X113.5860 Y-32.7256
G01 X113.3825 Y-32.6413
G01 X113.3527 Y-32.6230
G01 X113.5038 Y-32.4719
G00 Z1.0000
( ---------- cut-here ---------- )
G00 X117.7619 Y-31.9126
G01 F25.00
G01 Z-0.1000
G01 F70.00
G01 X117.7680 Y-31.8965
G01 X117.7738 Y-31.8777
G01 X117.7782 Y-31.8585
G01 X117.7809 Y-31.8415
G01 X117.7946 Y-31.8798
G01 X117.7619 Y-31.9126
G00 Z1.0000
( ---------- cut-here ---------- )
G00 X118.5749 Y-32.6313
G01 F25.00
G01 Z-0.1000
G01 F70.00
G01 X118.5561 Y-32.6329
G01 X118.5367 Y-32.6359
G01 X118.5175 Y-32.6404
G01 X118.4998 Y-32.6458
G01 X118.5302 Y-32.6154
G01 X118.5749 Y-32.6313
G00 Z1.0000
( ---------- cut-here ---------- )
G00 X120.2781 Y-30.8674
G01 F25.00
G01 Z-0.1000
G01 F70.00
G01 X120.2720 Y-30.8835
G01 X120.2662 Y-30.9023
G01 X120.2618 Y-30.9215
G01 X120.2591 Y-30.9385
G01 X120.2454 Y-30.9002
G01 X120.2781 Y-30.8674
G00 Z1.0000
( ---------- cut-here ---------- )
G00 X119.4651 Y-30.1487
G01 F25.00
G01 Z-0.1000
G01 F70.00
G01 X119.4839 Y-30.1471
G01 X119.5033 Y-30.1441
G01 X119.5225 Y-30.1397
G01 X119.5402 Y-30.1342
G01 X119.5098 Y-30.1646
G01 X119.4651 Y-30.1487
G00 Z1.0000
( ---------- cut-here ---------- )
G00 X125.0174 Y-30.1201
G01 F25.00
G01 Z-0.1000
G01 F70.00
G01 X125.0012 Y-30.1094
G01 X124.9847 Y-30.1001
G01 X125.0054 Y-30.1001
G01 X125.0174 Y-30.1201
G00 Z1.0000
( ---------- cut-here ---------- )
G00 X124.9822 Y-29.0599
G01 F25.00
G01 Z-0.1000
G01 F70.00
G01 X125.0000 Y-29.0519
G01 X125.0150 Y-29.0439
G01 X125.0054 Y-29.0599
G01 X124.9822 Y-29.0599
G00 Z1.0000
( ---------- cut-here ---------- )
G00 X126.2061 Y-28.5446
G01 F25.00
G01 Z-0.1000
G01 F70.00
G01 X126.2335 Y-28.5390
G01 X126.2494 Y-28.5350
G01 X126.2331 Y-28.5513
G01 X126.2061 Y-28.5446
G00 Z1.0000
( ---------- cut-here ---------- )
G00 X126.9844 Y-29.2711
G01 F25.00
G01 Z-0.1000
G01 F70.00
G01 X126.9783 Y-29.2871
G01 X126.9730 Y-29.3042
G01 X126.9687 Y-29.2869
G01 X126.9844 Y-29.2711
G00 Z1.0000
( ---------- cut-here ---------- )
G00 X126.3315 Y-30.5753
G01 F25.00
G01 Z-0.1000
G01 F70.00
G01 X126.3234 Y-30.5840
G01 X126.3147 Y-30.5942
G01 X126.3010 Y-30.6127
G01 X126.2937 Y-30.6240
G01 X126.2885 Y-30.6330
G01 X126.2782 Y-30.6537
G01 X126.2717 Y-30.6695
G01 X126.2664 Y-30.6851
G01 X126.2454 Y-30.7587
G01 X126.2413 Y-30.7753
G01 X126.2375 Y-30.7981
G01 X126.2362 Y-30.8115
G01 X126.2355 Y-30.8248
G01 X126.2355 Y-30.8383
G01 X126.2362 Y-30.8516
G01 X126.2372 Y-30.8620
G01 X126.2391 Y-30.8753
G01 X126.2422 Y-30.8914
G01 X126.2470 Y-30.9094
G01 X126.2687 Y-30.9812
G01 X126.2731 Y-30.9937
G01 X126.2783 Y-31.0063
G01 X126.2332 Y-31.0514
G01 X126.1617 Y-31.0335
G01 X126.1473 Y-31.0303
G01 X126.0566 Y-31.0166
G01 X126.0434 Y-31.0150
G01 X126.0331 Y-31.0143
G01 X125.9532 Y-31.0103
G01 X125.9385 Y-31.0100
G01 X125.8469 Y-31.0143
G01 X125.8366 Y-31.0150
G01 X125.8234 Y-31.0166
G01 X125.7327 Y-31.0303
G01 X125.7183 Y-31.0335
G01 X125.6468 Y-31.0514
G01 X125.6019 Y-31.0066
G01 X125.6093 Y-30.9882
G01 X125.6151 Y-30.9705
G01 X125.6356 Y-30.8983
G01 X125.6387 Y-30.8852
G01 X125.6412 Y-30.8720
G01 X125.6438 Y-30.8491
G01 X125.6444 Y-30.8387
G01 X125.6445 Y-30.8253
G01 X125.6432 Y-30.8022
G01 X125.6415 Y-30.7889
G01 X125.6392 Y-30.7757
G01 X125.6369 Y-30.7656
G01 X125.6334 Y-30.7526
G01 X125.6124 Y-30.6829
G01 X125.6069 Y-30.6669
G01 X125.6007 Y-30.6520
G01 X125.5963 Y-30.6427
G01 X125.5902 Y-30.6310
G01 X125.5783 Y-30.6116
G01 X125.5724 Y-30.6031
G01 X125.5643 Y-30.5927
G01 X125.5493 Y-30.5756
G01 X125.6168 Y-30.5998
G01 X125.6308 Y-30.6043
G01 X125.7183 Y-30.6265
G01 X125.7327 Y-30.6297
G01 X125.8220 Y-30.6432
G01 X125.8366 Y-30.6450
G01 X125.9268 Y-30.6497
G01 X125.9415 Y-30.6500
G01 X126.0317 Y-30.6458
G01 X126.0463 Y-30.6447
G01 X126.1357 Y-30.6317
G01 X126.1473 Y-30.6297
G01 X126.1617 Y-30.6265
G01 X126.2492 Y-30.6043
G01 X126.2632 Y-30.5998
G01 X126.3315 Y-30.5753
G01 X125.7571 Y-30.9051
G01 X125.7602 Y-30.8875
G01 X125.7626 Y-30.8682
G01 X125.7641 Y-30.8489
G01 X125.7646 Y-30.8296
G01 X125.7641 Y-30.8102
G01 X125.7627 Y-30.7909
G01 X125.7603 Y-30.7717
G01 X125.7574 Y-30.7550
G01 X125.8073 Y-30.7623
G01 X125.8300 Y-30.7649
G01 X125.9216 Y-30.7696
G01 X125.9415 Y-30.7700
G01 X125.9591 Y-30.7695
G01 X126.0376 Y-30.7657
G01 X126.0500 Y-30.7649
G01 X126.0727 Y-30.7623
G01 X126.1230 Y-30.7549
G01 X126.1198 Y-30.7731
G01 X126.1174 Y-30.7923
G01 X126.1159 Y-30.8117
G01 X126.1154 Y-30.8310
G01 X126.1159 Y-30.8504
G01 X126.1171 Y-30.8667
G01 X126.1193 Y-30.8860
G01 X126.1225 Y-30.9050
G01 X126.0727 Y-30.8977
G01 X126.0500 Y-30.8951
G01 X125.9584 Y-30.8904
G01 X125.9385 Y-30.8900
G01 X125.9209 Y-30.8905
G01 X125.8300 Y-30.8951
G01 X125.8073 Y-30.8977
G01 X125.7571 Y-30.9051
G00 Z1.0000
( ---------- cut-here ---------- )
G00 X124.8947 Y-31.6004
G01 F25.00
G01 Z-0.1000
G01 F70.00
G01 X125.0486 Y-31.7543
G01 X125.0332 Y-31.7972
G01 X125.0299 Y-31.8078
G01 X125.0099 Y-31.8875
G01 X125.0076 Y-31.8983
G01 X124.9946 Y-31.9869
G01 X124.9900 Y-32.0800
G01 X124.9946 Y-32.1731
G01 X125.0076 Y-32.2617
G01 X125.0099 Y-32.2725
G01 X125.0299 Y-32.3522
G01 X125.0332 Y-32.3628
G01 X125.0486 Y-32.4057
G01 X124.8947 Y-32.5596
G01 X124.8552 Y-32.4748
G01 X124.8031 Y-32.2805
G01 X124.7856 Y-32.0800
G01 X124.8031 Y-31.8795
G01 X124.8552 Y-31.6852
G01 X124.8947 Y-31.6004
G00 Z1.0000
( ---------- cut-here ---------- )
G00 X125.4604 Y-33.1253
G01 F25.00
G01 Z-0.1000
G01 F70.00
G01 X125.6143 Y-32.9714
G01 X125.6572 Y-32.9868
G01 X125.6678 Y-32.9901
G01 X125.7475 Y-33.0101
G01 X125.7583 Y-33.0124
G01 X125.8469 Y-33.0254
G01 X125.9400 Y-33.0300
G01 X126.0331 Y-33.0254
G01 X126.1217 Y-33.0124
G01 X126.1325 Y-33.0101
G01 X126.2122 Y-32.9901
G01 X126.2228 Y-32.9868
G01 X126.2657 Y-32.9714
G01 X126.4196 Y-33.1253
G01 X126.3348 Y-33.1648
G01 X126.1405 Y-33.2169
G01 X125.9400 Y-33.2344
G01 X125.7395 Y-33.2169
G01 X125.5452 Y-33.1648
G01 X125.4604 Y-33.1253
G00 Z1.0000
( ---------- cut-here ---------- )
G00 X126.8314 Y-32.4057
G01 F25.00
G01 Z-0.1000
G01 F70.00
G01 X126.8468 Y-32.3628
G01 X126.8501 Y-32.3522
G01 X126.8701 Y-32.2725
G01 X126.8724 Y-32.2617
G01 X126.8854 Y-32.1731
G01 X126.8900 Y-32.0800
G01 X126.8854 Y-31.9869
G01 X126.8724 Y-31.8983
G01 X126.8701 Y-31.8875
G01 X126.8501 Y-31.8078
G01 X126.8468 Y-31.7972
G01 X126.8314 Y-31.7543
G01 X126.9853 Y-31.6004
G01 X127.0248 Y-31.6852
G01 X127.0769 Y-31.8795
G01 X127.0944 Y-32.0800
G01 X127.0769 Y-32.2805
G01 X127.0248 Y-32.4748
G01 X126.9853 Y-32.5596
G01 X126.8314 Y-32.4057
G00 Z1.0000
( ---------- cut-here ---------- )
G00 X124.3604 Y-36.0347
G01 F25.00
G01 Z-0.1000
G01 F70.00
G01 X124.4452 Y-35.9952
G01 X124.6395 Y-35.9431
G01 X124.8400 Y-35.9256
G01 X125.0405 Y-35.9431
G01 X125.2348 Y-35.9952
G01 X125.3196 Y-36.0347
G01 X125.1657 Y-36.1886
G01 X125.1228 Y-36.1732
G01 X125.1122 Y-36.1699
G01 X125.0325 Y-36.1499
G01 X125.0217 Y-36.1476
G01 X124.9331 Y-36.1346
G01 X124.8400 Y-36.1300
G01 X124.7469 Y-36.1346
G01 X124.6583 Y-36.1476
G01 X124.6475 Y-36.1499
G01 X124.5678 Y-36.1699
G01 X124.5572 Y-36.1732
G01 X124.5143 Y-36.1886
G01 X124.3604 Y-36.0347
G00 Z1.0000
( ---------- cut-here ---------- )
G00 X123.7947 Y-36.6004
G01 F25.00
G01 Z-0.1000
G01 F70.00
G01 X123.9486 Y-36.7543
G01 X123.9332 Y-36.7972
G01 X123.9299 Y-36.8078
G01 X123.9099 Y-36.8875
G01 X123.9076 Y-36.8983
G01 X123.8946 Y-36.9869
G01 X123.8900 Y-37.0800
G01 X123.8946 Y-37.1731
G01 X123.9076 Y-37.2617
G01 X123.9099 Y-37.2725
G01 X123.9299 Y-37.3522
G01 X123.9332 Y-37.3628
G01 X123.9486 Y-37.4057
G01 X123.7947 Y-37.5596
G01 X123.7552 Y-37.4748
G01 X123.7031 Y-37.2805
G01 X123.6856 Y-37.0800
G01 X123.7031 Y-36.8795
G01 X123.7552 Y-36.6852
G01 X123.7947 Y-36.6004
G00 Z1.0000
( ---------- cut-here ---------- )
G00 X125.7314 Y-36.7543
G01 F25.00
G01 Z-0.1000
G01 F70.00
G01 X125.8853 Y-36.6004
G01 X125.9248 Y-36.6852
G01 X125.9769 Y-36.8795
G01 X125.9944 Y-37.0800
G01 X125.9769 Y-37.2805
G01 X125.9248 Y-37.4748
G01 X125.8853 Y-37.5596
G01 X125.7314 Y-37.4057
G01 X125.7468 Y-37.3628
G01 X125.7501 Y-37.3522
G01 X125.7701 Y-37.2725
G01 X125.7724 Y-37.2617
G01 X125.7854 Y-37.1731
G01 X125.7900 Y-37.0800
G01 X125.7854 Y-36.9869
G01 X125.7724 Y-36.8983
G01 X125.7701 Y-36.8875
G01 X125.7501 Y-36.8078
G01 X125.7468 Y-36.7972
G01 X125.7314 Y-36.7543
G00 Z1.0000
( ---------- cut-here ---------- )
G00 X125.7953 Y-38.5599
G01 F25.00
G01 Z-0.1000
G01 F70.00
G01 X125.7746 Y-38.5599
G01 X125.7626 Y-38.5399
G01 X125.7788 Y-38.5506
G01 X125.7953 Y-38.5599
G00 Z1.0000
( ---------- cut-here ---------- )
G00 X125.7650 Y-39.6161
G01 F25.00
G01 Z-0.1000
G01 F70.00
G01 X125.7746 Y-39.6001
G01 X125.7978 Y-39.6001
G01 X125.7800 Y-39.6081
G01 X125.7650 Y-39.6161
G00 Z1.0000
( ---------- cut-here ---------- )
G00 X124.5306 Y-40.1250
G01 F25.00
G01 Z-0.1000
G01 F70.00
G01 X124.5469 Y-40.1087
G01 X124.5739 Y-40.1154
G01 X124.5465 Y-40.1210
G01 X124.5306 Y-40.1250
G00 Z1.0000
( ---------- cut-here ---------- )
G00 X123.8070 Y-39.3558
G01 F25.00
G01 Z-0.1000
G01 F70.00
G01 X123.8113 Y-39.3731
G01 X123.7956 Y-39.3889
G01 X123.8017 Y-39.3729
G01 X123.8070 Y-39.3558
G00 Z1.0000
( ---------- cut-here ---------- )
G00 X123.2532 Y-41.6573
G01 F25.00
G01 Z-0.1000
G01 F70.00
G01 X123.2431 Y-41.6484
G01 X123.2327 Y-41.6402
G01 X123.1746 Y-41.5974
G01 X123.1621 Y-41.5895
G01 X123.1019 Y-41.5537
G01 X123.2562 Y-41.3994
G01 X123.2520 Y-41.4100
G01 X123.2476 Y-41.4227
G01 X123.2439 Y-41.4356
G01 X123.2408 Y-41.4486
G01 X123.2384 Y-41.4618
G01 X123.2366 Y-41.4751
G01 X123.2355 Y-41.4885
G01 X123.2350 Y-41.5019
G01 X123.2357 Y-41.5235
G01 X123.2418 Y-41.6048
G01 X123.2436 Y-41.6179
G01 X123.2461 Y-41.6308
G01 X123.2492 Y-41.6437
G01 X123.2532 Y-41.6573
G00 Z1.0000
( ---------- cut-here ---------- )
G00 X121.8023 Y-41.4500
G01 F25.00
G01 Z-0.1000
G01 F70.00
G01 X121.8007 Y-41.4546
G01 X121.7936 Y-41.4555
G01 X121.7986 Y-41.4524
G01 X121.8023 Y-41.4500
G00 Z1.0000
( ---------- cut-here ---------- )
G00 X120.5139 Y-42.1705
G01 F25.00
G01 Z-0.1000
G01 F70.00
G01 X120.3850 Y-42.2994
G01 X120.2538 Y-42.1682
G01 X120.2645 Y-42.1725
G01 X120.2771 Y-42.1768
G01 X120.2900 Y-42.1806
G01 X120.3031 Y-42.1837
G01 X120.3163 Y-42.1861
G01 X120.3295 Y-42.1879
G01 X120.3429 Y-42.1890
G01 X120.3563 Y-42.1894
G01 X120.3779 Y-42.1887
G01 X120.4595 Y-42.1826
G01 X120.4729 Y-42.1807
G01 X120.4861 Y-42.1782
G01 X120.4992 Y-42.1750
G01 X120.5139 Y-42.1705
G00 Z1.0000
( ---------- cut-here ---------- )
G00 X121.1387 Y-43.0168
G01 F25.00
G01 Z-0.1000
G01 F70.00
G01 X121.2487 Y-42.9069
G01 X121.2692 Y-42.9294
G01 X121.2806 Y-42.9408
G01 X121.3291 Y-42.9848
G01 X121.3453 Y-42.9983
G01 X121.3099 Y-42.9915
G01 X121.2900 Y-42.9888
G01 X121.2766 Y-42.9878
G01 X121.2632 Y-42.9875
G01 X121.2402 Y-42.9886
G01 X121.2298 Y-42.9897
G01 X121.2165 Y-42.9917
G01 X121.2034 Y-42.9944
G01 X121.1904 Y-42.9978
G01 X121.1713 Y-43.0040
G01 X121.1387 Y-43.0168
G00 Z1.0000
( ---------- cut-here ---------- )
G00 X121.8238 Y-44.1131
G01 F25.00
G01 Z-0.1000
G01 F70.00
G01 X121.8092 Y-44.1145
G01 X121.7509 Y-44.1232
G01 X121.7365 Y-44.1260
G01 X121.6723 Y-44.1423
G01 X121.6030 Y-44.1671
G01 X121.5365 Y-44.1986
G01 X121.4795 Y-44.2325
G01 X121.4673 Y-44.2406
G01 X121.4142 Y-44.2802
G01 X121.3650 Y-44.3246
G01 X121.3546 Y-44.3350
G01 X121.3102 Y-44.3842
G01 X121.2664 Y-44.4433
G01 X121.2322 Y-44.5000
G01 X121.2252 Y-44.5130
G01 X121.1971 Y-44.5730
G01 X121.1723 Y-44.6423
G01 X121.1544 Y-44.7137
G01 X121.1445 Y-44.7792
G01 X121.1431 Y-44.7938
G01 X121.1400 Y-44.8600
G01 X121.1431 Y-44.9262
G01 X121.1445 Y-44.9408
G01 X121.1544 Y-45.0063
G01 X121.1723 Y-45.0777
G01 X121.1971 Y-45.1470
G01 X121.2252 Y-45.2070
G01 X121.2322 Y-45.2200
G01 X121.2664 Y-45.2767
G01 X121.3057 Y-45.3300
G01 X121.3151 Y-45.3414
G01 X121.3597 Y-45.3903
G01 X121.4114 Y-45.4374
G01 X121.4200 Y-45.4443
G01 X121.4673 Y-45.4794
G01 X121.4795 Y-45.4875
G01 X121.5365 Y-45.5214
G01 X121.6030 Y-45.5529
G01 X121.6653 Y-45.5754
G01 X121.6794 Y-45.5797
G01 X121.7437 Y-45.5956
G01 X121.8128 Y-45.6060
G01 X121.8238 Y-45.6069
G01 X121.8900 Y-45.6100
G01 X122.6900 Y-45.6100
G01 X122.7562 Y-45.6069
G01 X122.7708 Y-45.6055
G01 X122.8363 Y-45.5956
G01 X122.9077 Y-45.5777
G01 X122.9770 Y-45.5529
G01 X123.0435 Y-45.5214
G01 X123.1067 Y-45.4836
G01 X123.1658 Y-45.4398
G01 X123.2203 Y-45.3903
G01 X123.2674 Y-45.3386
G01 X123.2743 Y-45.3300
G01 X123.3136 Y-45.2767
G01 X123.3514 Y-45.2135
G01 X123.3829 Y-45.1470
G01 X123.4077 Y-45.0777
G01 X123.4256 Y-45.0063
G01 X123.4364 Y-44.9335
G01 X123.4400 Y-44.8600
G01 X123.4364 Y-44.7865
G01 X123.4256 Y-44.7137
G01 X123.4077 Y-44.6423
G01 X123.3829 Y-44.5730
G01 X123.3514 Y-44.5065
G01 X123.3136 Y-44.4433
G01 X123.2698 Y-44.3842
G01 X123.2203 Y-44.3297
G01 X123.1686 Y-44.2826
G01 X123.1600 Y-44.2757
G01 X123.1127 Y-44.2406
G01 X123.1005 Y-44.2325
G01 X123.0435 Y-44.1986
G01 X122.9770 Y-44.1671
G01 X122.9147 Y-44.1446
G01 X122.9006 Y-44.1403
G01 X122.8363 Y-44.1244
G01 X122.7672 Y-44.1140
G01 X122.7562 Y-44.1131
G01 X122.6900 Y-44.1100
G01 X121.8900 Y-44.1100
G01 X121.8238 Y-44.1131
G00 Z1.0000
( ---------- cut-here ---------- )
G00 X120.9363 Y-44.9054
G01 F25.00
G01 Z-0.1000
G01 F70.00
G01 X120.9449 Y-44.7241
G01 X120.9877 Y-44.5477
G01 X121.0631 Y-44.3826
G01 X121.1684 Y-44.2347
G01 X121.2998 Y-44.1095
G01 X121.4525 Y-44.0113
G01 X121.6210 Y-43.9439
G01 X121.7992 Y-43.9095
G01 X122.7353 Y-43.9095
G01 X122.8707 Y-43.9224
G01 X123.0449 Y-43.9736
G01 X123.2062 Y-44.0568
G01 X123.3489 Y-44.1690
G01 X123.4678 Y-44.3062
G01 X123.5585 Y-44.4633
G01 X123.6179 Y-44.6349
G01 X123.6437 Y-44.8146
G01 X123.6351 Y-44.9959
G01 X123.5923 Y-45.1723
G01 X123.5169 Y-45.3374
G01 X123.4116 Y-45.4853
G01 X123.2802 Y-45.6105
G01 X123.1275 Y-45.7087
G01 X122.9590 Y-45.7761
G01 X122.7808 Y-45.8105
G01 X121.8447 Y-45.8105
G01 X121.7093 Y-45.7976
G01 X121.5351 Y-45.7464
G01 X121.3738 Y-45.6632
G01 X121.2311 Y-45.5510
G01 X121.1122 Y-45.4138
G01 X121.0215 Y-45.2567
G01 X120.9621 Y-45.0851
G01 X120.9363 Y-44.9054
G00 Z1.0000
( ---------- cut-here ---------- )
G00 X121.8238 Y-46.6531
G01 F25.00
G01 Z-0.1000
G01 F70.00
G01 X121.8092 Y-46.6545
G01 X121.7509 Y-46.6632
G01 X121.7365 Y-46.6660
G01 X121.6723 Y-46.6823
G01 X121.6030 Y-46.7071
G01 X121.5365 Y-46.7386
G01 X121.4795 Y-46.7725
G01 X121.4673 Y-46.7806
G01 X121.4142 Y-46.8202
G01 X121.3650 Y-46.8646
G01 X121.3546 Y-46.8750
G01 X121.3102 Y-46.9242
G01 X121.2664 Y-46.9833
G01 X121.2322 Y-47.0400
G01 X121.2252 Y-47.0530
G01 X121.1971 Y-47.1130
G01 X121.1723 Y-47.1823
G01 X121.1544 Y-47.2537
G01 X121.1445 Y-47.3192
G01 X121.1431 Y-47.3338
G01 X121.1400 Y-47.4000
G01 X121.1431 Y-47.4662
G01 X121.1445 Y-47.4808
G01 X121.1544 Y-47.5463
G01 X121.1723 Y-47.6177
G01 X121.1971 Y-47.6870
G01 X121.2252 Y-47.7470
G01 X121.2322 Y-47.7600
G01 X121.2664 Y-47.8167
G01 X121.3057 Y-47.8700
G01 X121.3151 Y-47.8814
G01 X121.3597 Y-47.9303
G01 X121.4114 Y-47.9774
G01 X121.4200 Y-47.9843
G01 X121.4673 Y-48.0194
G01 X121.4795 Y-48.0275
G01 X121.5365 Y-48.0614
G01 X121.6030 Y-48.0929
G01 X121.6653 Y-48.1154
G01 X121.6794 Y-48.1197
G01 X121.7437 Y-48.1356
G01 X121.8128 Y-48.1460
G01 X121.8238 Y-48.1469
G01 X121.8900 Y-48.1500
G01 X122.6900 Y-48.1500
G01 X122.7562 Y-48.1469
G01 X122.7708 Y-48.1455
G01 X122.8363 Y-48.1356
G01 X122.9077 Y-48.1177
G01 X122.9770 Y-48.0929
G01 X123.0435 Y-48.0614
G01 X123.1067 Y-48.0236
G01 X123.1658 Y-47.9798
G01 X123.2203 Y-47.9303
G01 X123.2674 Y-47.8786
G01 X123.2743 Y-47.8700
G01 X123.3136 Y-47.8167
G01 X123.3514 Y-47.7535
G01 X123.3829 Y-47.6870
G01 X123.4077 Y-47.6177
G01 X123.4256 Y-47.5463
G01 X123.4364 Y-47.4735
G01 X123.4400 Y-47.4000
G01 X123.4364 Y-47.3265
G01 X123.4256 Y-47.2537
G01 X123.4077 Y-47.1823
G01 X123.3829 Y-47.1130
G01 X123.3514 Y-47.0465
G01 X123.3136 Y-46.9833
G01 X123.2698 Y-46.9242
G01 X123.2203 Y-46.8697
G01 X123.1686 Y-46.8226
G01 X123.1600 Y-46.8157
G01 X123.1127 Y-46.7806
G01 X123.1005 Y-46.7725
G01 X123.0435 Y-46.7386
G01 X122.9770 Y-46.7071
G01 X122.9147 Y-46.6846
G01 X122.9006 Y-46.6803
G01 X122.8363 Y-46.6644
G01 X122.7672 Y-46.6540
G01 X122.7562 Y-46.6531
G01 X122.6900 Y-46.6500
G01 X121.8900 Y-46.6500
G01 X121.8238 Y-46.6531
G00 Z1.0000
( ---------- cut-here ---------- )
G00 X120.9363 Y-47.4454
G01 F25.00
G01 Z-0.1000
G01 F70.00
G01 X120.9449 Y-47.2641
G01 X120.9877 Y-47.0877
G01 X121.0631 Y-46.9226
G01 X121.1684 Y-46.7747
G01 X121.2998 Y-46.6495
G01 X121.4525 Y-46.5513
G01 X121.6210 Y-46.4839
G01 X121.7992 Y-46.4495
G01 X122.7353 Y-46.4495
G01 X122.8707 Y-46.4624
G01 X123.0449 Y-46.5136
G01 X123.2062 Y-46.5968
G01 X123.3489 Y-46.7090
G01 X123.4678 Y-46.8461
G01 X123.5585 Y-47.0033
G01 X123.6179 Y-47.1749
G01 X123.6437 Y-47.3546
G01 X123.6351 Y-47.5359
G01 X123.5923 Y-47.7123
G01 X123.5169 Y-47.8774
G01 X123.4116 Y-48.0253
G01 X123.2802 Y-48.1505
G01 X123.1275 Y-48.2487
G01 X122.9590 Y-48.3161
G01 X122.7808 Y-48.3505
G01 X121.8447 Y-48.3505
G01 X121.7093 Y-48.3376
G01 X121.5351 Y-48.2864
G01 X121.3738 Y-48.2032
G01 X121.2311 Y-48.0910
G01 X121.1122 Y-47.9538
G01 X121.0215 Y-47.7967
G01 X120.9621 Y-47.6251
G01 X120.9363 Y-47.4454
G00 Z1.0000
( ---------- cut-here ---------- )
G00 X121.8238 Y-49.1931
G01 F25.00
G01 Z-0.1000
G01 F70.00
G01 X121.8092 Y-49.1945
G01 X121.7509 Y-49.2032
G01 X121.7365 Y-49.2060
G01 X121.6723 Y-49.2223
G01 X121.6030 Y-49.2471
G01 X121.5365 Y-49.2786
G01 X121.4795 Y-49.3125
G01 X121.4673 Y-49.3206
G01 X121.4142 Y-49.3602
G01 X121.3650 Y-49.4046
G01 X121.3546 Y-49.4150
G01 X121.3102 Y-49.4642
G01 X121.2664 Y-49.5233
G01 X121.2322 Y-49.5800
G01 X121.2252 Y-49.5930
G01 X121.1971 Y-49.6530
G01 X121.1723 Y-49.7223
G01 X121.1544 Y-49.7937
G01 X121.1445 Y-49.8592
G01 X121.1431 Y-49.8738
G01 X121.1400 Y-49.9400
G01 X121.1431 Y-50.0062
G01 X121.1445 Y-50.0208
G01 X121.1544 Y-50.0863
G01 X121.1723 Y-50.1577
G01 X121.1971 Y-50.2270
G01 X121.2252 Y-50.2870
G01 X121.2322 Y-50.3000
G01 X121.2664 Y-50.3567
G01 X121.3057 Y-50.4100
G01 X121.3151 Y-50.4214
G01 X121.3597 Y-50.4703
G01 X121.4114 Y-50.5174
G01 X121.4200 Y-50.5243
G01 X121.4673 Y-50.5594
G01 X121.4795 Y-50.5675
G01 X121.5365 Y-50.6014
G01 X121.6030 Y-50.6329
G01 X121.6653 Y-50.6554
G01 X121.6794 Y-50.6597
G01 X121.7437 Y-50.6756
G01 X121.8128 Y-50.6860
G01 X121.8238 Y-50.6869
G01 X121.8900 Y-50.6900
G01 X122.6900 Y-50.6900
G01 X122.7562 Y-50.6869
G01 X122.7708 Y-50.6855
G01 X122.8363 Y-50.6756
G01 X122.9077 Y-50.6577
G01 X122.9770 Y-50.6329
G01 X123.0435 Y-50.6014
G01 X123.1067 Y-50.5636
G01 X123.1658 Y-50.5198
G01 X123.2203 Y-50.4703
G01 X123.2674 Y-50.4186
G01 X123.2743 Y-50.4100
G01 X123.3136 Y-50.3567
G01 X123.3514 Y-50.2935
G01 X123.3829 Y-50.2270
G01 X123.4077 Y-50.1577
G01 X123.4256 Y-50.0863
G01 X123.4364 Y-50.0135
G01 X123.4400 Y-49.9400
G01 X123.4364 Y-49.8665
G01 X123.4256 Y-49.7937
G01 X123.4077 Y-49.7223
G01 X123.3829 Y-49.6530
G01 X123.3514 Y-49.5865
G01 X123.3136 Y-49.5233
G01 X123.2698 Y-49.4642
G01 X123.2203 Y-49.4097
G01 X123.1686 Y-49.3626
G01 X123.1600 Y-49.3557
G01 X123.1127 Y-49.3206
G01 X123.1005 Y-49.3125
G01 X123.0435 Y-49.2786
G01 X122.9770 Y-49.2471
G01 X122.9147 Y-49.2246
G01 X122.9006 Y-49.2203
G01 X122.8363 Y-49.2044
G01 X122.7672 Y-49.1940
G01 X122.7562 Y-49.1931
G01 X122.6900 Y-49.1900
G01 X121.8900 Y-49.1900
G01 X121.8238 Y-49.1931
G00 Z1.0000
( ---------- cut-here ---------- )
G00 X120.9363 Y-49.9854
G01 F25.00
G01 Z-0.1000
G01 F70.00
G01 X120.9449 Y-49.8041
G01 X120.9877 Y-49.6277
G01 X121.0631 Y-49.4626
G01 X121.1684 Y-49.3147
G01 X121.2998 Y-49.1895
G01 X121.4525 Y-49.0913
G01 X121.6210 Y-49.0239
G01 X121.7992 Y-48.9895
G01 X122.7353 Y-48.9895
G01 X122.8707 Y-49.0024
G01 X123.0449 Y-49.0536
G01 X123.2062 Y-49.1368
G01 X123.3489 Y-49.2490
G01 X123.4678 Y-49.3861
G01 X123.5585 Y-49.5433
G01 X123.6179 Y-49.7149
G01 X123.6437 Y-49.8946
G01 X123.6351 Y-50.0759
G01 X123.5923 Y-50.2523
G01 X123.5169 Y-50.4174
G01 X123.4116 Y-50.5653
G01 X123.2802 Y-50.6905
G01 X123.1275 Y-50.7887
G01 X122.9590 Y-50.8561
G01 X122.7808 Y-50.8905
G01 X121.8447 Y-50.8905
G01 X121.7093 Y-50.8776
G01 X121.5351 Y-50.8264
G01 X121.3738 Y-50.7432
G01 X121.2311 Y-50.6310
G01 X121.1122 Y-50.4938
G01 X121.0215 Y-50.3367
G01 X120.9621 Y-50.1651
G01 X120.9363 Y-49.9854
G00 Z1.0000
( ---------- cut-here ---------- )
G00 X121.8238 Y-51.7331
G01 F25.00
G01 Z-0.1000
G01 F70.00
G01 X121.8092 Y-51.7345
G01 X121.7509 Y-51.7432
G01 X121.7365 Y-51.7460
G01 X121.6723 Y-51.7623
G01 X121.6030 Y-51.7871
G01 X121.5365 Y-51.8186
G01 X121.4795 Y-51.8525
G01 X121.4673 Y-51.8606
G01 X121.4142 Y-51.9002
G01 X121.3650 Y-51.9446
G01 X121.3546 Y-51.9550
G01 X121.3102 Y-52.0042
G01 X121.2664 Y-52.0633
G01 X121.2322 Y-52.1200
G01 X121.2252 Y-52.1330
G01 X121.1971 Y-52.1930
G01 X121.1723 Y-52.2623
G01 X121.1544 Y-52.3337
G01 X121.1445 Y-52.3992
G01 X121.1431 Y-52.4138
G01 X121.1400 Y-52.4800
G01 X121.1436 Y-52.5535
G01 X121.1532 Y-52.6191
G01 X121.1560 Y-52.6335
G01 X121.1723 Y-52.6977
G01 X121.1971 Y-52.7670
G01 X121.2252 Y-52.8270
G01 X121.2322 Y-52.8400
G01 X121.2664 Y-52.8967
G01 X121.3057 Y-52.9500
G01 X121.3151 Y-52.9614
G01 X121.3597 Y-53.0103
G01 X121.4114 Y-53.0574
G01 X121.4200 Y-53.0643
G01 X121.4673 Y-53.0994
G01 X121.4795 Y-53.1075
G01 X121.5365 Y-53.1414
G01 X121.6030 Y-53.1729
G01 X121.6653 Y-53.1954
G01 X121.6794 Y-53.1997
G01 X121.7437 Y-53.2156
G01 X121.8128 Y-53.2260
G01 X121.8238 Y-53.2269
G01 X121.8900 Y-53.2300
G01 X122.6900 Y-53.2300
G01 X122.7562 Y-53.2269
G01 X122.7708 Y-53.2255
G01 X122.8363 Y-53.2156
G01 X122.9077 Y-53.1977
G01 X122.9770 Y-53.1729
G01 X123.0435 Y-53.1414
G01 X123.1067 Y-53.1036
G01 X123.1658 Y-53.0598
G01 X123.2203 Y-53.0103
G01 X123.2674 Y-52.9586
G01 X123.2743 Y-52.9500
G01 X123.3136 Y-52.8967
G01 X123.3514 Y-52.8335
G01 X123.3829 Y-52.7670
G01 X123.4077 Y-52.6977
G01 X123.4256 Y-52.6263
G01 X123.4364 Y-52.5535
G01 X123.4400 Y-52.4800
G01 X123.4364 Y-52.4065
G01 X123.4256 Y-52.3337
G01 X123.4077 Y-52.2623
G01 X123.3829 Y-52.1930
G01 X123.3514 Y-52.1265
G01 X123.3136 Y-52.0633
G01 X123.2698 Y-52.0042
G01 X123.2203 Y-51.9497
G01 X123.1686 Y-51.9026
G01 X123.1600 Y-51.8957
G01 X123.1127 Y-51.8606
G01 X123.1005 Y-51.8525
G01 X123.0435 Y-51.8186
G01 X122.9770 Y-51.7871
G01 X122.9147 Y-51.7646
G01 X122.9006 Y-51.7603
G01 X122.8363 Y-51.7444
G01 X122.7672 Y-51.7340
G01 X122.7562 Y-51.7331
G01 X122.6900 Y-51.7300
G01 X121.8900 Y-51.7300
G01 X121.8238 Y-51.7331
G00 Z1.0000
( ---------- cut-here ---------- )
G00 X120.9363 Y-52.5254
G01 F25.00
G01 Z-0.1000
G01 F70.00
G01 X120.9449 Y-52.3441
G01 X120.9877 Y-52.1677
G01 X121.0631 Y-52.0026
G01 X121.1684 Y-51.8547
G01 X121.2998 Y-51.7295
G01 X121.4525 Y-51.6313
G01 X121.6210 Y-51.5639
G01 X121.7992 Y-51.5295
G01 X122.7353 Y-51.5295
G01 X122.8707 Y-51.5424
G01 X123.0449 Y-51.5936
G01 X123.2062 Y-51.6768
G01 X123.3489 Y-51.7890
G01 X123.4678 Y-51.9262
G01 X123.5585 Y-52.0833
G01 X123.6179 Y-52.2549
G01 X123.6437 Y-52.4346
G01 X123.6351 Y-52.6159
G01 X123.5923 Y-52.7923
G01 X123.5169 Y-52.9574
G01 X123.4116 Y-53.1053
G01 X123.2802 Y-53.2305
G01 X123.1275 Y-53.3287
G01 X122.9590 Y-53.3961
G01 X122.7808 Y-53.4305
G01 X121.8447 Y-53.4305
G01 X121.7093 Y-53.4176
G01 X121.5351 Y-53.3664
G01 X121.3738 Y-53.2832
G01 X121.2311 Y-53.1710
G01 X121.1122 Y-53.0338
G01 X121.0215 Y-52.8767
G01 X120.9621 Y-52.7051
G01 X120.9363 Y-52.5254
G00 Z1.0000
( ---------- cut-here ---------- )
G00 X121.0283 Y-54.6200
G01 F25.00
G01 Z-0.1000
G01 F70.00
G01 X121.0635 Y-54.5428
G01 X121.1688 Y-54.3951
G01 X121.3001 Y-54.2699
G01 X121.4527 Y-54.1718
G01 X121.6211 Y-54.1043
G01 X121.7993 Y-54.0700
G01 X121.8900 Y-54.0700
G01 X121.8900 Y-54.2700
G01 X121.8238 Y-54.2731
G01 X121.8092 Y-54.2745
G01 X121.7437 Y-54.2844
G01 X121.6794 Y-54.3003
G01 X121.6653 Y-54.3046
G01 X121.6030 Y-54.3271
G01 X121.5430 Y-54.3552
G01 X121.5332 Y-54.3603
G01 X121.4795 Y-54.3925
G01 X121.4673 Y-54.4006
G01 X121.4142 Y-54.4402
G01 X121.3623 Y-54.4871
G01 X121.3546 Y-54.4950
G01 X121.3151 Y-54.5386
G01 X121.3079 Y-54.5471
G01 X121.2685 Y-54.6003
G01 X121.2562 Y-54.6200
G01 X121.0283 Y-54.6200
G00 Z1.0000
( ---------- cut-here ---------- )
G00 X121.0240 Y-55.4200
G01 F25.00
G01 Z-0.1000
G01 F70.00
G01 X121.2562 Y-55.4200
G01 X121.2685 Y-55.4397
G01 X121.3079 Y-55.4929
G01 X121.3151 Y-55.5014
G01 X121.3546 Y-55.5450
G01 X121.3623 Y-55.5529
G01 X121.4086 Y-55.5949
G01 X121.4200 Y-55.6043
G01 X121.4733 Y-55.6436
G01 X121.5332 Y-55.6797
G01 X121.5430 Y-55.6848
G01 X121.6030 Y-55.7129
G01 X121.6653 Y-55.7354
G01 X121.6794 Y-55.7397
G01 X121.7437 Y-55.7556
G01 X121.8092 Y-55.7655
G01 X121.8238 Y-55.7669
G01 X121.8900 Y-55.7700
G01 X121.8900 Y-55.9700
G01 X121.8447 Y-55.9700
G01 X121.7094 Y-55.9571
G01 X121.5353 Y-55.9060
G01 X121.3740 Y-55.8228
G01 X121.2314 Y-55.7107
G01 X121.1126 Y-55.5736
G01 X121.0240 Y-55.4200
G00 Z1.0000
( ---------- cut-here ---------- )
G00 X121.8238 Y-56.8131
G01 F25.00
G01 Z-0.1000
G01 F70.00
G01 X121.8092 Y-56.8145
G01 X121.7509 Y-56.8232
G01 X121.7365 Y-56.8260
G01 X121.6723 Y-56.8423
G01 X121.6030 Y-56.8671
G01 X121.5365 Y-56.8986
G01 X121.4795 Y-56.9325
G01 X121.4673 Y-56.9406
G01 X121.4142 Y-56.9802
G01 X121.3650 Y-57.0246
G01 X121.3546 Y-57.0350
G01 X121.3102 Y-57.0842
G01 X121.2664 Y-57.1433
G01 X121.2322 Y-57.2000
G01 X121.2252 Y-57.2130
G01 X121.1971 Y-57.2730
G01 X121.1723 Y-57.3423
G01 X121.1544 Y-57.4137
G01 X121.1445 Y-57.4792
G01 X121.1431 Y-57.4938
G01 X121.1400 Y-57.5600
G01 X121.1436 Y-57.6335
G01 X121.1532 Y-57.6991
G01 X121.1560 Y-57.7135
G01 X121.1723 Y-57.7777
G01 X121.1971 Y-57.8470
G01 X121.2252 Y-57.9070
G01 X121.2322 Y-57.9200
G01 X121.2664 Y-57.9767
G01 X121.3057 Y-58.0300
G01 X121.3151 Y-58.0414
G01 X121.3597 Y-58.0903
G01 X121.4114 Y-58.1374
G01 X121.4200 Y-58.1443
G01 X121.4673 Y-58.1794
G01 X121.4795 Y-58.1875
G01 X121.5365 Y-58.2214
G01 X121.6030 Y-58.2529
G01 X121.6653 Y-58.2754
G01 X121.6794 Y-58.2797
G01 X121.7437 Y-58.2956
G01 X121.8128 Y-58.3060
G01 X121.8238 Y-58.3069
G01 X121.8900 Y-58.3100
G01 X122.6900 Y-58.3100
G01 X122.7562 Y-58.3069
G01 X122.7708 Y-58.3055
G01 X122.8363 Y-58.2956
G01 X122.9077 Y-58.2777
G01 X122.9770 Y-58.2529
G01 X123.0435 Y-58.2214
G01 X123.1067 Y-58.1836
G01 X123.1658 Y-58.1398
G01 X123.2203 Y-58.0903
G01 X123.2674 Y-58.0386
G01 X123.2743 Y-58.0300
G01 X123.3136 Y-57.9767
G01 X123.3514 Y-57.9135
G01 X123.3829 Y-57.8470
G01 X123.4077 Y-57.7777
G01 X123.4256 Y-57.7063
G01 X123.4364 Y-57.6335
G01 X123.4400 Y-57.5600
G01 X123.4364 Y-57.4865
G01 X123.4256 Y-57.4137
G01 X123.4077 Y-57.3423
G01 X123.3829 Y-57.2730
G01 X123.3514 Y-57.2065
G01 X123.3136 Y-57.1433
G01 X123.2698 Y-57.0842
G01 X123.2203 Y-57.0297
G01 X123.1686 Y-56.9826
G01 X123.1600 Y-56.9757
G01 X123.1127 Y-56.9406
G01 X123.1005 Y-56.9325
G01 X123.0435 Y-56.8986
G01 X122.9770 Y-56.8671
G01 X122.9147 Y-56.8446
G01 X122.9006 Y-56.8403
G01 X122.8363 Y-56.8244
G01 X122.7672 Y-56.8140
G01 X122.7562 Y-56.8131
G01 X122.6900 Y-56.8100
G01 X121.8900 Y-56.8100
G01 X121.8238 Y-56.8131
G00 Z1.0000
( ---------- cut-here ---------- )
G00 X120.9363 Y-57.6054
G01 F25.00
G01 Z-0.1000
G01 F70.00
G01 X120.9449 Y-57.4241
G01 X120.9877 Y-57.2477
G01 X121.0631 Y-57.0826
G01 X121.1684 Y-56.9347
G01 X121.2998 Y-56.8095
G01 X121.4525 Y-56.7113
G01 X121.6210 Y-56.6439
G01 X121.7992 Y-56.6095
G01 X122.7353 Y-56.6095
G01 X122.8707 Y-56.6224
G01 X123.0449 Y-56.6736
G01 X123.2062 Y-56.7568
G01 X123.2144 Y-56.7632
G01 X123.3489 Y-56.8690
G01 X123.4678 Y-57.0061
G01 X123.5585 Y-57.1633
G01 X123.6179 Y-57.3349
G01 X123.6437 Y-57.5146
G01 X123.6351 Y-57.6959
G01 X123.5923 Y-57.8723
G01 X123.5169 Y-58.0374
G01 X123.4116 Y-58.1853
G01 X123.2802 Y-58.3105
G01 X123.1275 Y-58.4087
G01 X122.9590 Y-58.4761
G01 X122.7808 Y-58.5105
G01 X121.8447 Y-58.5105
G01 X121.7093 Y-58.4976
G01 X121.5351 Y-58.4464
G01 X121.3738 Y-58.3632
G01 X121.2311 Y-58.2510
G01 X121.1122 Y-58.1138
G01 X121.0215 Y-57.9567
G01 X120.9621 Y-57.7851
G01 X120.9363 Y-57.6054
G00 Z1.0000
( ---------- cut-here ---------- )
G00 X121.8238 Y-59.3531
G01 F25.00
G01 Z-0.1000
G01 F70.00
G01 X121.8092 Y-59.3545
G01 X121.7509 Y-59.3632
G01 X121.7365 Y-59.3660
G01 X121.6723 Y-59.3823
G01 X121.6030 Y-59.4071
G01 X121.5365 Y-59.4386
G01 X121.4795 Y-59.4725
G01 X121.4673 Y-59.4806
G01 X121.4142 Y-59.5202
G01 X121.3650 Y-59.5646
G01 X121.3546 Y-59.5750
G01 X121.3102 Y-59.6242
G01 X121.2664 Y-59.6833
G01 X121.2322 Y-59.7400
G01 X121.2252 Y-59.7530
G01 X121.1971 Y-59.8130
G01 X121.1723 Y-59.8823
G01 X121.1544 Y-59.9537
G01 X121.1445 Y-60.0192
G01 X121.1431 Y-60.0338
G01 X121.1400 Y-60.1000
G01 X121.1436 Y-60.1735
G01 X121.1532 Y-60.2391
G01 X121.1560 Y-60.2535
G01 X121.1723 Y-60.3177
G01 X121.1971 Y-60.3870
G01 X121.2252 Y-60.4470
G01 X121.2322 Y-60.4600
G01 X121.2664 Y-60.5167
G01 X121.3057 Y-60.5700
G01 X121.3151 Y-60.5814
G01 X121.3597 Y-60.6303
G01 X121.4114 Y-60.6774
G01 X121.4200 Y-60.6843
G01 X121.4673 Y-60.7194
G01 X121.4795 Y-60.7275
G01 X121.5365 Y-60.7614
G01 X121.6030 Y-60.7929
G01 X121.6653 Y-60.8154
G01 X121.6794 Y-60.8197
G01 X121.7437 Y-60.8356
G01 X121.8128 Y-60.8460
G01 X121.8238 Y-60.8469
G01 X121.8900 Y-60.8500
G01 X122.6900 Y-60.8500
G01 X122.7562 Y-60.8469
G01 X122.7708 Y-60.8455
G01 X122.8363 Y-60.8356
G01 X122.9077 Y-60.8177
G01 X122.9770 Y-60.7929
G01 X123.0435 Y-60.7614
G01 X123.1067 Y-60.7236
G01 X123.1658 Y-60.6798
G01 X123.2203 Y-60.6303
G01 X123.2674 Y-60.5786
G01 X123.2743 Y-60.5700
G01 X123.3136 Y-60.5167
G01 X123.3514 Y-60.4535
G01 X123.3829 Y-60.3870
G01 X123.4077 Y-60.3177
G01 X123.4256 Y-60.2463
G01 X123.4364 Y-60.1735
G01 X123.4400 Y-60.1000
G01 X123.4364 Y-60.0265
G01 X123.4256 Y-59.9537
G01 X123.4077 Y-59.8823
G01 X123.3829 Y-59.8130
G01 X123.3514 Y-59.7465
G01 X123.3136 Y-59.6833
G01 X123.2698 Y-59.6242
G01 X123.2203 Y-59.5697
G01 X123.1686 Y-59.5226
G01 X123.1600 Y-59.5157
G01 X123.1127 Y-59.4806
G01 X123.1005 Y-59.4725
G01 X123.0435 Y-59.4386
G01 X122.9770 Y-59.4071
G01 X122.9147 Y-59.3846
G01 X122.9006 Y-59.3803
G01 X122.8363 Y-59.3644
G01 X122.7672 Y-59.3540
G01 X122.7562 Y-59.3531
G01 X122.6900 Y-59.3500
G01 X121.8900 Y-59.3500
G01 X121.8238 Y-59.3531
G00 Z1.0000
( ---------- cut-here ---------- )
G00 X121.6448 Y-61.3402
G01 F25.00
G01 Z-0.1000
G01 F70.00
G01 X121.6566 Y-61.3160
G01 X121.6622 Y-61.3029
G01 X121.6675 Y-61.2890
G01 X121.6720 Y-61.2756
G01 X121.6763 Y-61.2613
G01 X121.6827 Y-61.2345
G01 X121.6864 Y-61.2133
G01 X121.6981 Y-61.1308
G01 X121.6994 Y-61.1160
G01 X121.7002 Y-61.1018
G01 X121.7004 Y-61.0869
G01 X121.7001 Y-61.0716
G01 X121.7616 Y-61.0810
G01 X121.7490 Y-61.1052
G01 X121.7431 Y-61.1181
G01 X121.7375 Y-61.1319
G01 X121.7326 Y-61.1452
G01 X121.7280 Y-61.1594
G01 X121.7209 Y-61.1860
G01 X121.7180 Y-61.1999
G01 X121.7155 Y-61.2145
G01 X121.7042 Y-61.2933
G01 X121.7018 Y-61.3185
G01 X121.7011 Y-61.3439
G01 X121.6803 Y-61.3419
G01 X121.6448 Y-61.3402
G01 X121.8765 Y-61.5220
G01 X121.8633 Y-61.5153
G01 X121.8304 Y-61.5000
G01 X121.8167 Y-61.4947
G01 X121.7824 Y-61.4827
G01 X121.7682 Y-61.4787
G01 X121.7329 Y-61.4702
G01 X121.7184 Y-61.4676
G01 X121.6861 Y-61.4629
G01 X121.6692 Y-61.4615
G01 X121.6315 Y-61.4599
G01 X121.3566 Y-61.4599
G01 X121.3698 Y-61.4541
G01 X121.3850 Y-61.4463
G01 X121.3966 Y-61.4395
G01 X121.4103 Y-61.4305
G01 X121.4240 Y-61.4202
G01 X121.4364 Y-61.4095
G01 X121.4461 Y-61.4003
G01 X121.4578 Y-61.3877
G01 X121.5098 Y-61.3275
G01 X121.5180 Y-61.3169
G01 X121.5277 Y-61.3028
G01 X121.5380 Y-61.2855
G01 X121.5481 Y-61.2647
G01 X121.5554 Y-61.2460
G01 X121.5613 Y-61.2268
G01 X121.5645 Y-61.2138
G01 X121.5670 Y-61.2006
G01 X121.5777 Y-61.1263
G01 X121.5794 Y-61.1115
G01 X121.5803 Y-61.0981
G01 X121.5804 Y-61.0810
G01 X121.5794 Y-61.0646
G01 X121.5774 Y-61.0476
G01 X121.5745 Y-61.0315
G01 X121.5704 Y-61.0148
G01 X121.5664 Y-61.0020
G01 X121.5608 Y-60.9866
G01 X121.5249 Y-60.9076
G01 X121.5177 Y-60.8936
G01 X121.5111 Y-60.8824
G01 X121.5463 Y-60.8990
G01 X121.5584 Y-60.9043
G01 X121.6297 Y-60.9301
G01 X121.6502 Y-60.9361
G01 X121.7088 Y-60.9507
G01 X121.7282 Y-60.9547
G01 X121.8033 Y-60.9657
G01 X121.8179 Y-60.9668
G01 X121.8768 Y-60.9697
G01 X121.8900 Y-60.9700
G01 X122.0453 Y-60.9700
G01 X122.0318 Y-60.9759
G01 X122.0165 Y-60.9837
G01 X122.0024 Y-60.9920
G01 X121.9912 Y-60.9995
G01 X121.9776 Y-61.0098
G01 X121.9673 Y-61.0185
G01 X121.9554 Y-61.0297
G01 X121.9462 Y-61.0395
G01 X121.8936 Y-61.1002
G01 X121.8835 Y-61.1131
G01 X121.8758 Y-61.1241
G01 X121.8654 Y-61.1412
G01 X121.8575 Y-61.1564
G01 X121.8495 Y-61.1749
G01 X121.8429 Y-61.1939
G01 X121.8386 Y-61.2097
G01 X121.8351 Y-61.2265
G01 X121.8228 Y-61.3118
G01 X121.8216 Y-61.3252
G01 X121.8211 Y-61.3423
G01 X121.8214 Y-61.3557
G01 X121.8225 Y-61.3691
G01 X121.8246 Y-61.3854
G01 X121.8279 Y-61.4022
G01 X121.8312 Y-61.4152
G01 X121.8361 Y-61.4308
G01 X121.8397 Y-61.4406
G01 X121.8449 Y-61.4529
G01 X121.8765 Y-61.5220
G00 Z1.0000
( ---------- cut-here ---------- )
G00 X120.8509 Y-62.5001
G01 F25.00
G01 Z-0.1000
G01 F70.00
G01 X120.8647 Y-62.5084
G01 X120.9303 Y-62.5507
G01 X120.9441 Y-62.5608
G01 X120.9594 Y-62.5738
G01 X120.9758 Y-62.5901
G01 X120.9846 Y-62.6002
G01 X120.9930 Y-62.6107
G01 X121.0008 Y-62.6216
G01 X121.0081 Y-62.6329
G01 X121.0147 Y-62.6445
G01 X121.0204 Y-62.6556
G01 X121.0201 Y-62.6319
G01 X121.0237 Y-62.5599
G01 X121.0256 Y-62.5430
G01 X121.0320 Y-62.5001
G01 X120.8509 Y-62.5001
G01 X119.3550 Y-62.5161
G01 X119.3700 Y-62.5081
G01 X119.3878 Y-62.5001
G01 X119.3646 Y-62.5001
G01 X119.3550 Y-62.5161
G00 Z1.0000
( ---------- cut-here ---------- )
G00 X119.3853 Y-61.4599
G01 F25.00
G01 Z-0.1000
G01 F70.00
G01 X119.3646 Y-61.4599
G01 X119.3526 Y-61.4399
G01 X119.3688 Y-61.4506
G01 X119.3853 Y-61.4599
G00 Z1.0000
( ---------- cut-here ---------- )
G00 X118.1542 Y-60.9470
G01 F25.00
G01 Z-0.1000
G01 F70.00
G01 X118.1369 Y-60.9513
G01 X118.1212 Y-60.9356
G01 X118.1371 Y-60.9417
G01 X118.1542 Y-60.9470
G00 Z1.0000
( ---------- cut-here ---------- )
G00 X117.3850 Y-61.6706
G01 F25.00
G01 Z-0.1000
G01 F70.00
G01 X117.4013 Y-61.6869
G01 X117.3946 Y-61.7139
G01 X117.3890 Y-61.6865
G01 X117.3850 Y-61.6706
G00 Z1.0000
( ---------- cut-here ---------- )
G00 X113.7000 Y-61.9600
G01 F25.00
G01 Z-0.1000
G01 F70.00
G01 X114.0250 Y-61.9600
G01 X114.0569 Y-61.9586
G01 X114.0679 Y-61.9577
G01 X114.0994 Y-61.9530
G01 X114.1102 Y-61.9507
G01 X114.1411 Y-61.9428
G01 X114.1712 Y-61.9322
G01 X114.1815 Y-61.9281
G01 X114.2103 Y-61.9145
G01 X114.2200 Y-61.9091
G01 X114.2441 Y-61.8946
G01 X114.2532 Y-61.8883
G01 X114.2759 Y-61.8715
G01 X114.2843 Y-61.8644
G01 X114.3025 Y-61.8479
G01 X114.3129 Y-61.8375
G01 X114.3318 Y-61.8166
G01 X114.3387 Y-61.8080
G01 X114.3576 Y-61.7822
G01 X114.3778 Y-61.7486
G01 X114.3946 Y-61.7131
G01 X114.4067 Y-61.6796
G01 X114.4097 Y-61.6690
G01 X114.4173 Y-61.6380
G01 X114.4222 Y-61.6065
G01 X114.4236 Y-61.5919
G01 X114.4250 Y-61.5600
G01 X114.4250 Y-61.3600
G01 X114.6250 Y-61.3600
G01 X114.6250 Y-61.6023
G01 X114.6170 Y-61.6811
G01 X114.5725 Y-61.8153
G01 X114.4989 Y-61.9347
G01 X114.3997 Y-62.0339
G01 X114.2803 Y-62.1075
G01 X114.1461 Y-62.1520
G01 X114.0673 Y-62.1600
G01 X113.7000 Y-62.1600
G01 X113.7000 Y-61.9600
G00 Z1.0000
( ---------- cut-here ---------- )
G00 X112.1750 Y-61.3600
G01 F25.00
G01 Z-0.1000
G01 F70.00
G01 X112.1750 Y-61.5637
G01 X112.1769 Y-61.5992
G01 X112.1827 Y-61.6380
G01 X112.1903 Y-61.6690
G01 X112.1945 Y-61.6831
G01 X112.2054 Y-61.7131
G01 X112.2189 Y-61.7420
G01 X112.2259 Y-61.7550
G01 X112.2424 Y-61.7822
G01 X112.2613 Y-61.8080
G01 X112.2706 Y-61.8193
G01 X112.2922 Y-61.8428
G01 X112.3212 Y-61.8692
G01 X112.3528 Y-61.8926
G01 X112.3800 Y-61.9091
G01 X112.3930 Y-61.9161
G01 X112.4152 Y-61.9266
G01 X112.4253 Y-61.9309
G01 X112.4589 Y-61.9428
G01 X112.4934 Y-61.9516
G01 X112.5042 Y-61.9536
G01 X112.5358 Y-61.9581
G01 X112.5713 Y-61.9600
G01 X112.9000 Y-61.9600
G01 X112.9000 Y-62.1600
G01 X112.5327 Y-62.1600
G01 X112.4539 Y-62.1520
G01 X112.3197 Y-62.1075
G01 X112.2003 Y-62.0339
G01 X112.1011 Y-61.9347
G01 X112.0275 Y-61.8153
G01 X111.9830 Y-61.6811
G01 X111.9750 Y-61.6023
G01 X111.9750 Y-61.3600
G01 X112.1750 Y-61.3600
G00 Z1.0000
( ---------- cut-here ---------- )
G00 X112.7053 Y-59.6076
G01 F25.00
G01 Z-0.1000
G01 F70.00
G01 X112.7997 Y-59.6416
G01 X112.8165 Y-59.6470
G01 X112.8335 Y-59.6517
G01 X112.9151 Y-59.6722
G01 X112.9345 Y-59.6765
G01 X112.9519 Y-59.6794
G01 X113.0425 Y-59.6928
G01 X113.0703 Y-59.6953
G01 X113.1669 Y-59.6999
G01 X113.4250 Y-59.7000
G01 X113.4441 Y-59.6995
G01 X113.5282 Y-59.6954
G01 X113.5451 Y-59.6942
G01 X113.5655 Y-59.6917
G01 X113.6488 Y-59.6793
G01 X113.6655 Y-59.6765
G01 X113.6856 Y-59.6720
G01 X113.7672 Y-59.6515
G01 X113.7835 Y-59.6470
G01 X113.8031 Y-59.6406
G01 X113.8824 Y-59.6122
G01 X113.8962 Y-59.6070
G01 X113.8991 Y-59.6460
G01 X113.9018 Y-59.6682
G01 X113.9065 Y-59.6938
G01 X113.9133 Y-59.7200
G01 X112.6852 Y-59.7200
G01 X112.6889 Y-59.7048
G01 X112.6920 Y-59.6895
G01 X112.7053 Y-59.6076
G01 X112.5405 Y-59.3826
G01 X112.5515 Y-59.3904
G01 X112.5627 Y-59.3976
G01 X112.6457 Y-59.4470
G01 X112.6589 Y-59.4537
G01 X112.7450 Y-59.4942
G01 X112.7588 Y-59.4995
G01 X112.8485 Y-59.5313
G01 X112.8627 Y-59.5353
G01 X112.9515 Y-59.5574
G01 X112.9696 Y-59.5607
G01 X113.0638 Y-59.5745
G01 X113.0784 Y-59.5756
G01 X113.1618 Y-59.5797
G01 X113.1750 Y-59.5800
G01 X113.4250 Y-59.5800
G01 X113.4382 Y-59.5797
G01 X113.5333 Y-59.5747
G01 X113.5479 Y-59.5730
G01 X113.6304 Y-59.5607
G01 X113.6421 Y-59.5588
G01 X113.6550 Y-59.5559
G01 X113.7373 Y-59.5353
G01 X113.7515 Y-59.5313
G01 X113.7627 Y-59.5276
G01 X113.8522 Y-59.4953
G01 X113.8657 Y-59.4894
G01 X113.9425 Y-59.4531
G01 X113.9517 Y-59.4484
G01 X113.9632 Y-59.4420
G01 X114.0360 Y-59.3983
G01 X114.0485 Y-59.3904
G01 X114.0619 Y-59.3808
G01 X114.0417 Y-59.4181
G01 X114.0359 Y-59.4302
G01 X114.0307 Y-59.4426
G01 X114.0262 Y-59.4552
G01 X114.0223 Y-59.4681
G01 X114.0182 Y-59.4847
G01 X114.0158 Y-59.4979
G01 X114.0140 Y-59.5112
G01 X114.0129 Y-59.5246
G01 X114.0126 Y-59.5476
G01 X114.0181 Y-59.6292
G01 X114.0205 Y-59.6507
G01 X114.0229 Y-59.6639
G01 X114.0259 Y-59.6770
G01 X114.0287 Y-59.6870
G01 X114.0328 Y-59.6998
G01 X114.0414 Y-59.7212
G01 X114.0459 Y-59.7306
G01 X114.0522 Y-59.7425
G01 X114.0607 Y-59.7565
G01 X114.0713 Y-59.7718
G01 X114.1164 Y-59.8320
G01 X114.1251 Y-59.8426
G01 X114.1331 Y-59.8514
G01 X114.1148 Y-59.8480
G01 X114.0774 Y-59.8427
G01 X114.0628 Y-59.8415
G01 X114.0265 Y-59.8400
G01 X112.5750 Y-59.8400
G01 X112.5372 Y-59.8415
G01 X112.5226 Y-59.8427
G01 X112.4815 Y-59.8485
G01 X112.4625 Y-59.8524
G01 X112.5167 Y-59.7918
G01 X112.5289 Y-59.7758
G01 X112.5399 Y-59.7589
G01 X112.5509 Y-59.7386
G01 X112.5565 Y-59.7264
G01 X112.5614 Y-59.7140
G01 X112.5658 Y-59.7013
G01 X112.5695 Y-59.6884
G01 X112.5725 Y-59.6753
G01 X112.5747 Y-59.6636
G01 X112.5862 Y-59.5932
G01 X112.5883 Y-59.5762
G01 X112.5893 Y-59.5598
G01 X112.5894 Y-59.5464
G01 X112.5888 Y-59.5330
G01 X112.5876 Y-59.5197
G01 X112.5850 Y-59.5027
G01 X112.5823 Y-59.4896
G01 X112.5789 Y-59.4766
G01 X112.5749 Y-59.4638
G01 X112.5677 Y-59.4450
G01 X112.5405 Y-59.3826
G00 Z1.0000
( ---------- cut-here ---------- )
G00 X112.0426 Y-58.0478
G01 F25.00
G01 Z-0.1000
G01 F70.00
G01 X112.1314 Y-57.8575
G01 X112.2519 Y-57.6854
G01 X112.4004 Y-57.5369
G01 X112.5466 Y-57.4344
G01 X112.5552 Y-57.4280
G01 X112.5606 Y-57.4234
G01 X112.5683 Y-57.4159
G01 X112.5755 Y-57.4080
G01 X112.6259 Y-57.3447
G01 X112.6340 Y-57.3322
G01 X112.6408 Y-57.3190
G01 X112.6463 Y-57.3051
G01 X112.6504 Y-57.2908
G01 X112.6525 Y-57.2798
G01 X112.6534 Y-57.2724
G01 X112.6610 Y-57.1992
G01 X112.6614 Y-57.1843
G01 X112.6607 Y-57.1732
G01 X112.6598 Y-57.1658
G01 X112.6570 Y-57.1512
G01 X112.6550 Y-57.1440
G01 X112.6513 Y-57.1334
G01 X112.6453 Y-57.1198
G01 X112.6121 Y-57.0542
G01 X112.6046 Y-57.0417
G01 X112.5959 Y-57.0300
G01 X112.5887 Y-57.0218
G01 X112.5808 Y-57.0142
G01 X112.5588 Y-56.9951
G01 X112.5498 Y-56.9878
G01 X112.4004 Y-56.8831
G01 X112.2519 Y-56.7346
G01 X112.1314 Y-56.5625
G01 X112.0426 Y-56.3722
G01 X111.9882 Y-56.1693
G01 X111.9699 Y-55.9600
G01 X111.9882 Y-55.7507
G01 X112.0426 Y-55.5478
G01 X112.1314 Y-55.3575
G01 X112.2519 Y-55.1854
G01 X112.4004 Y-55.0369
G01 X112.5725 Y-54.9164
G01 X112.7628 Y-54.8276
G01 X112.9657 Y-54.7732
G01 X113.1226 Y-54.7595
G01 X113.4774 Y-54.7595
G01 X113.5100 Y-54.7624
G01 X113.5207 Y-54.7629
G01 X113.5350 Y-54.7625
G01 X113.5456 Y-54.7612
G01 X113.6247 Y-54.7455
G01 X113.6352 Y-54.7427
G01 X113.6489 Y-54.7378
G01 X113.6621 Y-54.7316
G01 X113.6745 Y-54.7241
G01 X113.7105 Y-54.6979
G01 X113.7193 Y-54.6908
G01 X113.7276 Y-54.6831
G01 X118.7692 Y-49.6415
G01 X118.7765 Y-49.6337
G01 X118.7811 Y-49.6282
G01 X118.7854 Y-49.6225
G01 X118.7913 Y-49.6135
G01 X118.8283 Y-49.5460
G01 X118.8347 Y-49.5328
G01 X118.8387 Y-49.5225
G01 X118.8418 Y-49.5119
G01 X118.8442 Y-49.5011
G01 X118.8458 Y-49.4902
G01 X118.8486 Y-49.4638
G01 X118.8495 Y-49.4478
G01 X118.8495 Y-44.0337
G01 X118.8493 Y-44.0264
G01 X118.8478 Y-44.0048
G01 X118.8457 Y-43.9876
G01 X118.8489 Y-43.9497
G01 X118.8495 Y-43.9351
G01 X118.8527 Y-43.9068
G01 X118.8587 Y-43.8388
G01 X118.8820 Y-43.7749
G01 X118.9048 Y-43.7063
G01 X118.9446 Y-43.6455
G01 X118.9803 Y-43.5876
G01 X119.0331 Y-43.5377
G01 X119.3420 Y-43.2287
G01 X119.3469 Y-43.2236
G01 X119.3539 Y-43.2154
G01 X119.3602 Y-43.2068
G01 X119.3659 Y-43.1977
G01 X119.4011 Y-43.1332
G01 X119.4061 Y-43.1232
G01 X119.4103 Y-43.1129
G01 X119.4127 Y-43.1058
G01 X119.4156 Y-43.0951
G01 X119.4171 Y-43.0878
G01 X119.4190 Y-43.0730
G01 X119.4194 Y-43.0655
G01 X119.4193 Y-43.0544
G01 X119.4138 Y-42.9772
G01 X119.4128 Y-42.9698
G01 X119.4108 Y-42.9587
G01 X119.4079 Y-42.9479
G01 X119.4042 Y-42.9372
G01 X119.3998 Y-42.9269
G01 X119.3945 Y-42.9170
G01 X119.3602 Y-42.8632
G01 X119.3539 Y-42.8546
G01 X119.3445 Y-42.8438
G01 X117.8804 Y-41.3797
G01 X117.8752 Y-41.3746
G01 X117.8588 Y-41.3605
G01 X117.8451 Y-41.3498
G01 X117.8207 Y-41.3207
G01 X117.8107 Y-41.3099
G01 X117.7930 Y-41.2876
G01 X117.7491 Y-41.2353
G01 X117.7204 Y-41.1737
G01 X117.6879 Y-41.1087
G01 X117.6741 Y-41.0421
G01 X117.6575 Y-40.9714
G01 X117.6595 Y-40.8991
G01 X117.6595 Y-39.8152
G01 X117.6591 Y-39.8045
G01 X117.6584 Y-39.7974
G01 X117.6568 Y-39.7868
G01 X117.6544 Y-39.7764
G01 X117.6337 Y-39.7059
G01 X117.6290 Y-39.6924
G01 X117.6247 Y-39.6825
G01 X117.6214 Y-39.6761
G01 X117.6159 Y-39.6669
G01 X117.6075 Y-39.6552
G01 X117.6006 Y-39.6470
G01 X117.5674 Y-39.6110
G01 X117.5621 Y-39.6060
G01 X117.5538 Y-39.5990
G01 X117.3745 Y-39.4594
G01 X117.2282 Y-39.3006
G01 X117.2129 Y-39.2778
G01 X117.2085 Y-39.2722
G01 X117.2013 Y-39.2643
G01 X117.1909 Y-39.2545
G01 X117.1377 Y-39.2092
G01 X117.1290 Y-39.2022
G01 X117.1165 Y-39.1940
G01 X117.1033 Y-39.1871
G01 X117.0895 Y-39.1815
G01 X117.0824 Y-39.1793
G01 X117.0716 Y-39.1765
G01 X117.0606 Y-39.1746
G01 X116.9877 Y-39.1647
G01 X116.9728 Y-39.1638
G01 X116.9579 Y-39.1644
G01 X116.9468 Y-39.1658
G01 X116.9323 Y-39.1690
G01 X116.9216 Y-39.1723
G01 X116.9112 Y-39.1763
G01 X116.8378 Y-39.2107
G01 X116.8250 Y-39.2182
G01 X116.8131 Y-39.2270
G01 X116.8047 Y-39.2344
G01 X116.7969 Y-39.2423
G01 X116.7703 Y-39.2730
G01 X116.7622 Y-39.2838
G01 X116.7514 Y-39.3003
G01 X116.6052 Y-39.4591
G01 X116.4348 Y-39.5916
G01 X116.2450 Y-39.6944
G01 X116.1200 Y-39.7373
G01 X116.1200 Y-39.5241
G01 X116.1385 Y-39.5174
G01 X116.1486 Y-39.5131
G01 X116.2331 Y-39.4731
G01 X116.2461 Y-39.4662
G01 X116.3325 Y-39.4142
G01 X116.4136 Y-39.3543
G01 X116.4250 Y-39.3449
G01 X116.4996 Y-39.2771
G01 X116.5722 Y-39.1969
G01 X116.6367 Y-39.1100
G01 X116.6923 Y-39.0172
G01 X116.7356 Y-38.9261
G01 X116.7412 Y-38.9125
G01 X116.7750 Y-38.8175
G01 X116.8006 Y-38.7162
G01 X116.8026 Y-38.7053
G01 X116.8163 Y-38.6129
G01 X116.8175 Y-38.6019
G01 X116.8225 Y-38.5012
G01 X116.8225 Y-38.4025
G01 X116.8177 Y-38.3018
G01 X116.8163 Y-38.2871
G01 X116.8013 Y-38.1874
G01 X116.7770 Y-38.0896
G01 X116.7727 Y-38.0755
G01 X116.7386 Y-37.9806
G01 X116.6956 Y-37.8894
G01 X116.6905 Y-37.8796
G01 X116.6367 Y-37.7900
G01 X116.5722 Y-37.7031
G01 X116.4996 Y-37.6229
G01 X116.4222 Y-37.5526
G01 X116.4136 Y-37.5457
G01 X116.3325 Y-37.4858
G01 X116.2461 Y-37.4338
G01 X116.2331 Y-37.4269
G01 X116.1486 Y-37.3869
G01 X116.1385 Y-37.3826
G01 X116.1200 Y-37.3759
G01 X116.1200 Y-37.1627
G01 X116.2450 Y-37.2056
G01 X116.4348 Y-37.3084
G01 X116.6052 Y-37.4409
G01 X116.7514 Y-37.5997
G01 X116.7623 Y-37.6164
G01 X116.7687 Y-37.6250
G01 X116.7781 Y-37.6357
G01 X116.7885 Y-37.6455
G01 X116.8445 Y-37.6932
G01 X116.8504 Y-37.6978
G01 X116.8597 Y-37.7040
G01 X116.8661 Y-37.7078
G01 X116.8761 Y-37.7129
G01 X116.8899 Y-37.7185
G01 X116.9042 Y-37.7226
G01 X116.9188 Y-37.7254
G01 X116.9880 Y-37.7348
G01 X116.9992 Y-37.7359
G01 X117.0103 Y-37.7362
G01 X117.0178 Y-37.7359
G01 X117.0289 Y-37.7347
G01 X117.0362 Y-37.7335
G01 X117.0507 Y-37.7300
G01 X117.0578 Y-37.7278
G01 X117.0682 Y-37.7237
G01 X117.1349 Y-37.6926
G01 X117.1416 Y-37.6893
G01 X117.1512 Y-37.6838
G01 X117.1605 Y-37.6775
G01 X117.1692 Y-37.6706
G01 X117.1747 Y-37.6656
G01 X117.1825 Y-37.6577
G01 X117.2112 Y-37.6244
G01 X117.2172 Y-37.6162
G01 X117.2282 Y-37.5994
G01 X117.3745 Y-37.4406
G01 X117.5444 Y-37.3083
G01 X117.7340 Y-37.2056
G01 X117.9390 Y-37.1350
G01 X118.1520 Y-37.0995
G01 X118.3680 Y-37.0995
G01 X118.5810 Y-37.1350
G01 X118.7852 Y-37.2052
G01 X118.9751 Y-37.3079
G01 X119.1455 Y-37.4406
G01 X119.2918 Y-37.5994
G01 X119.4099 Y-37.7802
G01 X119.4966 Y-37.9780
G01 X119.5496 Y-38.1873
G01 X119.5630 Y-38.3486
G01 X119.5630 Y-38.5514
G01 X119.5496 Y-38.7127
G01 X119.4966 Y-38.9220
G01 X119.4099 Y-39.1198
G01 X119.2918 Y-39.3006
G01 X119.1455 Y-39.4594
G01 X118.9662 Y-39.5990
G01 X118.9580 Y-39.6059
G01 X118.9503 Y-39.6133
G01 X118.9432 Y-39.6213
G01 X118.9387 Y-39.6269
G01 X118.8937 Y-39.6894
G01 X118.8898 Y-39.6954
G01 X118.8845 Y-39.7048
G01 X118.8813 Y-39.7112
G01 X118.8772 Y-39.7212
G01 X118.8737 Y-39.7314
G01 X118.8703 Y-39.7453
G01 X118.8621 Y-39.7936
G01 X118.8612 Y-39.8008
G01 X118.8605 Y-39.8116
G01 X118.8605 Y-40.5478
G01 X118.8609 Y-40.5585
G01 X118.8616 Y-40.5656
G01 X118.8632 Y-40.5762
G01 X118.8647 Y-40.5831
G01 X118.8873 Y-40.6606
G01 X118.8911 Y-40.6710
G01 X118.8956 Y-40.6811
G01 X118.9027 Y-40.6939
G01 X118.9089 Y-40.7031
G01 X118.9326 Y-40.7327
G01 X118.9407 Y-40.7415
G01 X120.1938 Y-41.9945
G01 X120.2046 Y-42.0039
G01 X120.2132 Y-42.0102
G01 X120.2193 Y-42.0140
G01 X120.2900 Y-42.0528
G01 X120.3036 Y-42.0590
G01 X120.3142 Y-42.0627
G01 X120.3249 Y-42.0656
G01 X120.3359 Y-42.0677
G01 X120.3507 Y-42.0692
G01 X120.3656 Y-42.0693
G01 X120.4465 Y-42.0633
G01 X120.4613 Y-42.0608
G01 X120.4721 Y-42.0579
G01 X120.4828 Y-42.0542
G01 X120.4964 Y-42.0481
G01 X120.5094 Y-42.0406
G01 X120.5538 Y-42.0121
G01 X120.5626 Y-42.0060
G01 X120.5709 Y-41.9993
G01 X120.5787 Y-41.9920
G01 X120.6329 Y-41.9378
G01 X120.6519 Y-41.9160
G01 X120.6602 Y-41.9051
G01 X120.6893 Y-41.8807
G01 X120.7001 Y-41.8707
G01 X120.7224 Y-41.8530
G01 X120.7747 Y-41.8091
G01 X120.8363 Y-41.7804
G01 X120.9013 Y-41.7479
G01 X120.9679 Y-41.7341
G01 X121.0383 Y-41.7175
G01 X121.0617 Y-41.7152
G01 X121.0762 Y-41.7125
G01 X121.0903 Y-41.7084
G01 X121.1023 Y-41.7037
G01 X121.1442 Y-41.6925
G01 X121.1547 Y-41.6888
G01 X121.1648 Y-41.6843
G01 X121.1746 Y-41.6790
G01 X121.1840 Y-41.6731
G01 X121.2181 Y-41.6471
G01 X121.2998 Y-41.5695
G01 X121.4525 Y-41.4713
G01 X121.6211 Y-41.4038
G01 X121.6369 Y-41.3997
G01 X121.6437 Y-41.3974
G01 X121.6536 Y-41.3933
G01 X121.7285 Y-41.3546
G01 X121.7378 Y-41.3488
G01 X121.7437 Y-41.3445
G01 X121.7494 Y-41.3400
G01 X121.7576 Y-41.3327
G01 X121.7676 Y-41.3220
G01 X121.7946 Y-41.2885
G01 X121.8010 Y-41.2789
G01 X121.8205 Y-41.2474
G01 X121.8731 Y-41.1977
G01 X123.6193 Y-39.4514
G01 X123.6289 Y-39.4409
G01 X123.6375 Y-39.4294
G01 X123.6432 Y-39.4204
G01 X123.6817 Y-39.3494
G01 X123.6861 Y-39.3395
G01 X123.6909 Y-39.3257
G01 X123.6935 Y-39.3151
G01 X123.6954 Y-39.3044
G01 X123.6965 Y-39.2935
G01 X123.6988 Y-39.2564
G01 X123.6990 Y-39.2413
G01 X123.6851 Y-39.0800
G01 X123.7026 Y-38.8795
G01 X123.7548 Y-38.6850
G01 X123.8398 Y-38.5026
G01 X123.9553 Y-38.3376
G01 X124.0976 Y-38.1953
G01 X124.2626 Y-38.0798
G01 X124.4470 Y-37.9938
G01 X124.4538 Y-37.9913
G01 X124.4636 Y-37.9870
G01 X124.4730 Y-37.9820
G01 X124.5001 Y-37.9663
G01 X124.5642 Y-37.9891
G01 X124.6547 Y-38.0117
G01 X124.7469 Y-38.0254
G01 X124.8400 Y-38.0300
G01 X124.9331 Y-38.0254
G01 X125.0253 Y-38.0117
G01 X125.1158 Y-37.9891
G01 X125.1799 Y-37.9663
G01 X125.2070 Y-37.9820
G01 X125.2164 Y-37.9870
G01 X125.2262 Y-37.9913
G01 X125.2330 Y-37.9938
G01 X125.4174 Y-38.0798
G01 X125.5824 Y-38.1953
G01 X125.7247 Y-38.3376
G01 X125.7465 Y-38.3684
G01 X125.7533 Y-38.3766
G01 X125.7607 Y-38.3844
G01 X125.7714 Y-38.3938
G01 X125.8260 Y-38.4374
G01 X125.8377 Y-38.4459
G01 X125.8501 Y-38.4531
G01 X125.8598 Y-38.4578
G01 X125.8699 Y-38.4617
G01 X125.8802 Y-38.4650
G01 X125.8907 Y-38.4674
G01 X125.9413 Y-38.4773
G01 X125.9521 Y-38.4788
G01 X125.9630 Y-38.4795
G01 X150.2663 Y-38.4795
G01 X150.2736 Y-38.4793
G01 X150.2952 Y-38.4778
G01 X150.3124 Y-38.4757
G01 X150.3503 Y-38.4789
G01 X150.3649 Y-38.4795
G01 X150.3932 Y-38.4827
G01 X150.4612 Y-38.4887
G01 X150.5251 Y-38.5120
G01 X150.5940 Y-38.5349
G01 X150.6509 Y-38.5723
G01 X150.7126 Y-38.6105
G01 X150.7623 Y-38.6631
G01 X154.0864 Y-41.9872
G01 X154.0942 Y-41.9945
G01 X154.0998 Y-41.9990
G01 X154.1084 Y-42.0053
G01 X154.1175 Y-42.0110
G01 X154.1819 Y-42.0462
G01 X154.1920 Y-42.0513
G01 X154.2059 Y-42.0568
G01 X154.2167 Y-42.0599
G01 X154.2314 Y-42.0629
G01 X154.2464 Y-42.0644
G01 X154.3004 Y-42.0657
G01 X154.3111 Y-42.0654
G01 X154.3182 Y-42.0647
G01 X154.5002 Y-42.0345
G01 X154.7198 Y-42.0345
G01 X154.9365 Y-42.0707
G01 X155.1443 Y-42.1420
G01 X155.3375 Y-42.2465
G01 X155.5108 Y-42.3815
G01 X155.6596 Y-42.5431
G01 X155.7797 Y-42.7270
G01 X155.8680 Y-42.9281
G01 X155.9219 Y-43.1411
G01 X155.9400 Y-43.3600
G01 X155.9219 Y-43.5789
G01 X155.8680 Y-43.7919
G01 X155.7797 Y-43.9930
G01 X155.6596 Y-44.1769
G01 X155.5108 Y-44.3385
G01 X155.3322 Y-44.4775
G01 X155.3231 Y-44.4843
G01 X155.3123 Y-44.4937
G01 X155.3026 Y-44.5041
G01 X155.2525 Y-44.5631
G01 X155.2440 Y-44.5753
G01 X155.2368 Y-44.5883
G01 X155.2309 Y-44.6019
G01 X155.2284 Y-44.6090
G01 X155.2254 Y-44.6197
G01 X155.2131 Y-44.6774
G01 X155.2112 Y-44.6913
G01 X155.2105 Y-44.7053
G01 X155.2105 Y-49.6763
G01 X155.2107 Y-49.6836
G01 X155.2122 Y-49.7052
G01 X155.2143 Y-49.7224
G01 X155.2111 Y-49.7603
G01 X155.2105 Y-49.7749
G01 X155.2073 Y-49.8032
G01 X155.2013 Y-49.8709
G01 X155.1766 Y-49.9393
G01 X155.1551 Y-50.0041
G01 X155.1177 Y-50.0609
G01 X155.0795 Y-50.1226
G01 X155.0269 Y-50.1723
G01 X154.5058 Y-50.6937
G01 X154.4989 Y-50.7018
G01 X154.4946 Y-50.7075
G01 X154.4906 Y-50.7135
G01 X154.4852 Y-50.7227
G01 X154.4500 Y-50.7872
G01 X154.4439 Y-50.8006
G01 X154.4391 Y-50.8146
G01 X154.4365 Y-50.8253
G01 X154.4346 Y-50.8362
G01 X154.4310 Y-50.8702
G01 X154.4305 Y-50.8822
G01 X154.4305 Y-52.5098
G01 X154.4270 Y-52.5427
G01 X154.3908 Y-52.6397
G01 X154.3304 Y-52.7204
G01 X154.2497 Y-52.7808
G01 X154.1527 Y-52.8170
G01 X154.1198 Y-52.8205
G01 X151.8402 Y-52.8205
G01 X151.8073 Y-52.8170
G01 X151.7103 Y-52.7808
G01 X151.6296 Y-52.7204
G01 X151.5692 Y-52.6397
G01 X151.5330 Y-52.5427
G01 X151.5295 Y-52.5098
G01 X151.5295 Y-50.2302
G01 X151.5330 Y-50.1973
G01 X151.5692 Y-50.1003
G01 X151.6296 Y-50.0196
G01 X151.7103 Y-49.9592
G01 X151.8073 Y-49.9230
G01 X151.8402 Y-49.9195
G01 X153.4678 Y-49.9195
G01 X153.4749 Y-49.9193
G01 X153.4856 Y-49.9184
G01 X153.4962 Y-49.9168
G01 X153.5066 Y-49.9144
G01 X153.5806 Y-49.8927
G01 X153.5910 Y-49.8889
G01 X153.5977 Y-49.8860
G01 X153.6108 Y-49.8792
G01 X153.6231 Y-49.8711
G01 X153.6496 Y-49.8500
G01 X153.6586 Y-49.8420
G01 X153.9292 Y-49.5715
G01 X153.9365 Y-49.5637
G01 X153.9454 Y-49.5525
G01 X153.9531 Y-49.5405
G01 X153.9883 Y-49.4760
G01 X153.9917 Y-49.4695
G01 X153.9961 Y-49.4594
G01 X153.9998 Y-49.4490
G01 X154.0018 Y-49.4419
G01 X154.0042 Y-49.4311
G01 X154.0058 Y-49.4202
G01 X154.0090 Y-49.3898
G01 X154.0095 Y-49.3778
G01 X154.0095 Y-44.7053
G01 X154.0091 Y-44.6946
G01 X154.0080 Y-44.6840
G01 X154.0061 Y-44.6734
G01 X154.0034 Y-44.6631
G01 X153.9837 Y-44.5960
G01 X153.9802 Y-44.5854
G01 X153.9759 Y-44.5751
G01 X153.9690 Y-44.5620
G01 X153.9608 Y-44.5496
G01 X153.9514 Y-44.5380
G01 X153.9098 Y-44.4958
G01 X153.8995 Y-44.4864
G01 X153.7092 Y-44.3385
G01 X153.5604 Y-44.1769
G01 X153.4403 Y-43.9930
G01 X153.3520 Y-43.7919
G01 X153.2981 Y-43.5789
G01 X153.2800 Y-43.3600
G01 X153.2981 Y-43.1411
G01 X153.3100 Y-43.0940
G01 X153.3120 Y-43.0835
G01 X153.3132 Y-43.0729
G01 X153.3136 Y-43.0658
G01 X153.3136 Y-43.0550
G01 X153.3110 Y-42.9852
G01 X153.3102 Y-42.9742
G01 X153.3085 Y-42.9632
G01 X153.3051 Y-42.9489
G01 X153.3016 Y-42.9384
G01 X153.2958 Y-42.9248
G01 X153.2886 Y-42.9119
G01 X153.2587 Y-42.8636
G01 X153.2500 Y-42.8510
G01 X153.2426 Y-42.8421
G01 X153.2373 Y-42.8365
G01 X150.1615 Y-39.7608
G01 X150.1537 Y-39.7535
G01 X150.1482 Y-39.7489
G01 X150.1425 Y-39.7446
G01 X150.1335 Y-39.7387
G01 X150.0628 Y-39.7000
G01 X150.0561 Y-39.6968
G01 X150.0459 Y-39.6926
G01 X150.0354 Y-39.6891
G01 X150.0247 Y-39.6865
G01 X150.0138 Y-39.6846
G01 X149.9838 Y-39.6814
G01 X149.9678 Y-39.6805
G01 X125.9667 Y-39.6805
G01 X125.9560 Y-39.6809
G01 X125.9489 Y-39.6816
G01 X125.9418 Y-39.6826
G01 X125.9313 Y-39.6847
G01 X125.8505 Y-39.7085
G01 X125.8438 Y-39.7110
G01 X125.8339 Y-39.7154
G01 X125.8213 Y-39.7223
G01 X125.8152 Y-39.7262
G01 X125.8065 Y-39.7326
G01 X125.7957 Y-39.7420
G01 X125.7611 Y-39.7752
G01 X125.7535 Y-39.7831
G01 X125.7443 Y-39.7944
G01 X125.7247 Y-39.8224
G01 X125.5824 Y-39.9647
G01 X125.4174 Y-40.0802
G01 X125.2350 Y-40.1652
G01 X125.0406 Y-40.2173
G01 X124.8400 Y-40.2349
G01 X124.6862 Y-40.2214
G01 X124.6755 Y-40.2209
G01 X124.6612 Y-40.2213
G01 X124.6506 Y-40.2226
G01 X124.6436 Y-40.2238
G01 X124.5751 Y-40.2376
G01 X124.5645 Y-40.2401
G01 X124.5541 Y-40.2434
G01 X124.5406 Y-40.2490
G01 X124.5310 Y-40.2540
G01 X124.5217 Y-40.2597
G01 X124.4827 Y-40.2882
G01 X124.4769 Y-40.2930
G01 X124.4686 Y-40.3007
G01 X123.4324 Y-41.3368
G01 X123.4251 Y-41.3446
G01 X123.4184 Y-41.3530
G01 X123.4143 Y-41.3588
G01 X123.4086 Y-41.3679
G01 X123.3716 Y-41.4356
G01 X123.3669 Y-41.4457
G01 X123.3641 Y-41.4526
G01 X123.3607 Y-41.4633
G01 X123.3589 Y-41.4705
G01 X123.3574 Y-41.4778
G01 X123.3558 Y-41.4889
G01 X123.3551 Y-41.5000
G01 X123.3551 Y-41.5074
G01 X123.3604 Y-41.5846
G01 X123.3611 Y-41.5919
G01 X123.3628 Y-41.6027
G01 X123.3653 Y-41.6134
G01 X123.3674 Y-41.6204
G01 X123.3699 Y-41.6274
G01 X123.3741 Y-41.6375
G01 X123.3810 Y-41.6504
G01 X123.4035 Y-41.6883
G01 X123.4097 Y-41.6979
G01 X123.4166 Y-41.7071
G01 X123.4678 Y-41.7662
G01 X123.5585 Y-41.9233
G01 X123.6179 Y-42.0949
G01 X123.6437 Y-42.2746
G01 X123.6351 Y-42.4559
G01 X123.5923 Y-42.6323
G01 X123.5169 Y-42.7974
G01 X123.4116 Y-42.9453
G01 X123.2802 Y-43.0705
G01 X123.1275 Y-43.1687
G01 X122.9590 Y-43.2361
G01 X122.7808 Y-43.2705
G01 X121.8447 Y-43.2705
G01 X121.7093 Y-43.2576
G01 X121.5351 Y-43.2064
G01 X121.3981 Y-43.1358
G01 X121.3883 Y-43.1315
G01 X121.3748 Y-43.1268
G01 X121.3610 Y-43.1235
G01 X121.2923 Y-43.1103
G01 X121.2813 Y-43.1085
G01 X121.2739 Y-43.1079
G01 X121.2590 Y-43.1076
G01 X121.2442 Y-43.1089
G01 X121.2295 Y-43.1116
G01 X121.2152 Y-43.1157
G01 X121.1433 Y-43.1443
G01 X121.1299 Y-43.1504
G01 X121.1171 Y-43.1579
G01 X121.1081 Y-43.1643
G01 X121.0995 Y-43.1713
G01 X121.0852 Y-43.1841
G01 X120.8263 Y-43.4429
G01 X120.8179 Y-43.4519
G01 X120.7864 Y-43.4872
G01 X120.7652 Y-43.5049
G01 X120.7555 Y-43.5137
G01 X120.1308 Y-44.1385
G01 X120.1212 Y-44.1490
G01 X120.1126 Y-44.1605
G01 X120.1052 Y-44.1727
G01 X120.0717 Y-44.2340
G01 X120.0668 Y-44.2439
G01 X120.0626 Y-44.2541
G01 X120.0582 Y-44.2681
G01 X120.0552 Y-44.2825
G01 X120.0514 Y-44.3162
G01 X120.0506 Y-44.3282
G01 X120.0505 Y-49.7463
G01 X120.0507 Y-49.7536
G01 X120.0522 Y-49.7752
G01 X120.0543 Y-49.7924
G01 X120.0511 Y-49.8303
G01 X120.0505 Y-49.8449
G01 X120.0473 Y-49.8732
G01 X120.0413 Y-49.9409
G01 X120.0166 Y-50.0092
G01 X119.9951 Y-50.0741
G01 X119.9577 Y-50.1309
G01 X119.9195 Y-50.1926
G01 X119.8669 Y-50.2423
G01 X114.6701 Y-55.4391
G01 X114.6628 Y-55.4470
G01 X114.6540 Y-55.4582
G01 X114.6463 Y-55.4702
G01 X114.6076 Y-55.5413
G01 X114.6018 Y-55.5550
G01 X114.5983 Y-55.5657
G01 X114.5957 Y-55.5766
G01 X114.5939 Y-55.5877
G01 X114.5929 Y-55.5989
G01 X114.5927 Y-55.6063
G01 X114.5941 Y-55.6685
G01 X114.5948 Y-55.6792
G01 X114.5962 Y-55.6898
G01 X114.5983 Y-55.7003
G01 X114.6118 Y-55.7507
G01 X114.6301 Y-55.9600
G01 X114.6118 Y-56.1693
G01 X114.5574 Y-56.3722
G01 X114.4686 Y-56.5625
G01 X114.3481 Y-56.7346
G01 X114.1996 Y-56.8831
G01 X114.0505 Y-56.9876
G01 X114.0421 Y-56.9943
G01 X114.0317 Y-57.0041
G01 X114.0222 Y-57.0148
G01 X113.9786 Y-57.0693
G01 X113.9720 Y-57.0783
G01 X113.9660 Y-57.0878
G01 X113.9592 Y-57.1010
G01 X113.9549 Y-57.1114
G01 X113.9526 Y-57.1184
G01 X113.9488 Y-57.1328
G01 X113.9466 Y-57.1476
G01 X113.9394 Y-57.2171
G01 X113.9386 Y-57.2282
G01 X113.9387 Y-57.2394
G01 X113.9393 Y-57.2468
G01 X113.9407 Y-57.2579
G01 X113.9422 Y-57.2652
G01 X113.9462 Y-57.2795
G01 X113.9501 Y-57.2900
G01 X113.9531 Y-57.2968
G01 X113.9879 Y-57.3658
G01 X113.9934 Y-57.3752
G01 X114.0018 Y-57.3871
G01 X114.0113 Y-57.3982
G01 X114.0192 Y-57.4058
G01 X114.0412 Y-57.4249
G01 X114.0502 Y-57.4322
G01 X114.1996 Y-57.5369
G01 X114.3481 Y-57.6854
G01 X114.3903 Y-57.7456
G01 X114.3970 Y-57.7540
G01 X114.4042 Y-57.7618
G01 X114.4147 Y-57.7715
G01 X114.4720 Y-57.8174
G01 X114.4807 Y-57.8239
G01 X114.4867 Y-57.8278
G01 X114.4961 Y-57.8331
G01 X114.5059 Y-57.8378
G01 X114.5159 Y-57.8417
G01 X114.5262 Y-57.8450
G01 X114.5367 Y-57.8474
G01 X114.5837 Y-57.8567
G01 X114.5945 Y-57.8584
G01 X114.6018 Y-57.8591
G01 X114.6127 Y-57.8595
G01 X114.8463 Y-57.8595
G01 X114.8536 Y-57.8593
G01 X114.8752 Y-57.8578
G01 X114.8924 Y-57.8557
G01 X114.9303 Y-57.8589
G01 X114.9449 Y-57.8595
G01 X114.9732 Y-57.8627
G01 X115.0409 Y-57.8687
G01 X115.1092 Y-57.8934
G01 X115.1740 Y-57.9149
G01 X115.2309 Y-57.9523
G01 X115.2926 Y-57.9905
G01 X115.3423 Y-58.0431
G01 X118.0586 Y-60.7594
G01 X118.0664 Y-60.7666
G01 X118.0748 Y-60.7734
G01 X118.0836 Y-60.7795
G01 X118.0897 Y-60.7832
G01 X118.1606 Y-60.8218
G01 X118.1705 Y-60.8261
G01 X118.1808 Y-60.8298
G01 X118.1913 Y-60.8327
G01 X118.2020 Y-60.8348
G01 X118.2128 Y-60.8362
G01 X118.2536 Y-60.8388
G01 X118.2687 Y-60.8390
G01 X118.4300 Y-60.8251
G01 X118.6305 Y-60.8427
G01 X118.8250 Y-60.8948
G01 X119.0074 Y-60.9798
G01 X119.1724 Y-61.0953
G01 X119.3147 Y-61.2376
G01 X119.3322 Y-61.2627
G01 X119.3387 Y-61.2712
G01 X119.3482 Y-61.2818
G01 X119.3560 Y-61.2892
G01 X119.4160 Y-61.3374
G01 X119.4277 Y-61.3459
G01 X119.4401 Y-61.3531
G01 X119.4531 Y-61.3592
G01 X119.4633 Y-61.3629
G01 X119.4772 Y-61.3667
G01 X119.5313 Y-61.3773
G01 X119.5457 Y-61.3791
G01 X119.5567 Y-61.3795
G01 X121.1913 Y-61.3795
G01 X121.1984 Y-61.3791
G01 X121.2091 Y-61.3780
G01 X121.2196 Y-61.3761
G01 X121.2265 Y-61.3744
G01 X121.2970 Y-61.3537
G01 X121.3111 Y-61.3488
G01 X121.3246 Y-61.3426
G01 X121.3343 Y-61.3370
G01 X121.3405 Y-61.3329
G01 X121.3494 Y-61.3262
G01 X121.3551 Y-61.3213
G01 X121.3656 Y-61.3108
G01 X121.4139 Y-61.2552
G01 X121.4231 Y-61.2435
G01 X121.4292 Y-61.2342
G01 X121.4345 Y-61.2244
G01 X121.4406 Y-61.2107
G01 X121.4442 Y-61.2002
G01 X121.4470 Y-61.1894
G01 X121.4490 Y-61.1784
G01 X121.4589 Y-61.1092
G01 X121.4603 Y-61.0944
G01 X121.4602 Y-61.0795
G01 X121.4586 Y-61.0647
G01 X121.4556 Y-61.0501
G01 X121.4512 Y-61.0359
G01 X121.4469 Y-61.0255
G01 X121.4148 Y-60.9556
G01 X121.4113 Y-60.9493
G01 X121.4056 Y-60.9402
G01 X121.4015 Y-60.9344
G01 X121.3948 Y-60.9261
G01 X121.3849 Y-60.9157
G01 X121.3679 Y-60.8995
G01 X121.3599 Y-60.8924
G01 X121.2311 Y-60.7910
G01 X121.1122 Y-60.6538
G01 X121.0215 Y-60.4967
G01 X120.9621 Y-60.3251
G01 X120.9363 Y-60.1454
G01 X120.9449 Y-59.9641
G01 X120.9877 Y-59.7877
G01 X121.0631 Y-59.6226
G01 X121.1684 Y-59.4747
G01 X121.2998 Y-59.3495
G01 X121.4525 Y-59.2513
G01 X121.6210 Y-59.1839
G01 X121.7992 Y-59.1495
G01 X122.7353 Y-59.1495
G01 X122.8707 Y-59.1624
G01 X123.0449 Y-59.2136
G01 X123.2062 Y-59.2968
G01 X123.3489 Y-59.4090
G01 X123.4678 Y-59.5461
G01 X123.5585 Y-59.7033
G01 X123.6179 Y-59.8749
G01 X123.6437 Y-60.0546
G01 X123.6351 Y-60.2359
G01 X123.5923 Y-60.4123
G01 X123.5169 Y-60.5774
G01 X123.4116 Y-60.7253
G01 X123.2802 Y-60.8505
G01 X123.1275 Y-60.9487
G01 X122.9590 Y-61.0161
G01 X122.7808 Y-61.0505
G01 X122.2138 Y-61.0505
G01 X122.2031 Y-61.0509
G01 X122.1890 Y-61.0526
G01 X122.1785 Y-61.0547
G01 X122.1716 Y-61.0566
G01 X122.1010 Y-61.0774
G01 X122.0905 Y-61.0812
G01 X122.0803 Y-61.0857
G01 X122.0673 Y-61.0930
G01 X122.0580 Y-61.0993
G01 X122.0493 Y-61.1062
G01 X122.0385 Y-61.1164
G01 X121.9853 Y-61.1776
G01 X121.9764 Y-61.1896
G01 X121.9687 Y-61.2023
G01 X121.9638 Y-61.2124
G01 X121.9597 Y-61.2228
G01 X121.9564 Y-61.2334
G01 X121.9538 Y-61.2443
G01 X121.9421 Y-61.3245
G01 X121.9412 Y-61.3356
G01 X121.9413 Y-61.3505
G01 X121.9424 Y-61.3616
G01 X121.9450 Y-61.3763
G01 X121.9480 Y-61.3871
G01 X121.9531 Y-61.4011
G01 X121.9870 Y-61.4749
G01 X121.9948 Y-61.4881
G01 X121.9992 Y-61.4944
G01 X122.0063 Y-61.5034
G01 X122.0623 Y-61.5631
G01 X122.1085 Y-61.6092
G01 X122.1190 Y-61.6189
G01 X122.1305 Y-61.6274
G01 X122.1396 Y-61.6331
G01 X122.2105 Y-61.6717
G01 X122.2172 Y-61.6747
G01 X122.2276 Y-61.6787
G01 X122.2381 Y-61.6818
G01 X122.2453 Y-61.6835
G01 X122.2598 Y-61.6858
G01 X122.2942 Y-61.6893
G01 X122.7353 Y-61.6895
G01 X122.8707 Y-61.7024
G01 X123.0449 Y-61.7536
G01 X123.2062 Y-61.8368
G01 X123.3489 Y-61.9490
G01 X123.4678 Y-62.0861
G01 X123.5585 Y-62.2434
G01 X123.6179 Y-62.4149
G01 X123.6437 Y-62.5946
G01 X123.6351 Y-62.7759
G01 X123.5923 Y-62.9523
G01 X123.5169 Y-63.1174
G01 X123.4116 Y-63.2653
G01 X123.2802 Y-63.3905
G01 X123.1275 Y-63.4887
G01 X122.9590 Y-63.5561
G01 X122.7808 Y-63.5905
G01 X121.8447 Y-63.5905
G01 X121.7093 Y-63.5776
G01 X121.5351 Y-63.5264
G01 X121.3738 Y-63.4432
G01 X121.2311 Y-63.3310
G01 X121.1122 Y-63.1938
G01 X121.0215 Y-63.0367
G01 X120.9621 Y-62.8651
G01 X120.9544 Y-62.8120
G01 X120.9514 Y-62.7980
G01 X120.9482 Y-62.7878
G01 X120.9429 Y-62.7745
G01 X120.9123 Y-62.7076
G01 X120.9071 Y-62.6978
G01 X120.8989 Y-62.6853
G01 X120.8920 Y-62.6765
G01 X120.8845 Y-62.6682
G01 X120.8764 Y-62.6605
G01 X120.8677 Y-62.6535
G01 X120.8586 Y-62.6471
G01 X120.7998 Y-62.6093
G01 X120.7867 Y-62.6018
G01 X120.7764 Y-62.5971
G01 X120.7693 Y-62.5943
G01 X120.7622 Y-62.5920
G01 X120.7512 Y-62.5891
G01 X120.7400 Y-62.5870
G01 X120.7051 Y-62.5820
G01 X120.6909 Y-62.5807
G01 X119.5567 Y-62.5805
G01 X119.5460 Y-62.5809
G01 X119.5353 Y-62.5820
G01 X119.5283 Y-62.5832
G01 X119.5178 Y-62.5856
G01 X119.4474 Y-62.6063
G01 X119.4371 Y-62.6097
G01 X119.4271 Y-62.6138
G01 X119.4175 Y-62.6187
G01 X119.4052 Y-62.6262
G01 X119.3965 Y-62.6326
G01 X119.3857 Y-62.6420
G01 X119.3511 Y-62.6752
G01 X119.3435 Y-62.6831
G01 X119.3343 Y-62.6944
G01 X119.3147 Y-62.7224
G01 X119.1724 Y-62.8647
G01 X119.0074 Y-62.9802
G01 X118.8250 Y-63.0652
G01 X118.6306 Y-63.1173
G01 X118.4300 Y-63.1349
G01 X118.2295 Y-63.1174
G01 X118.0350 Y-63.0652
G01 X117.8526 Y-62.9802
G01 X117.6876 Y-62.8647
G01 X117.5453 Y-62.7224
G01 X117.4298 Y-62.5574
G01 X117.3448 Y-62.3750
G01 X117.2927 Y-62.1806
G01 X117.2751 Y-61.9800
G01 X117.2888 Y-61.8227
G01 X117.2891 Y-61.8119
G01 X117.2889 Y-61.8048
G01 X117.2879 Y-61.7941
G01 X117.2868 Y-61.7871
G01 X117.2717 Y-61.7115
G01 X117.2689 Y-61.7010
G01 X117.2640 Y-61.6873
G01 X117.2578 Y-61.6741
G01 X117.2503 Y-61.6617
G01 X117.2195 Y-61.6198
G01 X117.2093 Y-61.6086
G01 X114.7797 Y-59.1789
G01 X114.7719 Y-59.1716
G01 X114.7635 Y-59.1649
G01 X114.7547 Y-59.1588
G01 X114.7455 Y-59.1534
G01 X114.6776 Y-59.1165
G01 X114.6673 Y-59.1120
G01 X114.6604 Y-59.1094
G01 X114.6460 Y-59.1054
G01 X114.6350 Y-59.1033
G01 X114.6277 Y-59.1023
G01 X114.6165 Y-59.1016
G01 X114.6053 Y-59.1017
G01 X114.5282 Y-59.1072
G01 X114.5135 Y-59.1094
G01 X114.4990 Y-59.1130
G01 X114.4885 Y-59.1166
G01 X114.4816 Y-59.1195
G01 X114.4716 Y-59.1244
G01 X114.4619 Y-59.1301
G01 X114.4527 Y-59.1364
G01 X114.3909 Y-59.1830
G01 X114.3798 Y-59.1932
G01 X114.3722 Y-59.2015
G01 X114.3652 Y-59.2104
G01 X114.3481 Y-59.2346
G01 X114.2099 Y-59.3729
G01 X114.2026 Y-59.3807
G01 X114.1937 Y-59.3920
G01 X114.1897 Y-59.3979
G01 X114.1843 Y-59.4071
G01 X114.1508 Y-59.4684
G01 X114.1443 Y-59.4818
G01 X114.1392 Y-59.4958
G01 X114.1355 Y-59.5102
G01 X114.1332 Y-59.5249
G01 X114.1324 Y-59.5398
G01 X114.1328 Y-59.5510
G01 X114.1385 Y-59.6281
G01 X114.1403 Y-59.6391
G01 X114.1419 Y-59.6464
G01 X114.1462 Y-59.6607
G01 X114.1504 Y-59.6710
G01 X114.1536 Y-59.6777
G01 X114.1571 Y-59.6843
G01 X114.1630 Y-59.6938
G01 X114.2115 Y-59.7588
G01 X114.2190 Y-59.7675
G01 X114.2299 Y-59.7782
G01 X114.2387 Y-59.7855
G01 X114.2541 Y-59.7962
G01 X114.3997 Y-59.8861
G01 X114.4989 Y-59.9853
G01 X114.5725 Y-60.1047
G01 X114.6170 Y-60.2389
G01 X114.6250 Y-60.3177
G01 X114.6250 Y-60.5600
G01 X114.4250 Y-60.5600
G01 X114.4250 Y-60.3600
G01 X114.4236 Y-60.3281
G01 X114.4227 Y-60.3171
G01 X114.4173 Y-60.2820
G01 X114.4078 Y-60.2439
G01 X114.3946 Y-60.2069
G01 X114.3811 Y-60.1780
G01 X114.3741 Y-60.1650
G01 X114.3576 Y-60.1378
G01 X114.3342 Y-60.1062
G01 X114.3078 Y-60.0772
G01 X114.2788 Y-60.0508
G01 X114.2472 Y-60.0274
G01 X114.2136 Y-60.0072
G01 X114.1781 Y-59.9904
G01 X114.1411 Y-59.9772
G01 X114.1030 Y-59.9677
G01 X114.0715 Y-59.9628
G01 X114.0569 Y-59.9614
G01 X114.0250 Y-59.9600
G01 X112.5750 Y-59.9600
G01 X112.5358 Y-59.9619
G01 X112.5042 Y-59.9664
G01 X112.4898 Y-59.9693
G01 X112.4589 Y-59.9772
G01 X112.4288 Y-59.9878
G01 X112.4152 Y-59.9934
G01 X112.3864 Y-60.0072
G01 X112.3590 Y-60.0235
G01 X112.3468 Y-60.0317
G01 X112.3212 Y-60.0508
G01 X112.2975 Y-60.0721
G01 X112.2871 Y-60.0825
G01 X112.2658 Y-60.1062
G01 X112.2424 Y-60.1378
G01 X112.2222 Y-60.1714
G01 X112.2054 Y-60.2069
G01 X112.1922 Y-60.2439
G01 X112.1843 Y-60.2748
G01 X112.1814 Y-60.2892
G01 X112.1769 Y-60.3208
G01 X112.1750 Y-60.3563
G01 X112.1750 Y-60.5600
G01 X111.9750 Y-60.5600
G01 X111.9750 Y-60.3177
G01 X111.9830 Y-60.2389
G01 X112.0275 Y-60.1047
G01 X112.1011 Y-59.9853
G01 X112.2003 Y-59.8861
G01 X112.3402 Y-59.7999
G01 X112.3520 Y-59.7918
G01 X112.3630 Y-59.7826
G01 X112.3706 Y-59.7751
G01 X112.4246 Y-59.7149
G01 X112.4334 Y-59.7029
G01 X112.4410 Y-59.6901
G01 X112.4472 Y-59.6765
G01 X112.4521 Y-59.6625
G01 X112.4556 Y-59.6480
G01 X112.4675 Y-59.5754
G01 X112.4689 Y-59.5643
G01 X112.4693 Y-59.5568
G01 X112.4691 Y-59.5420
G01 X112.4675 Y-59.5271
G01 X112.4653 Y-59.5162
G01 X112.4611 Y-59.5019
G01 X112.4570 Y-59.4915
G01 X112.4276 Y-59.4239
G01 X112.4224 Y-59.4138
G01 X112.4185 Y-59.4072
G01 X112.4143 Y-59.4009
G01 X112.4073 Y-59.3918
G01 X112.3925 Y-59.3753
G01 X112.2518 Y-59.2346
G01 X112.1314 Y-59.0625
G01 X112.0432 Y-58.8734
G01 X111.9882 Y-58.6692
G01 X111.9699 Y-58.4600
G01 X111.9882 Y-58.2507
G01 X112.0426 Y-58.0478
G01 X112.8968 Y-57.2524
G01 X112.8996 Y-57.2247
G01 X112.9009 Y-57.2069
G01 X112.9014 Y-57.1875
G01 X112.9009 Y-57.1686
G01 X112.9266 Y-57.1748
G01 X112.9490 Y-57.1790
G01 X113.0410 Y-57.1926
G01 X113.0549 Y-57.1942
G01 X113.0696 Y-57.1953
G01 X113.1684 Y-57.1999
G01 X113.4250 Y-57.2000
G01 X113.4434 Y-57.1996
G01 X113.5275 Y-57.1954
G01 X113.5531 Y-57.1933
G01 X113.6560 Y-57.1782
G01 X113.6777 Y-57.1739
G01 X113.7032 Y-57.1676
G01 X113.7004 Y-57.1953
G01 X113.6991 Y-57.2131
G01 X113.6986 Y-57.2325
G01 X113.6990 Y-57.2514
G01 X113.6734 Y-57.2452
G01 X113.6510 Y-57.2410
G01 X113.5590 Y-57.2274
G01 X113.5451 Y-57.2258
G01 X113.5304 Y-57.2247
G01 X113.4316 Y-57.2201
G01 X113.1750 Y-57.2200
G01 X113.1566 Y-57.2204
G01 X113.0725 Y-57.2246
G01 X113.0469 Y-57.2267
G01 X112.9440 Y-57.2418
G01 X112.9223 Y-57.2461
G01 X112.8968 Y-57.2524
G01 X113.0843 Y-57.4643
G01 X113.0697 Y-57.4657
G01 X112.9799 Y-57.4792
G01 X112.8847 Y-57.5031
G01 X112.7923 Y-57.5361
G01 X112.7102 Y-57.5748
G01 X112.6972 Y-57.5817
G01 X112.6256 Y-57.6246
G01 X112.6134 Y-57.6328
G01 X112.5406 Y-57.6870
G01 X112.4732 Y-57.7478
G01 X112.4628 Y-57.7582
G01 X112.4020 Y-57.8256
G01 X112.3435 Y-57.9044
G01 X112.2967 Y-57.9822
G01 X112.2898 Y-57.9952
G01 X112.2511 Y-58.0773
G01 X112.2181 Y-58.1697
G01 X112.1942 Y-58.2649
G01 X112.1807 Y-58.3547
G01 X112.1793 Y-58.3693
G01 X112.1752 Y-58.4526
G01 X112.1752 Y-58.4674
G01 X112.1798 Y-58.5580
G01 X112.1930 Y-58.6478
G01 X112.1958 Y-58.6623
G01 X112.2161 Y-58.7432
G01 X112.2204 Y-58.7573
G01 X112.2511 Y-58.8427
G01 X112.2931 Y-58.9314
G01 X112.3435 Y-59.0156
G01 X112.3975 Y-59.0886
G01 X112.4068 Y-59.1000
G01 X112.4628 Y-59.1618
G01 X112.4732 Y-59.1722
G01 X112.5406 Y-59.2330
G01 X112.6194 Y-59.2915
G01 X112.6972 Y-59.3383
G01 X112.7102 Y-59.3452
G01 X112.7923 Y-59.3839
G01 X112.8812 Y-59.4158
G01 X112.8918 Y-59.4189
G01 X112.9799 Y-59.4408
G01 X113.0697 Y-59.4543
G01 X113.0843 Y-59.4557
G01 X113.1713 Y-59.4600
G01 X113.4250 Y-59.4600
G01 X113.5230 Y-59.4552
G01 X113.6128 Y-59.4420
G01 X113.6273 Y-59.4392
G01 X113.7153 Y-59.4169
G01 X113.8008 Y-59.3865
G01 X113.8144 Y-59.3809
G01 X113.8964 Y-59.3419
G01 X113.9744 Y-59.2954
G01 X113.9866 Y-59.2872
G01 X114.0594 Y-59.2330
G01 X114.1268 Y-59.1722
G01 X114.1372 Y-59.1618
G01 X114.1980 Y-59.0944
G01 X114.2522 Y-59.0216
G01 X114.2604 Y-59.0094
G01 X114.3069 Y-58.9314
G01 X114.3408 Y-58.8601
G01 X114.7443 Y-58.8601
G01 X117.5385 Y-61.6544
G01 X117.5232 Y-61.6972
G01 X117.5199 Y-61.7078
G01 X117.4999 Y-61.7875
G01 X117.4976 Y-61.7983
G01 X117.4846 Y-61.8869
G01 X117.4802 Y-61.9726
G01 X117.4800 Y-61.9837
G01 X117.4846 Y-62.0731
G01 X117.4983 Y-62.1653
G01 X117.5209 Y-62.2558
G01 X117.5509 Y-62.3401
G01 X117.5553 Y-62.3503
G01 X117.5922 Y-62.4278
G01 X117.6362 Y-62.5016
G01 X117.6443 Y-62.5138
G01 X117.6911 Y-62.5769
G01 X117.7004 Y-62.5882
G01 X117.7582 Y-62.6518
G01 X117.8273 Y-62.7144
G01 X117.9022 Y-62.7699
G01 X117.9758 Y-62.8142
G01 X117.9887 Y-62.8211
G01 X118.0665 Y-62.8577
G01 X118.1542 Y-62.8891
G01 X118.2447 Y-62.9117
G01 X118.3369 Y-62.9254
G01 X118.4300 Y-62.9300
G01 X118.5231 Y-62.9254
G01 X118.6153 Y-62.9117
G01 X118.6987 Y-62.8911
G01 X118.7093 Y-62.8880
G01 X118.7935 Y-62.8577
G01 X118.8778 Y-62.8178
G01 X118.9578 Y-62.7699
G01 X119.0269 Y-62.7189
G01 X119.0355 Y-62.7120
G01 X119.1018 Y-62.6518
G01 X119.1596 Y-62.5882
G01 X119.1667 Y-62.5798
G01 X119.2157 Y-62.5138
G01 X119.2219 Y-62.5047
G01 X119.2661 Y-62.4311
G01 X119.2711 Y-62.4213
G01 X119.2906 Y-62.3801
G01 X121.1872 Y-62.3801
G01 X121.1723 Y-62.4223
G01 X121.1552 Y-62.4901
G01 X121.1532 Y-62.5009
G01 X121.1440 Y-62.5628
G01 X121.1431 Y-62.5738
G01 X121.1400 Y-62.6400
G01 X121.1431 Y-62.7062
G01 X121.1440 Y-62.7172
G01 X121.1532 Y-62.7791
G01 X121.1560 Y-62.7935
G01 X121.1723 Y-62.8577
G01 X121.1944 Y-62.9201
G01 X121.2001 Y-62.9337
G01 X121.2286 Y-62.9935
G01 X121.2625 Y-63.0505
G01 X121.2685 Y-63.0597
G01 X121.3057 Y-63.1100
G01 X121.3151 Y-63.1214
G01 X121.3597 Y-63.1703
G01 X121.4086 Y-63.2149
G01 X121.4200 Y-63.2243
G01 X121.4733 Y-63.2636
G01 X121.5365 Y-63.3014
G01 X121.6030 Y-63.3329
G01 X121.6653 Y-63.3554
G01 X121.6794 Y-63.3597
G01 X121.7437 Y-63.3756
G01 X121.8092 Y-63.3855
G01 X121.8238 Y-63.3869
G01 X121.8863 Y-63.3900
G01 X122.6937 Y-63.3900
G01 X122.7635 Y-63.3864
G01 X122.8291 Y-63.3768
G01 X122.8435 Y-63.3740
G01 X122.9077 Y-63.3577
G01 X122.9770 Y-63.3329
G01 X123.0370 Y-63.3048
G01 X123.0500 Y-63.2978
G01 X123.1005 Y-63.2675
G01 X123.1127 Y-63.2594
G01 X123.1658 Y-63.2198
G01 X123.2150 Y-63.1754
G01 X123.2254 Y-63.1650
G01 X123.2698 Y-63.1158
G01 X123.3136 Y-63.0567
G01 X123.3514 Y-62.9935
G01 X123.3799 Y-62.9337
G01 X123.3856 Y-62.9201
G01 X123.4054 Y-62.8647
G01 X123.4097 Y-62.8506
G01 X123.4256 Y-62.7863
G01 X123.4355 Y-62.7208
G01 X123.4369 Y-62.7062
G01 X123.4400 Y-62.6400
G01 X123.4369 Y-62.5738
G01 X123.4355 Y-62.5592
G01 X123.4256 Y-62.4937
G01 X123.4077 Y-62.4223
G01 X123.3829 Y-62.3530
G01 X123.3548 Y-62.2930
G01 X123.3478 Y-62.2800
G01 X123.3136 Y-62.2233
G01 X123.2698 Y-62.1642
G01 X123.2203 Y-62.1097
G01 X123.1658 Y-62.0602
G01 X123.1067 Y-62.0164
G01 X123.0435 Y-61.9786
G01 X122.9770 Y-61.9471
G01 X122.9147 Y-61.9246
G01 X122.9006 Y-61.9203
G01 X122.8435 Y-61.9060
G01 X122.8291 Y-61.9032
G01 X122.7635 Y-61.8936
G01 X122.6974 Y-61.8902
G01 X122.1059 Y-61.8900
G01 X121.9103 Y-61.6945
G01 X121.8838 Y-61.6707
G01 X121.8553 Y-61.6494
G01 X121.8461 Y-61.6434
G01 X121.8186 Y-61.6271
G01 X121.7899 Y-61.6133
G01 X121.7763 Y-61.6077
G01 X121.7462 Y-61.5971
G01 X121.7152 Y-61.5892
G01 X121.7008 Y-61.5863
G01 X121.6692 Y-61.5818
G01 X121.6300 Y-61.5799
G01 X119.2906 Y-61.5799
G01 X119.2711 Y-61.5387
G01 X119.2661 Y-61.5289
G01 X119.2238 Y-61.4584
G01 X119.2178 Y-61.4492
G01 X119.1644 Y-61.3773
G01 X119.1068 Y-61.3136
G01 X119.0991 Y-61.3057
G01 X119.0327 Y-61.2456
G01 X118.9578 Y-61.1901
G01 X118.8778 Y-61.1422
G01 X118.7935 Y-61.1023
G01 X118.7058 Y-61.0709
G01 X118.6153 Y-61.0483
G01 X118.5231 Y-61.0346
G01 X118.4337 Y-61.0300
G01 X118.4226 Y-61.0302
G01 X118.3369 Y-61.0346
G01 X118.2483 Y-61.0476
G01 X118.2375 Y-61.0499
G01 X118.1578 Y-61.0699
G01 X118.1472 Y-61.0732
G01 X118.1044 Y-61.0885
G01 X115.1929 Y-58.1771
G01 X115.1638 Y-58.1507
G01 X115.1353 Y-58.1294
G01 X115.1261 Y-58.1234
G01 X115.0986 Y-58.1071
G01 X115.0699 Y-58.0933
G01 X115.0563 Y-58.0877
G01 X115.0262 Y-58.0771
G01 X114.9952 Y-58.0692
G01 X114.9808 Y-58.0663
G01 X114.9492 Y-58.0618
G01 X114.9100 Y-58.0599
G01 X114.3408 Y-58.0599
G01 X114.3069 Y-57.9886
G01 X114.2565 Y-57.9044
G01 X114.1980 Y-57.8256
G01 X114.1347 Y-57.7555
G01 X114.1268 Y-57.7478
G01 X114.0594 Y-57.6870
G01 X113.9866 Y-57.6328
G01 X113.9744 Y-57.6246
G01 X113.9028 Y-57.5817
G01 X113.8898 Y-57.5748
G01 X113.8077 Y-57.5361
G01 X113.7153 Y-57.5031
G01 X113.6201 Y-57.4792
G01 X113.5303 Y-57.4657
G01 X113.5157 Y-57.4643
G01 X113.4250 Y-57.4600
G01 X113.1713 Y-57.4600
G01 X113.0843 Y-57.4643
G00 Z1.0000
( ---------- cut-here ---------- )
G00 X113.8955 Y-57.4447
G01 F25.00
G01 Z-0.1000
G01 F70.00
G01 X113.8610 Y-57.4285
G01 X113.8461 Y-57.4223
G01 X113.7627 Y-57.3924
G01 X113.7452 Y-57.3868
G01 X113.6449 Y-57.3618
G01 X113.6304 Y-57.3593
G01 X113.5479 Y-57.3470
G01 X113.5362 Y-57.3455
G01 X113.5230 Y-57.3445
G01 X113.4302 Y-57.3401
G01 X113.1750 Y-57.3400
G01 X113.1618 Y-57.3403
G01 X113.0784 Y-57.3444
G01 X113.0638 Y-57.3455
G01 X112.9696 Y-57.3593
G01 X112.9486 Y-57.3632
G01 X112.8612 Y-57.3851
G01 X112.8422 Y-57.3907
G01 X112.7512 Y-57.4233
G01 X112.7356 Y-57.4300
G01 X112.6970 Y-57.4483
G01 X112.7201 Y-57.4191
G01 X112.7279 Y-57.4082
G01 X112.7351 Y-57.3969
G01 X112.7436 Y-57.3820
G01 X112.7495 Y-57.3699
G01 X112.7548 Y-57.3576
G01 X112.7604 Y-57.3422
G01 X112.7643 Y-57.3294
G01 X112.7669 Y-57.3193
G01 X112.7697 Y-57.3062
G01 X112.7718 Y-57.2929
G01 X112.7801 Y-57.2138
G01 X112.7811 Y-57.2004
G01 X112.7814 Y-57.1900
G01 X112.7812 Y-57.1766
G01 X112.7803 Y-57.1632
G01 X112.7773 Y-57.1403
G01 X112.7746 Y-57.1272
G01 X112.7721 Y-57.1171
G01 X112.7651 Y-57.0951
G01 X112.7602 Y-57.0826
G01 X112.7547 Y-57.0704
G01 X112.7208 Y-57.0033
G01 X112.7139 Y-56.9905
G01 X112.7045 Y-56.9753
G01 X112.7390 Y-56.9915
G01 X112.7539 Y-56.9977
G01 X112.8373 Y-57.0276
G01 X112.8548 Y-57.0332
G01 X112.9551 Y-57.0582
G01 X112.9696 Y-57.0607
G01 X113.0521 Y-57.0730
G01 X113.0638 Y-57.0745
G01 X113.0770 Y-57.0755
G01 X113.1698 Y-57.0799
G01 X113.4250 Y-57.0800
G01 X113.4382 Y-57.0797
G01 X113.5216 Y-57.0756
G01 X113.5362 Y-57.0745
G01 X113.6304 Y-57.0607
G01 X113.6514 Y-57.0568
G01 X113.7388 Y-57.0349
G01 X113.7578 Y-57.0293
G01 X113.8488 Y-56.9967
G01 X113.8644 Y-56.9900
G01 X113.9030 Y-56.9717
G01 X113.8799 Y-57.0009
G01 X113.8721 Y-57.0118
G01 X113.8648 Y-57.0231
G01 X113.8564 Y-57.0380
G01 X113.8505 Y-57.0501
G01 X113.8441 Y-57.0652
G01 X113.8396 Y-57.0778
G01 X113.8365 Y-57.0877
G01 X113.8331 Y-57.1007
G01 X113.8287 Y-57.1234
G01 X113.8200 Y-57.2047
G01 X113.8187 Y-57.2233
G01 X113.8189 Y-57.2464
G01 X113.8197 Y-57.2568
G01 X113.8212 Y-57.2701
G01 X113.8254 Y-57.2928
G01 X113.8287 Y-57.3058
G01 X113.8318 Y-57.3158
G01 X113.8387 Y-57.3347
G01 X113.8453 Y-57.3496
G01 X113.8846 Y-57.4270
G01 X113.8955 Y-57.4447
G01 X114.4413 Y-57.9399
G01 X114.4168 Y-57.9399
G01 X114.4103 Y-57.9275
G01 X114.4036 Y-57.9162
G01 X114.4224 Y-57.9291
G01 X114.4413 Y-57.9399
G00 Z1.0000
( ---------- cut-here ---------- )
G00 X114.3824 Y-59.0392
G01 F25.00
G01 Z-0.1000
G01 F70.00
G01 X114.4088 Y-58.9950
G01 X114.4168 Y-58.9801
G01 X114.6946 Y-58.9801
G01 X114.7171 Y-59.0027
G01 X114.6974 Y-58.9953
G01 X114.6874 Y-58.9922
G01 X114.6744 Y-58.9888
G01 X114.6547 Y-58.9849
G01 X114.6318 Y-58.9822
G01 X114.6146 Y-58.9815
G01 X114.5983 Y-58.9819
G01 X114.5152 Y-58.9879
G01 X114.4953 Y-58.9907
G01 X114.4785 Y-58.9942
G01 X114.4627 Y-58.9986
G01 X114.4465 Y-59.0042
G01 X114.4314 Y-59.0105
G01 X114.4134 Y-59.0195
G01 X114.3986 Y-59.0281
G01 X114.3824 Y-59.0392
G00 Z1.0000
( ---------- cut-here ---------- )
G00 X114.4748 Y-55.5726
G01 F25.00
G01 Z-0.1000
G01 F70.00
G01 X114.4610 Y-55.5346
G01 X114.4939 Y-55.5017
G01 X114.4873 Y-55.5188
G01 X114.4815 Y-55.5381
G01 X114.4778 Y-55.5542
G01 X114.4748 Y-55.5726
G00 Z1.0000
( ---------- cut-here ---------- )
G00 X113.6656 Y-54.8588
G01 F25.00
G01 Z-0.1000
G01 F70.00
G01 X113.6593 Y-54.8651
G01 X113.6497 Y-54.8628
G01 X113.6656 Y-54.8588
G01 X113.0843 Y-54.9643
G01 X113.0697 Y-54.9657
G01 X112.9872 Y-54.9780
G01 X112.9763 Y-54.9800
G01 X112.8847 Y-55.0031
G01 X112.7992 Y-55.0335
G01 X112.7856 Y-55.0391
G01 X112.7069 Y-55.0764
G01 X112.6972 Y-55.0817
G01 X112.6194 Y-55.1285
G01 X112.5464 Y-55.1825
G01 X112.5350 Y-55.1918
G01 X112.4732 Y-55.2478
G01 X112.4628 Y-55.2582
G01 X112.4020 Y-55.3256
G01 X112.3435 Y-55.4044
G01 X112.2931 Y-55.4886
G01 X112.2526 Y-55.5739
G01 X112.2485 Y-55.5842
G01 X112.2181 Y-55.6697
G01 X112.1942 Y-55.7649
G01 X112.1798 Y-55.8620
G01 X112.1750 Y-55.9600
G01 X112.1798 Y-56.0580
G01 X112.1942 Y-56.1551
G01 X112.2181 Y-56.2503
G01 X112.2511 Y-56.3427
G01 X112.2931 Y-56.4314
G01 X112.3435 Y-56.5156
G01 X112.4020 Y-56.5944
G01 X112.4679 Y-56.6671
G01 X112.5406 Y-56.7330
G01 X112.6194 Y-56.7915
G01 X112.7036 Y-56.8419
G01 X112.7889 Y-56.8824
G01 X112.7992 Y-56.8865
G01 X112.8847 Y-56.9169
G01 X112.9727 Y-56.9392
G01 X112.9872 Y-56.9420
G01 X113.0697 Y-56.9543
G01 X113.0807 Y-56.9555
G01 X113.1713 Y-56.9600
G01 X113.4287 Y-56.9600
G01 X113.5230 Y-56.9552
G01 X113.6128 Y-56.9420
G01 X113.6273 Y-56.9392
G01 X113.7082 Y-56.9189
G01 X113.7223 Y-56.9146
G01 X113.8077 Y-56.8839
G01 X113.8964 Y-56.8419
G01 X113.9744 Y-56.7954
G01 X113.9866 Y-56.7872
G01 X114.0594 Y-56.7330
G01 X114.1321 Y-56.6671
G01 X114.1980 Y-56.5944
G01 X114.2522 Y-56.5216
G01 X114.2604 Y-56.5094
G01 X114.3069 Y-56.4314
G01 X114.3489 Y-56.3427
G01 X114.3796 Y-56.2573
G01 X114.3839 Y-56.2432
G01 X114.4042 Y-56.1623
G01 X114.4070 Y-56.1478
G01 X114.4202 Y-56.0580
G01 X114.4248 Y-55.9674
G01 X114.4248 Y-55.9526
G01 X114.4207 Y-55.8693
G01 X114.4193 Y-55.8547
G01 X114.4058 Y-55.7649
G01 X114.3819 Y-55.6697
G01 X114.3489 Y-55.5773
G01 X114.3168 Y-55.5091
G01 X119.7329 Y-50.0929
G01 X119.7545 Y-50.0694
G01 X119.7638 Y-50.0580
G01 X119.7827 Y-50.0323
G01 X119.8011 Y-50.0018
G01 X119.8062 Y-49.9920
G01 X119.8197 Y-49.9631
G01 X119.8306 Y-49.9331
G01 X119.8349 Y-49.9191
G01 X119.8424 Y-49.8881
G01 X119.8473 Y-49.8565
G01 X119.8487 Y-49.8419
G01 X119.8501 Y-49.8100
G01 X119.8501 Y-44.1357
G01 X121.2598 Y-42.7260
G01 X121.2644 Y-42.7336
G01 X121.2706 Y-42.7427
G01 X121.3102 Y-42.7958
G01 X121.3597 Y-42.8503
G01 X121.4142 Y-42.8998
G01 X121.4673 Y-42.9394
G01 X121.4795 Y-42.9475
G01 X121.5300 Y-42.9778
G01 X121.5430 Y-42.9848
G01 X121.6030 Y-43.0129
G01 X121.6653 Y-43.0354
G01 X121.6794 Y-43.0397
G01 X121.7437 Y-43.0556
G01 X121.8165 Y-43.0664
G01 X121.8900 Y-43.0700
G01 X122.6900 Y-43.0700
G01 X122.7562 Y-43.0669
G01 X122.7672 Y-43.0660
G01 X122.8363 Y-43.0556
G01 X122.9006 Y-43.0397
G01 X122.9147 Y-43.0354
G01 X122.9770 Y-43.0129
G01 X123.0370 Y-42.9848
G01 X123.0500 Y-42.9778
G01 X123.1067 Y-42.9436
G01 X123.1629 Y-42.9021
G01 X123.1714 Y-42.8949
G01 X123.2150 Y-42.8554
G01 X123.2254 Y-42.8450
G01 X123.2698 Y-42.7958
G01 X123.3094 Y-42.7427
G01 X123.3175 Y-42.7305
G01 X123.3514 Y-42.6735
G01 X123.3799 Y-42.6137
G01 X123.3856 Y-42.6001
G01 X123.4077 Y-42.5377
G01 X123.4240 Y-42.4735
G01 X123.4268 Y-42.4591
G01 X123.4364 Y-42.3935
G01 X123.4400 Y-42.3200
G01 X123.4369 Y-42.2538
G01 X123.4355 Y-42.2392
G01 X123.4256 Y-42.1737
G01 X123.4097 Y-42.1094
G01 X123.4054 Y-42.0953
G01 X123.3829 Y-42.0330
G01 X123.3514 Y-41.9665
G01 X123.3175 Y-41.9095
G01 X123.3094 Y-41.8973
G01 X123.2698 Y-41.8442
G01 X123.2229 Y-41.7923
G01 X123.2150 Y-41.7846
G01 X123.1714 Y-41.7451
G01 X123.1600 Y-41.7357
G01 X123.1067 Y-41.6964
G01 X123.0500 Y-41.6622
G01 X123.0370 Y-41.6552
G01 X122.9770 Y-41.6271
G01 X122.9112 Y-41.6034
G01 X122.8886 Y-41.5973
G01 X124.5144 Y-39.9715
G01 X124.5572 Y-39.9868
G01 X124.5678 Y-39.9901
G01 X124.6475 Y-40.0101
G01 X124.6583 Y-40.0124
G01 X124.7469 Y-40.0254
G01 X124.8326 Y-40.0298
G01 X124.8437 Y-40.0300
G01 X124.9331 Y-40.0254
G01 X125.0253 Y-40.0117
G01 X125.1158 Y-39.9891
G01 X125.2035 Y-39.9577
G01 X125.2878 Y-39.9178
G01 X125.3678 Y-39.8699
G01 X125.4427 Y-39.8144
G01 X125.5091 Y-39.7543
G01 X125.5168 Y-39.7464
G01 X125.5744 Y-39.6827
G01 X125.6278 Y-39.6108
G01 X125.6338 Y-39.6016
G01 X125.6761 Y-39.5311
G01 X125.6811 Y-39.5213
G01 X125.7006 Y-39.4801
G01 X150.1643 Y-39.4801
G01 X153.5843 Y-42.9002
G01 X153.5736 Y-42.9228
G01 X153.5693 Y-42.9329
G01 X153.5346 Y-43.0299
G01 X153.5315 Y-43.0405
G01 X153.5074 Y-43.1369
G01 X153.5054 Y-43.1478
G01 X153.4904 Y-43.2497
G01 X153.4850 Y-43.3563
G01 X153.4852 Y-43.3674
G01 X153.4904 Y-43.4703
G01 X153.5066 Y-43.5795
G01 X153.5334 Y-43.6866
G01 X153.5706 Y-43.7905
G01 X153.6178 Y-43.8903
G01 X153.6746 Y-43.9850
G01 X153.7404 Y-44.0737
G01 X153.8094 Y-44.1502
G01 X153.8171 Y-44.1581
G01 X153.8963 Y-44.2296
G01 X153.9790 Y-44.2912
G01 X153.9881 Y-44.2974
G01 X154.0733 Y-44.3485
G01 X154.0829 Y-44.3539
G01 X154.1761 Y-44.3979
G01 X154.1864 Y-44.4020
G01 X154.2099 Y-44.4104
G01 X154.2099 Y-49.5743
G01 X153.6641 Y-50.1200
G01 X151.8763 Y-50.1200
G01 X151.8616 Y-50.1211
G01 X151.8507 Y-50.1229
G01 X151.8436 Y-50.1245
G01 X151.8295 Y-50.1288
G01 X151.8192 Y-50.1329
G01 X151.8126 Y-50.1360
G01 X151.8029 Y-50.1413
G01 X151.7967 Y-50.1453
G01 X151.7848 Y-50.1540
G01 X151.7766 Y-50.1614
G01 X151.7714 Y-50.1666
G01 X151.7617 Y-50.1777
G01 X151.7553 Y-50.1867
G01 X151.7477 Y-50.1993
G01 X151.7429 Y-50.2092
G01 X151.7388 Y-50.2195
G01 X151.7354 Y-50.2300
G01 X151.7329 Y-50.2407
G01 X151.7311 Y-50.2516
G01 X151.7300 Y-50.2663
G01 X151.7302 Y-52.4774
G01 X151.7311 Y-52.4884
G01 X151.7336 Y-52.5029
G01 X151.7376 Y-52.5171
G01 X151.7414 Y-52.5274
G01 X151.7460 Y-52.5374
G01 X151.7533 Y-52.5502
G01 X151.7617 Y-52.5623
G01 X151.7714 Y-52.5734
G01 X151.7820 Y-52.5836
G01 X151.7906 Y-52.5905
G01 X151.7998 Y-52.5967
G01 X151.8126 Y-52.6040
G01 X151.8260 Y-52.6099
G01 X151.8365 Y-52.6135
G01 X151.8507 Y-52.6171
G01 X151.8616 Y-52.6189
G01 X151.8690 Y-52.6196
G01 X151.8800 Y-52.6200
G01 X154.0874 Y-52.6198
G01 X154.0984 Y-52.6189
G01 X154.1093 Y-52.6171
G01 X154.1200 Y-52.6146
G01 X154.1305 Y-52.6112
G01 X154.1408 Y-52.6071
G01 X154.1507 Y-52.6023
G01 X154.1602 Y-52.5967
G01 X154.1694 Y-52.5905
G01 X154.1780 Y-52.5836
G01 X154.1861 Y-52.5761
G01 X154.1911 Y-52.5707
G01 X154.1983 Y-52.5623
G01 X154.2047 Y-52.5533
G01 X154.2105 Y-52.5439
G01 X154.2156 Y-52.5341
G01 X154.2199 Y-52.5240
G01 X154.2246 Y-52.5100
G01 X154.2278 Y-52.4956
G01 X154.2296 Y-52.4810
G01 X154.2300 Y-52.4700
G01 X154.2300 Y-50.6859
G01 X154.8929 Y-50.0229
G01 X154.9169 Y-49.9967
G01 X154.9238 Y-49.9880
G01 X154.9385 Y-49.9683
G01 X154.9466 Y-49.9561
G01 X154.9629 Y-49.9286
G01 X154.9797 Y-49.8931
G01 X154.9929 Y-49.8562
G01 X155.0008 Y-49.8252
G01 X155.0037 Y-49.8108
G01 X155.0082 Y-49.7792
G01 X155.0101 Y-49.7400
G01 X155.0101 Y-44.4104
G01 X155.0336 Y-44.4020
G01 X155.0439 Y-44.3979
G01 X155.1337 Y-44.3555
G01 X155.1435 Y-44.3504
G01 X155.2350 Y-44.2954
G01 X155.3179 Y-44.2342
G01 X155.3265 Y-44.2273
G01 X155.4055 Y-44.1555
G01 X155.4796 Y-44.0737
G01 X155.5454 Y-43.9850
G01 X155.5985 Y-43.8967
G01 X155.6039 Y-43.8871
G01 X155.6494 Y-43.7905
G01 X155.6866 Y-43.6866
G01 X155.7134 Y-43.5795
G01 X155.7296 Y-43.4703
G01 X155.7350 Y-43.3600
G01 X155.7296 Y-43.2497
G01 X155.7134 Y-43.1405
G01 X155.6876 Y-43.0370
G01 X155.6842 Y-43.0264
G01 X155.6494 Y-42.9295
G01 X155.6022 Y-42.8297
G01 X155.5454 Y-42.7350
G01 X155.4842 Y-42.6521
G01 X155.4748 Y-42.6407
G01 X155.4106 Y-42.5698
G01 X155.4002 Y-42.5594
G01 X155.3237 Y-42.4904
G01 X155.2410 Y-42.4288
G01 X155.2288 Y-42.4207
G01 X155.1403 Y-42.3678
G01 X155.0439 Y-42.3221
G01 X155.0336 Y-42.3180
G01 X154.9366 Y-42.2834
G01 X154.8295 Y-42.2566
G01 X154.7203 Y-42.2404
G01 X154.6174 Y-42.2352
G01 X154.6063 Y-42.2350
G01 X154.4997 Y-42.2404
G01 X154.3978 Y-42.2554
G01 X154.3869 Y-42.2574
G01 X154.2905 Y-42.2815
G01 X154.2799 Y-42.2846
G01 X154.1829 Y-42.3193
G01 X154.1728 Y-42.3236
G01 X154.1502 Y-42.3343
G01 X150.6103 Y-38.7945
G01 X150.5838 Y-38.7707
G01 X150.5583 Y-38.7515
G01 X150.5461 Y-38.7434
G01 X150.5250 Y-38.7308
G01 X150.5153 Y-38.7254
G01 X150.4831 Y-38.7103
G01 X150.4497 Y-38.6982
G01 X150.4391 Y-38.6951
G01 X150.4152 Y-38.6892
G01 X150.4008 Y-38.6863
G01 X150.3692 Y-38.6818
G01 X150.3300 Y-38.6799
G01 X125.7006 Y-38.6799
G01 X125.6811 Y-38.6387
G01 X125.6761 Y-38.6289
G01 X125.6319 Y-38.5553
G01 X125.6257 Y-38.5462
G01 X125.5789 Y-38.4831
G01 X125.5720 Y-38.4745
G01 X125.5118 Y-38.4082
G01 X125.4482 Y-38.3504
G01 X125.4369 Y-38.3411
G01 X125.3738 Y-38.2943
G01 X125.3647 Y-38.2881
G01 X125.2878 Y-38.2422
G01 X125.2103 Y-38.2053
G01 X125.1967 Y-38.1997
G01 X125.1158 Y-38.1709
G01 X125.0325 Y-38.1499
G01 X125.0181 Y-38.1470
G01 X124.9331 Y-38.1346
G01 X124.8437 Y-38.1300
G01 X124.8326 Y-38.1302
G01 X124.7469 Y-38.1346
G01 X124.6547 Y-38.1483
G01 X124.5642 Y-38.1709
G01 X124.4833 Y-38.1997
G01 X124.4697 Y-38.2053
G01 X124.3987 Y-38.2389
G01 X124.3858 Y-38.2458
G01 X124.3122 Y-38.2901
G01 X124.2431 Y-38.3411
G01 X124.2318 Y-38.3504
G01 X124.1682 Y-38.4082
G01 X124.1080 Y-38.4745
G01 X124.1011 Y-38.4831
G01 X124.0501 Y-38.5522
G01 X124.0058 Y-38.6258
G01 X123.9989 Y-38.6387
G01 X123.9623 Y-38.7165
G01 X123.9332 Y-38.7972
G01 X123.9289 Y-38.8113
G01 X123.9099 Y-38.8875
G01 X123.9076 Y-38.8983
G01 X123.8946 Y-38.9869
G01 X123.8902 Y-39.0726
G01 X123.8902 Y-39.0874
G01 X123.8943 Y-39.1694
G01 X123.8955 Y-39.1804
G01 X123.9070 Y-39.2581
G01 X123.9090 Y-39.2689
G01 X123.9299 Y-39.3522
G01 X123.9332 Y-39.3628
G01 X123.9485 Y-39.4056
G01 X122.0045 Y-41.3497
G01 X121.9807 Y-41.3762
G01 X121.9615 Y-41.4017
G01 X121.9534 Y-41.4139
G01 X121.9408 Y-41.4350
G01 X121.9354 Y-41.4447
G01 X121.9203 Y-41.4769
G01 X121.9082 Y-41.5103
G01 X121.9051 Y-41.5209
G01 X121.8983 Y-41.5483
G01 X121.8947 Y-41.5700
G01 X121.8826 Y-41.5702
G01 X121.8165 Y-41.5736
G01 X121.7509 Y-41.5832
G01 X121.7365 Y-41.5860
G01 X121.6723 Y-41.6023
G01 X121.6099 Y-41.6244
G01 X121.5963 Y-41.6301
G01 X121.5365 Y-41.6586
G01 X121.4795 Y-41.6925
G01 X121.4673 Y-41.7006
G01 X121.4142 Y-41.7402
G01 X121.3623 Y-41.7871
G01 X121.3546 Y-41.7950
G01 X121.3151 Y-41.8386
G01 X121.3079 Y-41.8471
G01 X121.2685 Y-41.9003
G01 X121.2563 Y-41.9199
G01 X121.0963 Y-41.9199
G01 X121.0644 Y-41.9215
G01 X121.0535 Y-41.9227
G01 X121.0292 Y-41.9263
G01 X121.0183 Y-41.9283
G01 X120.9909 Y-41.9351
G01 X120.9803 Y-41.9382
G01 X120.9537 Y-41.9477
G01 X120.9435 Y-41.9518
G01 X120.9147 Y-41.9654
G01 X120.9050 Y-41.9708
G01 X120.8777 Y-41.9873
G01 X120.8520 Y-42.0062
G01 X120.8433 Y-42.0131
G01 X120.8197 Y-42.0345
G01 X120.3850 Y-42.4691
G01 X118.6601 Y-40.7443
G01 X118.6601 Y-39.5241
G01 X118.6785 Y-39.5174
G01 X118.6853 Y-39.5146
G01 X118.7797 Y-39.4698
G01 X118.8663 Y-39.4181
G01 X118.8785 Y-39.4100
G01 X118.9594 Y-39.3497
G01 X119.0343 Y-39.2822
G01 X119.0447 Y-39.2718
G01 X119.1122 Y-39.1969
G01 X119.1767 Y-39.1100
G01 X119.2287 Y-39.0236
G01 X119.2356 Y-39.0106
G01 X119.2786 Y-38.9194
G01 X119.3127 Y-38.8245
G01 X119.3170 Y-38.8104
G01 X119.3413 Y-38.7126
G01 X119.3572 Y-38.6056
G01 X119.3625 Y-38.5012
G01 X119.3625 Y-38.3988
G01 X119.3577 Y-38.3018
G01 X119.3568 Y-38.2908
G01 X119.3413 Y-38.1874
G01 X119.3150 Y-38.0825
G01 X119.2786 Y-37.9806
G01 X119.2356 Y-37.8894
G01 X119.2287 Y-37.8764
G01 X119.1806 Y-37.7962
G01 X119.1725 Y-37.7840
G01 X119.1122 Y-37.7031
G01 X119.0447 Y-37.6282
G01 X119.0343 Y-37.6178
G01 X118.9594 Y-37.5503
G01 X118.8725 Y-37.4858
G01 X118.7797 Y-37.4302
G01 X118.6819 Y-37.3839
G01 X118.5800 Y-37.3475
G01 X118.4823 Y-37.3228
G01 X118.4678 Y-37.3199
G01 X118.3754 Y-37.3062
G01 X118.3607 Y-37.3048
G01 X118.2600 Y-37.3000
G01 X118.1519 Y-37.3053
G01 X118.0449 Y-37.3212
G01 X117.9435 Y-37.3464
G01 X117.9330 Y-37.3498
G01 X117.8450 Y-37.3813
G01 X117.8314 Y-37.3869
G01 X117.7403 Y-37.4302
G01 X117.6475 Y-37.4858
G01 X117.5606 Y-37.5503
G01 X117.4857 Y-37.6178
G01 X117.4753 Y-37.6282
G01 X117.4126 Y-37.6975
G01 X117.4032 Y-37.7089
G01 X117.3433 Y-37.7900
G01 X117.2877 Y-37.8828
G01 X117.2414 Y-37.9806
G01 X117.2073 Y-38.0755
G01 X117.2030 Y-38.0896
G01 X117.1803 Y-38.1802
G01 X117.1774 Y-38.1947
G01 X117.1628 Y-38.2944
G01 X117.1575 Y-38.3988
G01 X117.1575 Y-38.5012
G01 X117.1628 Y-38.6056
G01 X117.1787 Y-38.7126
G01 X117.2030 Y-38.8104
G01 X117.2073 Y-38.8245
G01 X117.2388 Y-38.9125
G01 X117.2444 Y-38.9261
G01 X117.2877 Y-39.0172
G01 X117.3413 Y-39.1069
G01 X117.3475 Y-39.1160
G01 X117.4032 Y-39.1911
G01 X117.4126 Y-39.2025
G01 X117.4804 Y-39.2771
G01 X117.5606 Y-39.3497
G01 X117.6475 Y-39.4142
G01 X117.7371 Y-39.4680
G01 X117.7469 Y-39.4731
G01 X117.8347 Y-39.5146
G01 X117.8415 Y-39.5174
G01 X117.8599 Y-39.5241
G01 X117.8599 Y-40.9100
G01 X117.8618 Y-40.9492
G01 X117.8663 Y-40.9808
G01 X117.8692 Y-40.9952
G01 X117.8751 Y-41.0191
G01 X117.8782 Y-41.0297
G01 X117.8890 Y-41.0597
G01 X117.8933 Y-41.0699
G01 X117.9071 Y-41.0986
G01 X117.9234 Y-41.1261
G01 X117.9294 Y-41.1353
G01 X117.9484 Y-41.1610
G01 X117.9555 Y-41.1694
G01 X117.9745 Y-41.1903
G01 X119.8191 Y-43.0350
G01 X119.1671 Y-43.6871
G01 X119.1431 Y-43.7133
G01 X119.1362 Y-43.7220
G01 X119.1215 Y-43.7417
G01 X119.1134 Y-43.7539
G01 X119.0971 Y-43.7814
G01 X119.0803 Y-43.8169
G01 X119.0694 Y-43.8469
G01 X119.0651 Y-43.8609
G01 X119.0576 Y-43.8919
G01 X119.0522 Y-43.9271
G01 X119.0513 Y-43.9381
G01 X119.0499 Y-43.9700
G01 X119.0499 Y-49.6443
G01 X113.6961 Y-54.9981
G01 X113.6201 Y-54.9792
G01 X113.5303 Y-54.9657
G01 X113.5157 Y-54.9643
G01 X113.4250 Y-54.9600
G01 X113.1713 Y-54.9600
G01 X113.0843 Y-54.9643
G00 Z1.0000
( ---------- cut-here ---------- )
G00 X117.3476 Y-54.7600
G01 F25.00
G01 Z-0.1000
G01 F70.00
G01 X117.5694 Y-54.7600
G01 X117.5889 Y-54.8013
G01 X117.5939 Y-54.8111
G01 X117.6362 Y-54.8816
G01 X117.6422 Y-54.8908
G01 X117.6956 Y-54.9627
G01 X117.7582 Y-55.0318
G01 X117.8273 Y-55.0944
G01 X117.8992 Y-55.1478
G01 X117.9084 Y-55.1538
G01 X117.9789 Y-55.1961
G01 X117.9887 Y-55.2011
G01 X118.0300 Y-55.2206
G01 X118.0300 Y-55.4424
G01 X117.8528 Y-55.3597
G01 X117.6880 Y-55.2443
G01 X117.5457 Y-55.1020
G01 X117.4303 Y-54.9372
G01 X117.3476 Y-54.7600
G00 Z1.0000
( ---------- cut-here ---------- )
G00 X117.3476 Y-53.9600
G01 F25.00
G01 Z-0.1000
G01 F70.00
G01 X117.4303 Y-53.7828
G01 X117.5457 Y-53.6180
G01 X117.6880 Y-53.4757
G01 X117.8528 Y-53.3603
G01 X118.0300 Y-53.2776
G01 X118.0300 Y-53.4994
G01 X117.9887 Y-53.5189
G01 X117.9789 Y-53.5239
G01 X117.9084 Y-53.5662
G01 X117.8992 Y-53.5722
G01 X117.8273 Y-53.6256
G01 X117.7582 Y-53.6882
G01 X117.6956 Y-53.7573
G01 X117.6422 Y-53.8292
G01 X117.6362 Y-53.8384
G01 X117.5939 Y-53.9089
G01 X117.5889 Y-53.9187
G01 X117.5694 Y-53.9600
G01 X117.3476 Y-53.9600
G00 Z1.0000
( ---------- cut-here ---------- )
G00 X118.8300 Y-53.4994
G01 F25.00
G01 Z-0.1000
G01 F70.00
G01 X118.8300 Y-53.2776
G01 X119.0072 Y-53.3603
G01 X119.1720 Y-53.4757
G01 X119.3143 Y-53.6180
G01 X119.4297 Y-53.7828
G01 X119.5124 Y-53.9600
G01 X119.2906 Y-53.9600
G01 X119.2711 Y-53.9187
G01 X119.2661 Y-53.9089
G01 X119.2238 Y-53.8384
G01 X119.2178 Y-53.8292
G01 X119.1644 Y-53.7573
G01 X119.1018 Y-53.6882
G01 X119.0327 Y-53.6256
G01 X118.9608 Y-53.5722
G01 X118.9516 Y-53.5662
G01 X118.8811 Y-53.5239
G01 X118.8713 Y-53.5189
G01 X118.8300 Y-53.4994
G00 Z1.0000
( ---------- cut-here ---------- )
G00 X118.8300 Y-55.2206
G01 F25.00
G01 Z-0.1000
G01 F70.00
G01 X118.8713 Y-55.2011
G01 X118.8811 Y-55.1961
G01 X118.9516 Y-55.1538
G01 X118.9608 Y-55.1478
G01 X119.0327 Y-55.0944
G01 X119.1018 Y-55.0318
G01 X119.1644 Y-54.9627
G01 X119.2178 Y-54.8908
G01 X119.2238 Y-54.8816
G01 X119.2661 Y-54.8111
G01 X119.2711 Y-54.8013
G01 X119.2906 Y-54.7600
G01 X119.5124 Y-54.7600
G01 X119.4297 Y-54.9372
G01 X119.3143 Y-55.1020
G01 X119.1720 Y-55.2443
G01 X119.0072 Y-55.3597
G01 X118.8300 Y-55.4424
G01 X118.8300 Y-55.2206
G00 Z1.0000
( ---------- cut-here ---------- )
G00 X122.6900 Y-55.7700
G01 F25.00
G01 Z-0.1000
G01 F70.00
G01 X122.7562 Y-55.7669
G01 X122.7708 Y-55.7655
G01 X122.8363 Y-55.7556
G01 X122.9006 Y-55.7397
G01 X122.9147 Y-55.7354
G01 X122.9770 Y-55.7129
G01 X123.0370 Y-55.6848
G01 X123.0468 Y-55.6797
G01 X123.1005 Y-55.6475
G01 X123.1127 Y-55.6394
G01 X123.1658 Y-55.5998
G01 X123.2177 Y-55.5529
G01 X123.2254 Y-55.5450
G01 X123.2649 Y-55.5014
G01 X123.2721 Y-55.4929
G01 X123.3115 Y-55.4397
G01 X123.3238 Y-55.4200
G01 X123.5517 Y-55.4200
G01 X123.5165 Y-55.4972
G01 X123.4112 Y-55.6449
G01 X123.2799 Y-55.7701
G01 X123.1273 Y-55.8682
G01 X122.9589 Y-55.9357
G01 X122.7807 Y-55.9700
G01 X122.6900 Y-55.9700
G01 X122.6900 Y-55.7700
G00 Z1.0000
( ---------- cut-here ---------- )
G00 X122.6900 Y-54.2700
G01 F25.00
G01 Z-0.1000
G01 F70.00
G01 X122.6900 Y-54.0700
G01 X122.7353 Y-54.0700
G01 X122.8706 Y-54.0829
G01 X123.0447 Y-54.1340
G01 X123.2059 Y-54.2172
G01 X123.3486 Y-54.3293
G01 X123.4674 Y-54.4664
G01 X123.5560 Y-54.6200
G01 X123.3238 Y-54.6200
G01 X123.3115 Y-54.6003
G01 X123.2721 Y-54.5471
G01 X123.2649 Y-54.5386
G01 X123.2254 Y-54.4950
G01 X123.2177 Y-54.4871
G01 X123.1714 Y-54.4451
G01 X123.1600 Y-54.4357
G01 X123.1067 Y-54.3964
G01 X123.0468 Y-54.3603
G01 X123.0370 Y-54.3552
G01 X122.9770 Y-54.3271
G01 X122.9147 Y-54.3046
G01 X122.9006 Y-54.3003
G01 X122.8363 Y-54.2844
G01 X122.7708 Y-54.2745
G01 X122.7562 Y-54.2731
G01 X122.6900 Y-54.2700
G00 Z1.0000
( ---------- cut-here ---------- )
G00 X121.8238 Y-64.4331
G01 F25.00
G01 Z-0.1000
G01 F70.00
G01 X121.8092 Y-64.4345
G01 X121.7509 Y-64.4432
G01 X121.7365 Y-64.4460
G01 X121.6723 Y-64.4623
G01 X121.6030 Y-64.4871
G01 X121.5365 Y-64.5186
G01 X121.4795 Y-64.5525
G01 X121.4673 Y-64.5606
G01 X121.4142 Y-64.6002
G01 X121.3650 Y-64.6446
G01 X121.3546 Y-64.6550
G01 X121.3102 Y-64.7042
G01 X121.2664 Y-64.7633
G01 X121.2322 Y-64.8200
G01 X121.2252 Y-64.8330
G01 X121.1971 Y-64.8930
G01 X121.1723 Y-64.9623
G01 X121.1544 Y-65.0337
G01 X121.1445 Y-65.0992
G01 X121.1431 Y-65.1138
G01 X121.1400 Y-65.1800
G01 X121.1436 Y-65.2535
G01 X121.1532 Y-65.3191
G01 X121.1560 Y-65.3335
G01 X121.1723 Y-65.3977
G01 X121.1971 Y-65.4670
G01 X121.2252 Y-65.5270
G01 X121.2322 Y-65.5400
G01 X121.2664 Y-65.5967
G01 X121.3057 Y-65.6500
G01 X121.3151 Y-65.6614
G01 X121.3597 Y-65.7103
G01 X121.4114 Y-65.7574
G01 X121.4200 Y-65.7643
G01 X121.4673 Y-65.7994
G01 X121.4795 Y-65.8075
G01 X121.5365 Y-65.8414
G01 X121.6030 Y-65.8729
G01 X121.6653 Y-65.8954
G01 X121.6794 Y-65.8997
G01 X121.7437 Y-65.9156
G01 X121.8128 Y-65.9260
G01 X121.8238 Y-65.9269
G01 X121.8900 Y-65.9300
G01 X122.6900 Y-65.9300
G01 X122.7562 Y-65.9269
G01 X122.7708 Y-65.9255
G01 X122.8363 Y-65.9156
G01 X122.9077 Y-65.8977
G01 X122.9770 Y-65.8729
G01 X123.0435 Y-65.8414
G01 X123.1067 Y-65.8036
G01 X123.1658 Y-65.7598
G01 X123.2203 Y-65.7103
G01 X123.2674 Y-65.6586
G01 X123.2743 Y-65.6500
G01 X123.3136 Y-65.5967
G01 X123.3514 Y-65.5335
G01 X123.3829 Y-65.4670
G01 X123.4077 Y-65.3977
G01 X123.4256 Y-65.3263
G01 X123.4364 Y-65.2535
G01 X123.4400 Y-65.1800
G01 X123.4364 Y-65.1065
G01 X123.4256 Y-65.0337
G01 X123.4077 Y-64.9623
G01 X123.3829 Y-64.8930
G01 X123.3514 Y-64.8265
G01 X123.3136 Y-64.7633
G01 X123.2698 Y-64.7042
G01 X123.2203 Y-64.6497
G01 X123.1686 Y-64.6026
G01 X123.1600 Y-64.5957
G01 X123.1127 Y-64.5606
G01 X123.1005 Y-64.5525
G01 X123.0435 Y-64.5186
G01 X122.9770 Y-64.4871
G01 X122.9147 Y-64.4646
G01 X122.9006 Y-64.4603
G01 X122.8363 Y-64.4444
G01 X122.7672 Y-64.4340
G01 X122.7562 Y-64.4331
G01 X122.6900 Y-64.4300
G01 X121.8900 Y-64.4300
G01 X121.8238 Y-64.4331
G00 Z1.0000
( ---------- cut-here ---------- )
G00 X120.9363 Y-65.2254
G01 F25.00
G01 Z-0.1000
G01 F70.00
G01 X120.9449 Y-65.0441
G01 X120.9877 Y-64.8677
G01 X121.0631 Y-64.7026
G01 X121.1684 Y-64.5547
G01 X121.2998 Y-64.4295
G01 X121.4525 Y-64.3313
G01 X121.6210 Y-64.2639
G01 X121.7992 Y-64.2295
G01 X122.7353 Y-64.2295
G01 X122.8707 Y-64.2424
G01 X123.0449 Y-64.2936
G01 X123.2062 Y-64.3768
G01 X123.3489 Y-64.4890
G01 X123.4678 Y-64.6261
G01 X123.5585 Y-64.7833
G01 X123.6179 Y-64.9549
G01 X123.6437 Y-65.1346
G01 X123.6351 Y-65.3159
G01 X123.5923 Y-65.4923
G01 X123.5169 Y-65.6574
G01 X123.4116 Y-65.8053
G01 X123.2802 Y-65.9305
G01 X123.1275 Y-66.0287
G01 X122.9590 Y-66.0961
